colorkit/colorkit/luts/bleach_bypass.cube
TITLE "bleach_bypass"
LUT_3D_SIZE 5
DOMAIN_MIN 0.0 0.0 0.0
DOMAIN_MAX 1.0 1.0 1.0
0.000000 0.000000 0.001600
0.135630 0.028142 0.029724
0.282715 0.058490 0.060015
0.429824 0.088850 0.090282
0.566316 0.117023 0.118344
0.093978 0.202996 0.096126
0.230473 0.231172 0.124185
0.377620 0.261550 0.154414
0.524780 0.291935 0.184631
0.661310 0.320128 0.212654
0.196347 0.421914 0.197813
0.332881 0.450108 0.225833
0.480059 0.480502 0.256031
0.627238 0.510897 0.286228
0.763777 0.539094 0.314243
0.298811 0.640878 0.299405
0.435349 0.669075 0.327420
0.582521 0.699465 0.357625
0.729684 0.729852 0.387838
0.866198 0.758037 0.415878
0.393845 0.844002 0.393675
0.530356 0.872186 0.421717
0.677490 0.902558 0.451960
0.824605 0.932920 0.482221
0.961066 0.961078 0.510314
0.008757 0.009556 0.119435
0.145194 0.037702 0.147551
0.292288 0.068054 0.177834
0.439403 0.098417 0.208095
0.575900 0.126593 0.236152
0.103558 0.212564 0.213938
0.240058 0.240742 0.241992
0.387210 0.271122 0.272217
0.534373 0.301509 0.302430
0.670905 0.329703 0.330451
0.205941 0.431488 0.315610
0.342477 0.459684 0.343629
0.489655 0.490078 0.373826
0.636835 0.520473 0.404023
0.773373 0.548669 0.432038
0.308407 0.650454 0.417200
0.444944 0.678650 0.445217
0.592113 0.709039 0.475424
0.739273 0.739424 0.505640
0.875783 0.767607 0.533684
0.403433 0.853574 0.511479
0.539941 0.881755 0.539525
0.687069 0.912125 0.569773
0.834178 0.942484 0.600040
0.970631 0.970638 0.628140
0.019061 0.019858 0.246449
0.155507 0.048008 0.274557
0.302608 0.078364 0.304832
0.449730 0.108730 0.335086
0.586233 0.136909 0.363137
0.113886 0.222878 0.340928
0.250392 0.251058 0.368976
0.397547 0.281441 0.399197
0.544714 0.311829 0.429407
0.681249 0.340024 0.457426
0.216284 0.441809 0.442586
0.352821 0.470005 0.470603
0.500000 0.500400 0.500800
0.647179 0.530795 0.530997
0.783716 0.558991 0.559014
0.318751 0.660776 0.544174
0.455286 0.688971 0.572193
0.602453 0.719359 0.602403
0.749608 0.749742 0.632624
0.886114 0.777922 0.660672
0.413767 0.863891 0.638463
0.550270 0.892070 0.666514
0.697392 0.922436 0.696768
0.844493 0.952792 0.727043
0.980939 0.980942 0.755151
0.029369 0.030162 0.373460
0.165822 0.058316 0.401560
0.312931 0.088675 0.431827
0.460059 0.119045 0.462075
0.596567 0.147226 0.490121
0.124217 0.233193 0.467916
0.260727 0.261376 0.495960
0.407887 0.291761 0.526176
0.555056 0.322150 0.556383
0.691593 0.350346 0.584400
0.226627 0.452131 0.569562
0.363165 0.480327 0.597577
0.510345 0.510722 0.627774
0.657523 0.541116 0.657971
0.794059 0.569312 0.685990
0.329095 0.671097 0.671149
0.465627 0.699291 0.699170
0.612790 0.729678 0.729383
0.759942 0.760058 0.759608
0.896442 0.788236 0.787662
0.424100 0.874207 0.765448
0.560597 0.902383 0.793505
0.707712 0.932746 0.823766
0.854806 0.963098 0.854049
0.991243 0.991244 0.882165
0.038934 0.039722 0.491286
0.175395 0.067880 0.519379
0.322510 0.098242 0.549640
0.469644 0.128614 0.579883
0.606155 0.156798 0.607925
0.133802 0.242763 0.585722
0.270316 0.270948 0.613762
0.417479 0.301335 0.643975
0.564651 0.331725 0.674180
0.701189 0.359922 0.702195
0.236223 0.461706 0.687357
0.372762 0.489903 0.715372
0.519941 0.520298 0.745569
0.667119 0.550692 0.775767
0.803653 0.578886 0.803787
0.338690 0.680672 0.788946
0.475220 0.708865 0.816969
0.622380 0.739250 0.847186
0.769527 0.769628 0.877415
0.906022 0.797804 0.905474
0.433684 0.883777 0.883256
0.570176 0.911950 0.911318
0.717285 0.942310 0.941585
0.864370 0.972658 0.971876
1.000000 1.000000 1.000000
