colorkit/colorkit/luts/bleach_bypass.cube
TITLE "bleach_bypass"
LUT_3D_SIZE 33
DOMAIN_MIN 0.0 0.0 0.0
DOMAIN_MAX 1.0 1.0 1.0
0.000000 0.000000 0.001600
0.015308 0.003322 0.004922
0.031727 0.006709 0.008308
0.048438 0.010156 0.011753
0.065419 0.013659 0.015254
0.082649 0.017213 0.018806
0.100108 0.020814 0.022404
0.117775 0.024459 0.026045
0.135630 0.028142 0.029724
0.153651 0.031860 0.033437
0.171817 0.035608 0.037179
0.190109 0.039382 0.040947
0.208505 0.043178 0.044736
0.226984 0.046990 0.048541
0.245526 0.050816 0.052359
0.264110 0.054651 0.056185
0.282715 0.058490 0.060015
0.301321 0.062330 0.063844
0.319906 0.066165 0.067669
0.338450 0.069992 0.071485
0.356932 0.073806 0.075288
0.375331 0.077603 0.079073
0.393627 0.081379 0.082837
0.411798 0.085129 0.086575
0.429824 0.088850 0.090282
0.447684 0.092536 0.093955
0.465358 0.096184 0.097589
0.482824 0.099789 0.101181
0.500062 0.103347 0.104725
0.517051 0.106854 0.108217
0.533771 0.110305 0.111654
0.550199 0.113696 0.115031
0.566316 0.117023 0.118344
0.010378 0.023962 0.012774
0.026487 0.027285 0.016095
0.042908 0.030673 0.019480
0.059619 0.034120 0.022924
0.076601 0.037623 0.026424
0.093833 0.041178 0.029974
0.111293 0.044780 0.033572
0.128961 0.048425 0.037211
0.146817 0.052109 0.040889
0.164839 0.055828 0.044601
0.183007 0.059576 0.048342
0.201300 0.063351 0.052108
0.219697 0.067147 0.055896
0.238177 0.070960 0.059700
0.256720 0.074787 0.063517
0.275305 0.078622 0.067342
0.293912 0.082462 0.071171
0.312518 0.086302 0.074999
0.331104 0.090137 0.078823
0.349649 0.093965 0.082638
0.368132 0.097779 0.086440
0.386532 0.101577 0.090224
0.404829 0.105353 0.093987
0.423001 0.109104 0.097724
0.441028 0.112825 0.101430
0.458889 0.116512 0.105103
0.476564 0.120160 0.108736
0.494031 0.123765 0.112327
0.511269 0.127324 0.115870
0.528259 0.130831 0.119362
0.544979 0.134283 0.122798
0.561408 0.137674 0.126174
0.577526 0.141001 0.129486
0.021776 0.048390 0.024160
0.037886 0.051713 0.027480
0.054308 0.055101 0.030864
0.071021 0.058549 0.034307
0.088004 0.062053 0.037805
0.105236 0.065609 0.041355
0.122698 0.069211 0.044951
0.140367 0.072857 0.048590
0.158224 0.076542 0.052266
0.176247 0.080261 0.055977
0.194416 0.084010 0.059717
0.212710 0.087785 0.063482
0.231108 0.091581 0.067269
0.249590 0.095395 0.071072
0.268134 0.099222 0.074888
0.286720 0.103058 0.078711
0.305327 0.106898 0.082539
0.323935 0.110738 0.086367
0.342522 0.114575 0.090190
0.361068 0.118402 0.094004
0.379551 0.122218 0.097805
0.397952 0.126016 0.101588
0.416250 0.129792 0.105350
0.434423 0.133544 0.109086
0.452451 0.137265 0.112792
0.470313 0.140952 0.116463
0.487988 0.144601 0.120096
0.505456 0.148207 0.123686
0.522696 0.151766 0.127228
0.539686 0.155273 0.130719
0.556407 0.158725 0.134155
0.572836 0.162117 0.137530
0.588955 0.165444 0.140842
0.033380 0.073252 0.035744
0.049491 0.076576 0.039063
0.065914 0.079964 0.042446
0.082628 0.083413 0.045888
0.099612 0.086917 0.049385
0.116846 0.090473 0.052933
0.134308 0.094077 0.056528
0.151979 0.097723 0.060166
0.169837 0.101408 0.063841
0.187861 0.105127 0.067551
0.206031 0.108877 0.071290
0.224326 0.112653 0.075054
0.242725 0.116450 0.078840
0.261208 0.120264 0.082642
0.279753 0.124092 0.086457
0.298340 0.127928 0.090279
0.316948 0.131769 0.094106
0.335556 0.135609 0.097933
0.354144 0.139446 0.101755
0.372691 0.143274 0.105568
0.391176 0.147090 0.109368
0.409578 0.150888 0.113150
0.427876 0.154666 0.116912
0.446050 0.158417 0.120647
0.464079 0.162139 0.124352
0.481941 0.165827 0.128022
0.499618 0.169476 0.131654
0.517086 0.173082 0.135243
0.534326 0.176641 0.138785
0.551317 0.180149 0.142276
0.568039 0.183601 0.145711
0.584469 0.186993 0.149085
0.600588 0.190321 0.152396
0.045175 0.098518 0.047512
0.061287 0.101842 0.050829
0.077711 0.105231 0.054211
0.094426 0.108680 0.057652
0.111411 0.112185 0.061148
0.128646 0.115742 0.064695
0.146110 0.119345 0.068289
0.163781 0.122992 0.071926
0.181640 0.126678 0.075600
0.199665 0.130398 0.079309
0.217836 0.134148 0.083047
0.236132 0.137924 0.086810
0.254532 0.141722 0.090594
0.273016 0.145537 0.094396
0.291562 0.149365 0.098209
0.310150 0.153201 0.102031
0.328759 0.157042 0.105857
0.347369 0.160884 0.109683
0.365958 0.164721 0.113504
0.384505 0.168549 0.117316
0.402991 0.172365 0.121115
0.421393 0.176164 0.124897
0.439693 0.179942 0.128657
0.457867 0.183694 0.132392
0.475897 0.187416 0.136096
0.493760 0.191104 0.139766
0.511437 0.194753 0.143397
0.528906 0.198360 0.146985
0.546147 0.201919 0.150527
0.563139 0.205428 0.154017
0.579860 0.208880 0.157451
0.596291 0.212273 0.160825
0.612411 0.215601 0.164135
0.057147 0.124156 0.059448
0.073260 0.127481 0.062764
0.089685 0.130870 0.066145
0.106401 0.134320 0.069585
0.123387 0.137825 0.073080
0.140623 0.141382 0.076626
0.158087 0.144987 0.080219
0.175760 0.148634 0.083855
0.193620 0.152320 0.087528
0.211646 0.156040 0.091236
0.229818 0.159791 0.094973
0.248115 0.163568 0.098735
0.266516 0.167366 0.102519
0.285001 0.171181 0.106319
0.303548 0.175010 0.110132
0.322137 0.178847 0.113953
0.340747 0.182688 0.117778
0.359357 0.186530 0.121602
0.377947 0.190368 0.125423
0.396495 0.194197 0.129234
0.414981 0.198013 0.133032
0.433385 0.201812 0.136813
0.451685 0.205590 0.140573
0.469860 0.209343 0.144307
0.487890 0.213065 0.148010
0.505755 0.216753 0.151679
0.523432 0.220403 0.155310
0.540902 0.224010 0.158898
0.558143 0.227570 0.162438
0.575135 0.231078 0.165928
0.591858 0.234531 0.169361
0.608289 0.237924 0.172735
0.624409 0.241252 0.176045
0.069281 0.150136 0.071538
0.085395 0.153461 0.074854
0.101821 0.156851 0.078234
0.118538 0.160301 0.081673
0.135525 0.163807 0.085167
0.152762 0.167364 0.088712
0.170227 0.170969 0.092304
0.187901 0.174617 0.095939
0.205762 0.178304 0.099611
0.223789 0.182025 0.103318
0.241962 0.185776 0.107054
0.260260 0.189553 0.110815
0.278662 0.193351 0.114598
0.297147 0.197167 0.118397
0.315695 0.200996 0.122209
0.334285 0.204834 0.126029
0.352896 0.208676 0.129854
0.371507 0.212518 0.133677
0.390097 0.216356 0.137497
0.408646 0.220185 0.141308
0.427134 0.224002 0.145105
0.445538 0.227801 0.148886
0.463838 0.231580 0.152644
0.482014 0.235332 0.156377
0.500045 0.239055 0.160080
0.517910 0.242744 0.163749
0.535588 0.246394 0.167379
0.553058 0.250001 0.170966
0.570300 0.253561 0.174506
0.587293 0.257070 0.177995
0.604016 0.260523 0.181428
0.620448 0.263916 0.184802
0.636568 0.267244 0.188111
0.081563 0.176426 0.083769
0.097678 0.179752 0.087084
0.114105 0.183142 0.090463
0.130823 0.186593 0.093901
0.147811 0.190099 0.097394
0.165049 0.193657 0.100939
0.182515 0.197263 0.104530
0.200189 0.200911 0.108163
0.218051 0.204598 0.111835
0.236079 0.208319 0.115540
0.254253 0.212071 0.119276
0.272552 0.215848 0.123036
0.290955 0.219647 0.126818
0.309441 0.223463 0.130617
0.327990 0.227293 0.134428
0.346580 0.231131 0.138247
0.365192 0.234973 0.142070
0.383804 0.238816 0.145894
0.402395 0.242654 0.149712
0.420945 0.246484 0.153522
0.439432 0.250301 0.157319
0.457837 0.254101 0.161099
0.476139 0.257879 0.164857
0.494315 0.261632 0.168589
0.512347 0.265355 0.172292
0.530212 0.269044 0.175960
0.547891 0.272695 0.179589
0.565361 0.276302 0.183176
0.582604 0.279862 0.186716
0.599597 0.283371 0.190204
0.616320 0.286824 0.193637
0.632753 0.290218 0.197010
0.648874 0.293547 0.200319
0.093978 0.202996 0.096126
0.110094 0.206323 0.099440
0.126522 0.209714 0.102818
0.143241 0.213165 0.106255
0.160230 0.216671 0.109748
0.177468 0.220230 0.113291
0.194936 0.223835 0.116881
0.212611 0.227484 0.120514
0.230473 0.231172 0.124185
0.248502 0.234893 0.127890
0.266677 0.238645 0.131624
0.284977 0.242423 0.135384
0.303380 0.246223 0.139165
0.321867 0.250039 0.142963
0.340417 0.253869 0.146773
0.359008 0.257707 0.150592
0.377620 0.261550 0.154414
0.396233 0.265393 0.158237
0.414825 0.269231 0.162055
0.433375 0.273062 0.165864
0.451864 0.276879 0.169660
0.470269 0.280679 0.173440
0.488571 0.284458 0.177197
0.506748 0.288212 0.180929
0.524780 0.291935 0.184631
0.542646 0.295624 0.188298
0.560325 0.299274 0.191927
0.577796 0.302882 0.195514
0.595039 0.306443 0.199053
0.612033 0.309952 0.202541
0.628756 0.313405 0.205973
0.645189 0.316799 0.209346
0.661310 0.320128 0.212654
0.106512 0.229816 0.108595
0.122629 0.233142 0.111908
0.139057 0.236534 0.115285
0.155777 0.239985 0.118721
0.172767 0.243492 0.122213
0.190006 0.247051 0.125756
0.207475 0.250657 0.129345
0.225151 0.254306 0.132977
0.243014 0.257994 0.136647
0.261044 0.261716 0.140351
0.279219 0.265469 0.144085
0.297519 0.269247 0.147844
0.315924 0.273047 0.151624
0.334411 0.276864 0.155421
0.352962 0.280694 0.159231
0.371554 0.284532 0.163049
0.390166 0.288375 0.166871
0.408780 0.292218 0.170693
0.427372 0.296057 0.174510
0.445923 0.299888 0.178319
0.464412 0.303705 0.182115
0.482818 0.307506 0.185893
0.501120 0.311285 0.189650
0.519298 0.315039 0.193381
0.537331 0.318762 0.197083
0.555197 0.322452 0.200750
0.572876 0.326102 0.204378
0.590348 0.329710 0.207964
0.607591 0.333271 0.211503
0.624585 0.336780 0.214991
0.641309 0.340234 0.218423
0.657742 0.343627 0.221795
0.673864 0.346957 0.225103
0.119150 0.256853 0.121161
0.135268 0.260180 0.124474
0.151697 0.263571 0.127850
0.168418 0.267023 0.131285
0.185408 0.270531 0.134776
0.202648 0.274090 0.138318
0.220117 0.277696 0.141907
0.237794 0.281346 0.145538
0.255658 0.285034 0.149207
0.273689 0.288757 0.152911
0.291865 0.292509 0.156644
0.310166 0.296288 0.160402
0.328571 0.300088 0.164181
0.347059 0.303905 0.167978
0.365610 0.307736 0.171787
0.384202 0.311575 0.175604
0.402816 0.315418 0.179426
0.421430 0.319261 0.183247
0.440023 0.323101 0.187064
0.458574 0.326931 0.190872
0.477064 0.330749 0.194667
0.495470 0.334550 0.198445
0.513773 0.338329 0.202202
0.531951 0.342083 0.205933
0.549984 0.345807 0.209634
0.567851 0.349496 0.213301
0.585530 0.353147 0.216929
0.603003 0.356755 0.220514
0.620246 0.360316 0.224053
0.637240 0.363826 0.227540
0.653965 0.367279 0.230972
0.670398 0.370673 0.234344
0.686520 0.374002 0.237652
0.131878 0.284077 0.133811
0.147996 0.287404 0.137122
0.164426 0.290796 0.140498
0.181148 0.294248 0.143933
0.198139 0.297756 0.147423
0.215380 0.301316 0.150964
0.232849 0.304922 0.154552
0.250527 0.308572 0.158183
0.268392 0.312261 0.161851
0.286423 0.315984 0.165554
0.304599 0.319737 0.169286
0.322901 0.323515 0.173044
0.341307 0.327316 0.176823
0.359795 0.331134 0.180619
0.378347 0.334964 0.184427
0.396940 0.338803 0.188244
0.415554 0.342647 0.192065
0.434168 0.346491 0.195886
0.452762 0.350330 0.199702
0.471314 0.354161 0.203510
0.489804 0.357979 0.207305
0.508211 0.361780 0.211082
0.526514 0.365560 0.214839
0.544692 0.369314 0.218569
0.562725 0.373038 0.222270
0.580592 0.376727 0.225936
0.598272 0.380378 0.229564
0.615745 0.383986 0.233149
0.632989 0.387547 0.236688
0.649983 0.391057 0.240175
0.666708 0.394511 0.243606
0.683141 0.397905 0.246978
0.699263 0.401234 0.250286
0.144681 0.311456 0.146529
0.160800 0.314784 0.149840
0.177230 0.318176 0.153215
0.193952 0.321629 0.156649
0.210944 0.325137 0.160139
0.228186 0.328697 0.163679
0.245656 0.332304 0.167267
0.263334 0.335954 0.170897
0.281199 0.339643 0.174565
0.299231 0.343366 0.178267
0.317408 0.347120 0.181999
0.335710 0.350899 0.185756
0.354117 0.354699 0.189534
0.372606 0.358517 0.193330
0.391158 0.362348 0.197138
0.409751 0.366187 0.200954
0.428366 0.370031 0.204774
0.446980 0.373875 0.208595
0.465574 0.377715 0.212411
0.484127 0.381546 0.216218
0.502617 0.385364 0.220013
0.521024 0.389165 0.223790
0.539328 0.392945 0.227546
0.557507 0.396699 0.231276
0.575540 0.400423 0.234976
0.593407 0.404113 0.238643
0.611088 0.407764 0.242270
0.628560 0.411373 0.245855
0.645804 0.414934 0.249393
0.662799 0.418443 0.252880
0.679523 0.421897 0.256312
0.695957 0.425291 0.259684
0.712079 0.428620 0.262991
0.157544 0.338961 0.159303
0.173663 0.342289 0.162613
0.190095 0.345682 0.165987
0.206817 0.349134 0.169421
0.223809 0.352643 0.172910
0.241052 0.356203 0.176450
0.258522 0.359810 0.180037
0.276201 0.363461 0.183666
0.294067 0.367150 0.187334
0.312099 0.370873 0.191035
0.330277 0.374627 0.194767
0.348579 0.378406 0.198523
0.366986 0.382207 0.202301
0.385476 0.386025 0.206096
0.404028 0.389856 0.209904
0.422622 0.393696 0.213720
0.441237 0.397540 0.217540
0.459852 0.401384 0.221360
0.478446 0.405224 0.225176
0.496999 0.409055 0.228983
0.515490 0.412874 0.232777
0.533897 0.416675 0.236554
0.552201 0.420455 0.240310
0.570380 0.424209 0.244040
0.588413 0.427933 0.247740
0.606281 0.431623 0.251406
0.623961 0.435274 0.255033
0.641434 0.438883 0.258618
0.658678 0.442444 0.262156
0.675673 0.445953 0.265643
0.692397 0.449407 0.269074
0.708831 0.452801 0.272446
0.724953 0.456131 0.275754
0.170452 0.366559 0.172118
0.186572 0.369888 0.175427
0.203004 0.373281 0.178801
0.219727 0.376734 0.182234
0.236720 0.380242 0.185723
0.253963 0.383803 0.189262
0.271434 0.387411 0.192848
0.289113 0.391061 0.196477
0.306979 0.394750 0.200144
0.325012 0.398474 0.203845
0.343190 0.402228 0.207576
0.361493 0.406007 0.211333
0.379900 0.409808 0.215110
0.398390 0.413627 0.218905
0.416943 0.417458 0.222712
0.435537 0.421298 0.226528
0.454153 0.425142 0.230347
0.472768 0.428986 0.234167
0.491362 0.432826 0.237982
0.509915 0.436658 0.241789
0.528406 0.440476 0.245583
0.546814 0.444278 0.249360
0.565118 0.448058 0.253116
0.583297 0.451812 0.256845
0.601331 0.455536 0.260545
0.619198 0.459226 0.264211
0.636879 0.462877 0.267839
0.654351 0.466486 0.271424
0.671596 0.470047 0.274962
0.688590 0.473556 0.278448
0.705315 0.477010 0.281880
0.721749 0.480404 0.285251
0.737871 0.483734 0.288559
0.183392 0.394221 0.184959
0.199512 0.397549 0.188268
0.215945 0.400942 0.191641
0.232668 0.404396 0.195074
0.249661 0.407905 0.198562
0.266904 0.411465 0.202101
0.284376 0.415073 0.205687
0.302056 0.418724 0.209315
0.319922 0.422413 0.212982
0.337955 0.426137 0.216683
0.356134 0.429891 0.220413
0.374437 0.433671 0.224169
0.392845 0.437472 0.227946
0.411335 0.441291 0.231741
0.429888 0.445122 0.235548
0.448483 0.448962 0.239363
0.467098 0.452806 0.243183
0.485713 0.456651 0.247002
0.504308 0.460491 0.250817
0.522861 0.464322 0.254624
0.541352 0.468141 0.258418
0.559760 0.471942 0.262194
0.578064 0.475722 0.265950
0.596243 0.479477 0.269680
0.614277 0.483201 0.273380
0.632145 0.486891 0.277045
0.649825 0.490542 0.280673
0.667298 0.494150 0.284258
0.684542 0.497712 0.287796
0.701537 0.501221 0.291282
0.718262 0.504675 0.294714
0.734695 0.508069 0.298086
0.750817 0.511398 0.301393
0.196347 0.421914 0.197813
0.212468 0.425243 0.201121
0.228901 0.428636 0.204494
0.245625 0.432089 0.207926
0.262619 0.435599 0.211414
0.279862 0.439159 0.214953
0.297334 0.442767 0.218538
0.315014 0.446418 0.222166
0.332881 0.450108 0.225833
0.350914 0.453832 0.229533
0.369093 0.457586 0.233263
0.387397 0.461366 0.237019
0.405804 0.465167 0.240796
0.424295 0.468986 0.244590
0.442848 0.472817 0.248397
0.461443 0.476657 0.252212
0.480059 0.480502 0.256031
0.498674 0.484346 0.259851
0.517269 0.488186 0.263666
0.535822 0.492018 0.267473
0.554313 0.495836 0.271266
0.572721 0.499638 0.275043
0.591025 0.503418 0.278798
0.609204 0.507172 0.282528
0.627238 0.510897 0.286228
0.645106 0.514586 0.289894
0.662786 0.518238 0.293521
0.680259 0.521846 0.297106
0.697503 0.525407 0.300644
0.714498 0.528917 0.304131
0.731222 0.532371 0.307563
0.747656 0.535764 0.310935
0.763777 0.539094 0.314243
0.209305 0.449608 0.210665
0.225426 0.452937 0.213973
0.241859 0.456330 0.217346
0.258583 0.459784 0.220778
0.275577 0.463293 0.224265
0.292821 0.466854 0.227803
0.310293 0.470462 0.231389
0.327973 0.474113 0.235017
0.345841 0.477803 0.238683
0.363874 0.481527 0.242383
0.382053 0.485281 0.246113
0.400357 0.489061 0.249868
0.418765 0.492863 0.253645
0.437256 0.496681 0.257439
0.455809 0.500513 0.261246
0.474404 0.504353 0.265061
0.493019 0.508197 0.268880
0.511635 0.512042 0.272699
0.530230 0.515882 0.276514
0.548783 0.519714 0.280321
0.567274 0.523532 0.284115
0.585682 0.527334 0.287891
0.603986 0.531114 0.291647
0.622165 0.534868 0.295377
0.640199 0.538592 0.299077
0.658066 0.542282 0.302743
0.675747 0.545933 0.306370
0.693219 0.549542 0.309955
0.710463 0.553103 0.313494
0.727458 0.556612 0.316981
0.744182 0.560066 0.320412
0.760615 0.563459 0.323784
0.776737 0.566789 0.327093
0.222249 0.477271 0.223501
0.238370 0.480600 0.226810
0.254803 0.483994 0.230182
0.271528 0.487448 0.233613
0.288522 0.490957 0.237101
0.305766 0.494518 0.240639
0.323239 0.498126 0.244224
0.340919 0.501778 0.247851
0.358786 0.505468 0.251517
0.376820 0.509192 0.255218
0.394999 0.512946 0.258947
0.413303 0.516726 0.262703
0.431711 0.520528 0.266479
0.450202 0.524346 0.270273
0.468755 0.528178 0.274080
0.487350 0.532018 0.277895
0.505966 0.535862 0.281714
0.524582 0.539707 0.285533
0.543176 0.543547 0.289349
0.561730 0.547378 0.293155
0.580221 0.551197 0.296949
0.598628 0.554998 0.300726
0.616932 0.558778 0.304481
0.635111 0.562533 0.308211
0.653145 0.566257 0.311911
0.671012 0.569946 0.315578
0.688692 0.573598 0.319205
0.706165 0.577206 0.322791
0.723408 0.580767 0.326329
0.740403 0.584276 0.329816
0.757127 0.587730 0.333248
0.773560 0.591123 0.336621
0.789681 0.594452 0.339929
0.235165 0.504873 0.236308
0.251286 0.508203 0.239616
0.267720 0.511596 0.242988
0.284444 0.515050 0.246420
0.301439 0.518560 0.249907
0.318683 0.522121 0.253445
0.336156 0.525729 0.257030
0.353836 0.529381 0.260657
0.371704 0.533070 0.264323
0.389738 0.536795 0.268023
0.407917 0.540549 0.271753
0.426221 0.544329 0.275508
0.444629 0.548131 0.279285
0.463120 0.551949 0.283079
0.481673 0.555781 0.286885
0.500268 0.559621 0.290700
0.518883 0.563465 0.294520
0.537499 0.567310 0.298339
0.556094 0.571150 0.302154
0.574647 0.574981 0.305961
0.593138 0.578800 0.309755
0.611545 0.582601 0.313532
0.629849 0.586381 0.317288
0.648028 0.590135 0.321018
0.666061 0.593859 0.324718
0.683928 0.597549 0.328385
0.701608 0.601200 0.332013
0.719080 0.604808 0.335598
0.736324 0.608369 0.339137
0.753317 0.611878 0.342625
0.770041 0.615331 0.346057
0.786474 0.618725 0.349429
0.802595 0.622053 0.352738
0.248038 0.532383 0.249072
0.264160 0.535713 0.252379
0.280594 0.539106 0.255751
0.297318 0.542560 0.259183
0.314313 0.546070 0.262669
0.331557 0.549631 0.266207
0.349030 0.553239 0.269792
0.366710 0.556891 0.273420
0.384578 0.560581 0.277085
0.402612 0.564305 0.280785
0.420791 0.568059 0.284515
0.439095 0.571839 0.288271
0.457503 0.575641 0.292047
0.475994 0.579459 0.295841
0.494547 0.583291 0.299648
0.513142 0.587131 0.303463
0.531757 0.590975 0.307282
0.550373 0.594820 0.311102
0.568967 0.598660 0.314917
0.587520 0.602491 0.318724
0.606011 0.606309 0.322518
0.624418 0.610111 0.326296
0.642721 0.613890 0.330052
0.660900 0.617644 0.333782
0.678933 0.621368 0.337483
0.696800 0.625058 0.341150
0.714479 0.628708 0.344778
0.731951 0.632316 0.348364
0.749194 0.635877 0.351903
0.766188 0.639386 0.355391
0.782911 0.642839 0.358824
0.799343 0.646232 0.362197
0.815464 0.649561 0.365506
0.260854 0.559770 0.261777
0.276976 0.563099 0.265085
0.293410 0.566493 0.268456
0.310134 0.569947 0.271888
0.327129 0.573456 0.275374
0.344373 0.577018 0.278912
0.361846 0.580626 0.282497
0.379527 0.584277 0.286125
0.397394 0.587967 0.289791
0.415428 0.591691 0.293491
0.433607 0.595446 0.297220
0.451911 0.599226 0.300976
0.470319 0.603027 0.304753
0.488810 0.606846 0.308547
0.507363 0.610677 0.312353
0.525957 0.614517 0.316169
0.544572 0.618361 0.319989
0.563188 0.622205 0.323808
0.581782 0.626045 0.327624
0.600335 0.629877 0.331431
0.618825 0.633695 0.335226
0.637232 0.637496 0.339003
0.655535 0.641276 0.342759
0.673713 0.645029 0.346490
0.691746 0.648753 0.350191
0.709612 0.652442 0.353858
0.727292 0.656093 0.357487
0.744763 0.659701 0.361073
0.762005 0.663261 0.364613
0.778999 0.666770 0.368101
0.795721 0.670223 0.371534
0.812153 0.673616 0.374908
0.828273 0.676944 0.378218
0.273598 0.587002 0.274410
0.289720 0.590331 0.277718
0.306154 0.593725 0.281090
0.322878 0.597179 0.284521
0.339873 0.600688 0.288008
0.357117 0.604250 0.291546
0.374590 0.607858 0.295131
0.392271 0.611509 0.298758
0.410138 0.615199 0.302424
0.428172 0.618923 0.306124
0.446351 0.622677 0.309854
0.464654 0.626457 0.313610
0.483062 0.630259 0.317387
0.501552 0.634077 0.321181
0.520105 0.637908 0.324988
0.538700 0.641748 0.328804
0.557315 0.645592 0.332624
0.575930 0.649436 0.336444
0.594524 0.653276 0.340260
0.613076 0.657107 0.344067
0.631566 0.660925 0.347862
0.649972 0.664726 0.351640
0.668275 0.668506 0.355397
0.686453 0.672259 0.359128
0.704485 0.675983 0.362829
0.722351 0.679672 0.366497
0.740030 0.683322 0.370126
0.757501 0.686930 0.373713
0.774743 0.690490 0.377253
0.791735 0.693998 0.380742
0.808458 0.697451 0.384175
0.824889 0.700844 0.387549
0.841009 0.704172 0.390860
0.286255 0.614048 0.286958
0.302377 0.617378 0.290265
0.318811 0.620771 0.293637
0.335536 0.624225 0.297068
0.352530 0.627735 0.300555
0.369774 0.631296 0.304093
0.387247 0.634904 0.307678
0.404927 0.638555 0.311306
0.422794 0.642245 0.314972
0.440828 0.645969 0.318672
0.459007 0.649723 0.322403
0.477310 0.653503 0.326159
0.495717 0.657304 0.329936
0.514208 0.661123 0.333730
0.532760 0.664954 0.337538
0.551354 0.668794 0.341354
0.569969 0.672637 0.345174
0.588583 0.676481 0.348994
0.607177 0.680321 0.352811
0.625729 0.684152 0.356619
0.644218 0.687970 0.360414
0.662625 0.691770 0.364192
0.680927 0.695549 0.367949
0.699104 0.699303 0.371681
0.717136 0.703026 0.375383
0.735001 0.706715 0.379051
0.752680 0.710365 0.382681
0.770150 0.713972 0.386268
0.787391 0.717532 0.389809
0.804383 0.721040 0.393298
0.821105 0.724493 0.396732
0.837536 0.727885 0.400107
0.853655 0.731213 0.403418
0.298811 0.640878 0.299405
0.314933 0.644207 0.302712
0.331366 0.647601 0.306084
0.348091 0.651055 0.309516
0.365085 0.654565 0.313003
0.382329 0.658126 0.316541
0.399802 0.661734 0.320126
0.417482 0.665385 0.323754
0.435349 0.669075 0.327420
0.453382 0.672799 0.331121
0.471561 0.676552 0.334852
0.489864 0.680332 0.338608
0.508271 0.684133 0.342385
0.526761 0.687951 0.346180
0.545313 0.691782 0.349988
0.563906 0.695622 0.353804
0.582521 0.699465 0.357625
0.601135 0.703309 0.361446
0.619728 0.707148 0.365262
0.638279 0.710979 0.369071
0.656768 0.714797 0.372867
0.675174 0.718597 0.376645
0.693476 0.722376 0.380403
0.711653 0.726129 0.384135
0.729684 0.729852 0.387838
0.747549 0.733541 0.391507
0.765226 0.737190 0.395137
0.782696 0.740797 0.398725
0.799937 0.744357 0.402266
0.816928 0.747865 0.405756
0.833649 0.751317 0.409191
0.850080 0.754709 0.412566
0.866198 0.758037 0.415878
0.311250 0.667461 0.311737
0.327372 0.670790 0.315045
0.343806 0.674184 0.318417
0.360530 0.677637 0.321849
0.377524 0.681147 0.325336
0.394768 0.684708 0.328875
0.412240 0.688316 0.332460
0.429920 0.691967 0.336088
0.447787 0.695656 0.339755
0.465819 0.699380 0.343456
0.483998 0.703134 0.347187
0.502300 0.706913 0.350943
0.520707 0.710714 0.354721
0.539197 0.714532 0.358516
0.557748 0.718363 0.362325
0.576341 0.722202 0.366141
0.594955 0.726045 0.369963
0.613569 0.729889 0.373784
0.632162 0.733728 0.377601
0.650712 0.737558 0.381410
0.669201 0.741376 0.385206
0.687606 0.745176 0.388986
0.705907 0.748954 0.392744
0.724083 0.752707 0.396477
0.742114 0.756430 0.400180
0.759978 0.760118 0.403849
0.777655 0.763767 0.407480
0.795124 0.767374 0.411069
0.812364 0.770933 0.414611
0.829355 0.774441 0.418102
0.846076 0.777893 0.421537
0.862505 0.781284 0.424913
0.878623 0.784612 0.428225
0.323559 0.693764 0.323942
0.339681 0.697094 0.327250
0.356114 0.700487 0.330622
0.372838 0.703941 0.334054
0.389832 0.707450 0.337541
0.407075 0.711011 0.341080
0.424547 0.714619 0.344666
0.442227 0.718270 0.348294
0.460093 0.721959 0.351961
0.478126 0.725682 0.355663
0.496303 0.729436 0.359394
0.514606 0.733215 0.363151
0.533012 0.737016 0.366929
0.551501 0.740834 0.370725
0.570052 0.744664 0.374534
0.588645 0.748503 0.378351
0.607258 0.752346 0.382173
0.625871 0.756189 0.385995
0.644463 0.760028 0.389812
0.663014 0.763858 0.393622
0.681501 0.767675 0.397419
0.699906 0.771475 0.401199
0.718206 0.775253 0.404958
0.736382 0.779006 0.408691
0.754412 0.782728 0.412395
0.772275 0.786416 0.416065
0.789951 0.790065 0.419697
