colorkit/colorkit/luts/bleach_bypass.cube
TITLE "bleach_bypass"
LUT_3D_SIZE 9
DOMAIN_MIN 0.0 0.0 0.0
DOMAIN_MAX 1.0 1.0 1.0
0.000000 0.000000 0.001600
0.065419 0.013659 0.015254
0.135630 0.028142 0.029724
0.208505 0.043178 0.044736
0.282715 0.058490 0.060015
0.356932 0.073806 0.075288
0.429824 0.088850 0.090282
0.500062 0.103347 0.104725
0.566316 0.117023 0.118344
0.045175 0.098518 0.047512
0.111411 0.112185 0.061148
0.181640 0.126678 0.075600
0.254532 0.141722 0.090594
0.328759 0.157042 0.105857
0.402991 0.172365 0.121115
0.475897 0.187416 0.136096
0.546147 0.201919 0.150527
0.612411 0.215601 0.164135
0.093978 0.202996 0.096126
0.160230 0.216671 0.109748
0.230473 0.231172 0.124185
0.303380 0.246223 0.139165
0.377620 0.261550 0.154414
0.451864 0.276879 0.169660
0.524780 0.291935 0.184631
0.595039 0.306443 0.199053
0.661310 0.320128 0.212654
0.144681 0.311456 0.146529
0.210944 0.325137 0.160139
0.281199 0.339643 0.174565
0.354117 0.354699 0.189534
0.428366 0.370031 0.204774
0.502617 0.385364 0.220013
0.575540 0.400423 0.234976
0.645804 0.414934 0.249393
0.712079 0.428620 0.262991
0.196347 0.421914 0.197813
0.262619 0.435599 0.211414
0.332881 0.450108 0.225833
0.405804 0.465167 0.240796
0.480059 0.480502 0.256031
0.554313 0.495836 0.271266
0.627238 0.510897 0.286228
0.697503 0.525407 0.300644
0.763777 0.539094 0.314243
0.248038 0.532383 0.249072
0.314313 0.546070 0.262669
0.384578 0.560581 0.277085
0.457503 0.575641 0.292047
0.531757 0.590975 0.307282
0.606011 0.606309 0.322518
0.678933 0.621368 0.337483
0.749194 0.635877 0.351903
0.815464 0.649561 0.365506
0.298811 0.640878 0.299405
0.365085 0.654565 0.313003
0.435349 0.669075 0.327420
0.508271 0.684133 0.342385
0.582521 0.699465 0.357625
0.656768 0.714797 0.372867
0.729684 0.729852 0.387838
0.799937 0.744357 0.402266
0.866198 0.758037 0.415878
0.347725 0.745413 0.347908
0.413996 0.759097 0.361511
0.484254 0.773604 0.375934
0.557168 0.788659 0.390906
0.631410 0.803987 0.406154
0.705648 0.819313 0.421405
0.778552 0.834363 0.436388
0.848793 0.848862 0.450827
0.915042 0.862536 0.464451
0.393845 0.844002 0.393675
0.460107 0.857683 0.407285
0.530356 0.872186 0.421717
0.603261 0.887236 0.436700
0.677490 0.902558 0.451960
0.751715 0.917877 0.467224
0.824605 0.932920 0.482221
0.894832 0.947412 0.496675
0.961066 0.961078 0.510314
0.003838 0.004638 0.058796
0.070059 0.018298 0.072448
0.140272 0.032782 0.086917
0.213149 0.047819 0.101926
0.287361 0.063132 0.117203
0.361579 0.078449 0.132475
0.434473 0.093493 0.147467
0.504713 0.107991 0.161909
0.570968 0.121668 0.175527
0.049819 0.103159 0.104702
0.116057 0.116827 0.118336
0.186288 0.131321 0.132787
0.259182 0.146365 0.147780
0.333410 0.161687 0.163041
0.407643 0.177010 0.178298
0.480550 0.192062 0.193277
0.550801 0.206566 0.207707
0.617066 0.220247 0.221315
0.098628 0.207640 0.153311
0.164881 0.221316 0.166931
0.235126 0.235817 0.181367
0.308034 0.250868 0.196346
0.382275 0.266196 0.211594
0.456519 0.281526 0.226840
0.529436 0.296582 0.241809
0.599696 0.311090 0.256231
0.665968 0.324775 0.269831
0.149335 0.316102 0.203710
0.215599 0.329784 0.217319
0.285855 0.344290 0.231744
0.358773 0.359346 0.246713
0.433023 0.374679 0.261952
0.507275 0.390012 0.277190
0.580198 0.405071 0.292153
0.650462 0.419582 0.306570
0.716737 0.433268 0.320168
0.201004 0.426561 0.254990
0.267276 0.440246 0.268591
0.337539 0.454756 0.283010
0.410462 0.469815 0.297973
0.484717 0.485150 0.313208
0.558971 0.500485 0.328443
0.631896 0.515545 0.343404
0.702161 0.530055 0.357821
0.768435 0.543742 0.371419
0.252696 0.537031 0.306248
0.318971 0.550718 0.319846
0.389236 0.565229 0.334262
0.462161 0.580289 0.349224
0.536415 0.595623 0.364459
0.610668 0.610957 0.379695
0.683590 0.626016 0.394660
0.753851 0.640524 0.409081
0.820120 0.654208 0.422684
0.303469 0.645526 0.356581
0.369743 0.659212 0.370180
0.440006 0.673722 0.384598
0.512928 0.688781 0.399563
0.587177 0.704113 0.414803
0.661424 0.719443 0.430046
0.734338 0.734498 0.445018
0.804591 0.749003 0.459447
0.870851 0.762682 0.473059
0.352382 0.750060 0.405086
0.418652 0.763744 0.418689
0.488909 0.778251 0.433113
0.561823 0.793305 0.448086
0.636063 0.808633 0.463335
0.710300 0.823959 0.478588
0.783203 0.839008 0.493571
0.853443 0.853506 0.508012
0.919691 0.867179 0.521637
0.398499 0.848648 0.450856
0.464761 0.862329 0.464466
0.535009 0.876831 0.478900
0.607912 0.891880 0.493883
0.682140 0.907201 0.509145
0.756363 0.922520 0.524411
0.829252 0.937562 0.539409
0.899477 0.952053 0.553865
0.965709 0.965719 0.567505
0.008757 0.009556 0.119435
0.074979 0.023216 0.133085
0.145194 0.037702 0.147551
0.218073 0.052739 0.162559
0.292288 0.068054 0.177834
0.366507 0.083371 0.193104
0.439403 0.098417 0.208095
0.509644 0.112915 0.222535
0.575900 0.126593 0.236152
0.054744 0.108080 0.165334
0.120984 0.121749 0.178967
0.191216 0.136243 0.193416
0.264111 0.151289 0.208407
0.338341 0.166611 0.223667
0.412575 0.181935 0.238922
0.485483 0.196987 0.253901
0.555736 0.211491 0.268330
0.622002 0.225174 0.281937
0.103558 0.212564 0.213938
0.169812 0.226240 0.227557
0.240058 0.240742 0.241992
0.312967 0.255794 0.256969
0.387210 0.271122 0.272217
0.461455 0.286452 0.287461
0.534373 0.301509 0.302430
0.604633 0.316017 0.316850
0.670905 0.329703 0.330451
0.154269 0.321028 0.264333
0.220534 0.334710 0.277940
0.290791 0.349216 0.292365
0.363710 0.364274 0.307333
0.437960 0.379606 0.322572
0.512213 0.394940 0.337809
0.585136 0.409999 0.352772
0.655401 0.424510 0.367189
0.721676 0.438196 0.380786
0.205941 0.431488 0.315610
0.272214 0.445174 0.329211
0.342477 0.459684 0.343629
0.415401 0.474743 0.358591
0.489655 0.490078 0.373826
0.563910 0.505413 0.389061
0.636835 0.520473 0.404023
0.707099 0.534983 0.418440
0.773373 0.548669 0.432038
0.257635 0.541959 0.366867
0.323910 0.555646 0.380464
0.394175 0.570157 0.394880
0.467100 0.585217 0.409842
0.541353 0.600551 0.425078
0.615606 0.615885 0.440315
0.688528 0.630943 0.455280
0.758787 0.645451 0.469701
0.825056 0.659135 0.483306
0.308407 0.650454 0.417200
0.374681 0.664140 0.430799
0.444944 0.678650 0.445217
0.517865 0.693708 0.460183
0.592113 0.709039 0.475424
0.666360 0.724370 0.490667
0.739273 0.739424 0.505640
0.809524 0.753928 0.520070
0.875783 0.767607 0.533684
0.357319 0.754987 0.465706
0.423588 0.768671 0.479310
0.493844 0.783177 0.493735
0.566757 0.798231 0.508709
0.640997 0.813558 0.523959
0.715232 0.828883 0.539213
0.788134 0.843932 0.554198
0.858372 0.858429 0.568640
0.924619 0.872102 0.582267
0.403433 0.853574 0.511479
0.469694 0.867254 0.525090
0.539941 0.881755 0.539525
0.612842 0.896804 0.554510
0.687069 0.912125 0.569773
0.761291 0.927443 0.585041
0.834178 0.942484 0.600040
0.904401 0.956974 0.614498
0.970631 0.970638 0.628140
0.013862 0.014660 0.182369
0.080087 0.028322 0.196017
0.150304 0.042809 0.210481
0.223185 0.057847 0.225486
0.297401 0.073162 0.240760
0.371622 0.088480 0.256027
0.444520 0.103527 0.271017
0.514762 0.118026 0.285456
0.581020 0.131704 0.299071
0.059856 0.113187 0.228261
0.126097 0.126857 0.241893
0.196331 0.141352 0.256340
0.269228 0.156399 0.271329
0.343459 0.171722 0.286588
0.417695 0.187047 0.301842
0.490604 0.202099 0.316819
0.560858 0.216604 0.331247
0.627124 0.230287 0.344853
0.108675 0.217674 0.276860
0.174931 0.231351 0.290477
0.245178 0.245853 0.304911
0.318088 0.260906 0.319887
0.392332 0.276235 0.335133
0.466578 0.291565 0.350377
0.539496 0.306622 0.365345
0.609757 0.321131 0.379765
0.676030 0.334817 0.393365
0.159391 0.326140 0.327250
0.225657 0.339823 0.340857
0.295914 0.354330 0.355280
0.368834 0.369387 0.370248
0.443085 0.384720 0.385486
0.517338 0.400054 0.400723
0.590262 0.415113 0.415685
0.660526 0.429624 0.430102
0.726802 0.443311 0.443699
0.211066 0.436602 0.378525
0.277338 0.450288 0.392125
0.347602 0.464798 0.406542
0.420526 0.479858 0.421505
0.494781 0.495192 0.436740
0.569036 0.510527 0.451974
0.641960 0.525587 0.466936
0.712225 0.540097 0.481353
0.778498 0.553783 0.494952
0.262760 0.547074 0.429780
0.329035 0.560760 0.443377
0.399300 0.575271 0.457793
0.472225 0.590331 0.472756
0.546478 0.605665 0.487992
0.620731 0.620999 0.503229
0.693652 0.636057 0.518195
0.763911 0.650565 0.532617
0.830178 0.664248 0.546222
0.313533 0.655568 0.480113
0.379806 0.669254 0.493712
0.450068 0.683764 0.508131
0.522989 0.698821 0.523098
0.597236 0.714153 0.538340
0.671482 0.729483 0.553584
0.744394 0.744536 0.568558
0.814644 0.759040 0.582989
0.880902 0.772718 0.596604
0.362443 0.760100 0.528621
0.428711 0.773784 0.542226
0.498966 0.788290 0.556652
0.571878 0.803343 0.571626
0.646116 0.818670 0.586878
0.720350 0.833994 0.602133
0.793251 0.849042 0.617120
0.863488 0.863539 0.631564
0.929732 0.877210 0.645192
0.408554 0.858686 0.574397
0.474814 0.872365 0.588010
0.545059 0.886866 0.602445
0.617959 0.901914 0.617432
0.692184 0.917234 0.632696
0.766404 0.932551 0.647966
0.839289 0.947591 0.662968
0.909510 0.962080 0.677427
0.975739 0.975744 0.691072
0.019061 0.019858 0.246449
0.085288 0.033521 0.260095
0.155507 0.048008 0.274557
0.228390 0.063048 0.289560
0.302608 0.078364 0.304832
0.376831 0.093683 0.320098
0.449730 0.108730 0.335086
0.519974 0.123230 0.349523
0.586233 0.136909 0.363137
0.065061 0.118388 0.292335
0.131304 0.132059 0.305965
0.201540 0.146555 0.320410
0.274439 0.161602 0.335398
0.348671 0.176926 0.350655
0.422908 0.192252 0.365908
0.495819 0.207305 0.380884
0.566073 0.221810 0.395311
0.632341 0.235493 0.408916
0.113886 0.222878 0.340928
0.180143 0.236556 0.354544
0.250392 0.251058 0.368976
0.323303 0.266112 0.383952
0.397547 0.281441 0.399197
0.471794 0.296772 0.414440
0.544714 0.311829 0.429407
0.614976 0.326338 0.443826
0.681249 0.340024 0.457426
0.164606 0.331346 0.391314
0.230873 0.345029 0.404920
0.301131 0.359537 0.419343
0.374051 0.374594 0.434309
0.448303 0.389927 0.449547
0.522556 0.405261 0.464783
0.595481 0.420321 0.479746
0.665745 0.434832 0.494162
0.732021 0.448519 0.507760
0.216284 0.441809 0.442586
0.282557 0.455495 0.456186
0.352821 0.470005 0.470603
0.425745 0.485065 0.485565
0.500000 0.500400 0.500800
0.574255 0.515735 0.516035
0.647179 0.530795 0.530997
0.717443 0.545305 0.545414
0.783716 0.558991 0.559014
0.267979 0.552281 0.493840
0.334255 0.565968 0.507438
0.404519 0.580479 0.521854
0.477444 0.595539 0.536817
0.551697 0.610873 0.552053
0.625949 0.626206 0.567291
0.698869 0.641263 0.582257
0.769127 0.655771 0.596680
0.835394 0.669454 0.610286
0.318751 0.660776 0.544174
0.385024 0.674462 0.557774
0.455286 0.688971 0.572193
0.528206 0.704028 0.587160
0.602453 0.719359 0.602403
0.676697 0.734688 0.617648
0.749608 0.749742 0.632624
0.819857 0.764244 0.647056
0.886114 0.777922 0.660672
0.367659 0.765307 0.592684
0.433927 0.778990 0.606289
0.504181 0.793495 0.620716
0.577092 0.808548 0.635692
0.651329 0.823874 0.650945
0.725561 0.839198 0.666202
0.798460 0.854245 0.681190
0.868696 0.868741 0.695635
0.934939 0.882412 0.709265
0.413767 0.863891 0.638463
0.480026 0.877570 0.652077
0.550270 0.892070 0.666514
0.623169 0.907117 0.681502
0.697392 0.922436 0.696768
0.771610 0.937752 0.712040
0.844493 0.952792 0.727043
0.914712 0.967279 0.741505
0.980939 0.980942 0.755151
0.024261 0.025056 0.310528
0.090490 0.038720 0.324173
0.160711 0.053209 0.338632
0.233596 0.068249 0.353634
0.307816 0.083566 0.368904
0.382041 0.098886 0.384168
0.454941 0.113934 0.399155
0.525186 0.128435 0.413590
0.591446 0.142114 0.427203
0.070268 0.123590 0.356408
0.136512 0.137261 0.370036
0.206749 0.151758 0.384480
0.279650 0.166806 0.399467
0.353884 0.182130 0.414722
0.428122 0.197457 0.429974
0.501034 0.212510 0.444948
0.571289 0.227016 0.459374
0.637557 0.240700 0.472979
0.119098 0.228082 0.404996
0.185356 0.241760 0.418611
0.255606 0.256264 0.433042
0.328518 0.271317 0.448016
0.402764 0.286647 0.463260
0.477011 0.301979 0.478502
0.549932 0.317036 0.493469
0.620194 0.331546 0.507888
0.686467 0.345232 0.521487
0.169822 0.336552 0.455378
0.236089 0.350235 0.468983
0.306348 0.364743 0.483405
0.379269 0.379801 0.498371
0.453522 0.395135 0.513608
0.527775 0.410469 0.528844
0.600700 0.425529 0.543807
0.670965 0.440040 0.558223
0.737240 0.453726 0.571820
0.221502 0.447017 0.506648
0.287775 0.460703 0.520247
0.358040 0.475213 0.534664
0.430964 0.490273 0.549626
0.505219 0.505608 0.564860
0.579474 0.520942 0.580095
0.652398 0.536002 0.595058
0.722662 0.550512 0.609475
0.788934 0.564198 0.623075
0.273198 0.557489 0.557901
0.339474 0.571176 0.571498
0.409738 0.585687 0.585915
0.482662 0.600746 0.600877
0.556915 0.616080 0.616114
0.631166 0.631413 0.631352
0.704086 0.646470 0.646320
0.774343 0.660977 0.660743
0.840609 0.674660 0.674350
0.323970 0.665983 0.608235
0.390243 0.679669 0.621835
0.460504 0.694178 0.636255
0.533422 0.709235 0.651223
0.607668 0.724565 0.666467
0.681912 0.739894 0.681713
0.754822 0.754947 0.696689
0.825069 0.769449 0.711123
0.891325 0.783126 0.724740
0.372876 0.770513 0.656747
0.439142 0.784196 0.670353
0.509396 0.798701 0.684781
0.582305 0.813753 0.699758
0.656541 0.829078 0.715012
0.730772 0.844401 0.730271
0.803669 0.859448 0.745260
0.873903 0.873943 0.759707
0.940144 0.887613 0.773339
0.418980 0.869096 0.702529
0.485238 0.882774 0.716144
0.555480 0.897273 0.730583
0.628378 0.912320 0.745573
0.702599 0.927638 0.760840
0.776815 0.942953 0.776114
0.849696 0.957991 0.791119
0.919913 0.972478 0.805583
0.986138 0.986140 0.819231
0.029369 0.030162 0.373460
0.095599 0.043826 0.387102
0.165822 0.058316 0.401560
0.238709 0.073357 0.416559
0.312931 0.088675 0.431827
0.387158 0.103996 0.447090
0.460059 0.119045 0.462075
0.530306 0.133546 0.476510
0.596567 0.147226 0.490121
0.075381 0.128698 0.419333
0.141628 0.142371 0.432960
0.211866 0.156868 0.447402
0.284768 0.171917 0.462387
0.359003 0.187242 0.477641
0.433243 0.202569 0.492891
0.506156 0.217623 0.507865
0.576412 0.232129 0.522290
0.642681 0.245813 0.535894
0.124217 0.233193 0.467916
0.190476 0.246872 0.481530
0.260727 0.261376 0.495960
0.333640 0.276430 0.510933
0.407887 0.291761 0.526176
0.482135 0.307092 0.541417
0.555056 0.322150 0.556383
0.625319 0.336660 0.570801
0.691593 0.350346 0.584400
0.174944 0.341665 0.518294
0.241213 0.355349 0.531899
0.311472 0.369857 0.546320
0.384394 0.384915 0.561285
0.458647 0.400249 0.576522
0.532900 0.415583 0.591758
0.605825 0.430643 0.606720
0.676090 0.445154 0.621136
0.742365 0.458841 0.634733
0.226627 0.452131 0.569562
0.292901 0.465817 0.583160
0.363165 0.480327 0.597577
0.436090 0.495387 0.612539
0.510345 0.510722 0.627774
0.584599 0.526057 0.643009
0.657523 0.541116 0.657971
0.727786 0.555626 0.672389
0.794059 0.569312 0.685990
0.278324 0.562604 0.620814
0.344599 0.576290 0.634411
0.414864 0.590801 0.648828
0.487787 0.605860 0.663791
0.562040 0.621194 0.679028
0.636290 0.636526 0.694267
0.709209 0.651584 0.709235
0.779466 0.666090 0.723660
0.845731 0.679772 0.737267
0.329095 0.671097 0.671149
0.395367 0.684783 0.684750
0.465627 0.699291 0.699170
0.538545 0.714348 0.714139
0.612790 0.729678 0.729383
0.687033 0.745006 0.744631
0.759942 0.760058 0.759608
0.830188 0.774560 0.774043
0.896442 0.788236 0.787662
0.377998 0.775626 0.719663
0.444264 0.789309 0.733270
0.514517 0.803813 0.747699
0.587425 0.818865 0.762678
0.661659 0.834189 0.777933
0.735889 0.849511 0.793193
0.808784 0.864557 0.808184
0.879016 0.879051 0.822633
0.945256 0.892720 0.836266
0.424100 0.874207 0.765448
0.490356 0.887885 0.779065
0.560597 0.902383 0.793505
0.633493 0.917429 0.808496
0.707712 0.932746 0.823766
0.781927 0.948061 0.839041
0.854806 0.963098 0.854049
0.925021 0.977584 0.868515
0.991243 0.991244 0.882165
0.034291 0.035081 0.434095
0.100523 0.048747 0.447735
0.170748 0.063238 0.462191
0.243637 0.078280 0.477189
0.317860 0.093599 0.492455
0.392088 0.108920 0.507717
0.464991 0.123969 0.522700
0.535239 0.138471 0.537134
0.601501 0.152152 0.550744
0.080309 0.133621 0.479963
0.146557 0.147294 0.493588
0.216797 0.161792 0.508029
0.289700 0.176841 0.523012
0.363937 0.192167 0.538265
0.438177 0.207495 0.553514
0.511091 0.222549 0.568487
0.581348 0.237056 0.582911
0.647618 0.250740 0.596514
0.129149 0.238118 0.528541
0.195409 0.251797 0.542153
0.265662 0.266302 0.556582
0.338576 0.281357 0.571554
0.412823 0.296687 0.586797
0.487072 0.312019 0.602037
0.559994 0.327078 0.617002
0.630257 0.341588 0.631420
0.696531 0.355274 0.645019
0.179880 0.346592 0.578916
0.246149 0.360276 0.592519
0.316410 0.374784 0.606940
0.389332 0.389843 0.621905
0.463585 0.405177 0.637141
0.537839 0.420511 0.652376
0.610764 0.435571 0.667338
0.681029 0.450082 0.681754
0.747304 0.463769 0.695352
0.231565 0.457058 0.630181
0.297839 0.470745 0.643779
0.368104 0.485255 0.658196
0.441029 0.500315 0.673157
0.515283 0.515650 0.688392
0.589538 0.530985 0.703627
0.662461 0.546044 0.718590
0.732724 0.560554 0.733009
0.798996 0.574239 0.746610
0.283263 0.567532 0.681432
0.349538 0.581218 0.695030
0.419802 0.595729 0.709447
0.492725 0.610788 0.724410
0.566977 0.626121 0.739648
0.641227 0.641454 0.754887
0.714145 0.656510 0.769856
0.784401 0.671016 0.784281
0.850665 0.684698 0.797890
0.334032 0.676025 0.731769
0.400304 0.689710 0.745369
0.470564 0.704218 0.759791
0.543481 0.719274 0.774760
0.617725 0.734604 0.790006
0.691966 0.749932 0.805254
0.764874 0.764983 0.820233
0.835119 0.779484 0.834669
0.901372 0.793160 0.848289
0.382934 0.780553 0.780285
0.449199 0.794234 0.793893
0.519450 0.808738 0.808323
0.592357 0.823790 0.823302
0.666590 0.839113 0.838559
0.740818 0.854435 0.853820
0.813712 0.869479 0.868813
0.883943 0.883973 0.883264
0.950181 0.897641 0.896898
0.429032 0.879132 0.826073
0.495287 0.892809 0.839691
0.565527 0.907307 0.854133
0.638421 0.922351 0.869125
0.712639 0.937668 0.884397
0.786851 0.952981 0.899674
0.859728 0.968018 0.914683
0.929941 0.982502 0.929152
0.996162 0.996162 0.942804
0.038934 0.039722 0.491286
0.105168 0.053388 0.504925
0.175395 0.067880 0.519379
0.248285 0.082923 0.534376
0.322510 0.098242 0.549640
0.396739 0.113564 0.564900
0.469644 0.128614 0.579883
0.539893 0.143117 0.594315
0.606155 0.156798 0.607925
0.084958 0.138264 0.537149
0.151207 0.151938 0.550773
0.221448 0.166437 0.565212
0.294352 0.181487 0.580195
0.368590 0.196813 0.595446
0.442832 0.212141 0.610694
0.515746 0.227196 0.625666
0.586004 0.241703 0.640089
0.652275 0.255387 0.653692
0.133802 0.242763 0.585722
0.200063 0.256443 0.599334
0.270316 0.270948 0.613762
0.343232 0.286003 0.628733
0.417479 0.301335 0.643975
0.491729 0.316667 0.659215
0.564651 0.331725 0.674180
0.634915 0.346235 0.688597
0.701189 0.359922 0.702195
0.184536 0.351239 0.636094
0.250806 0.364923 0.649697
0.321067 0.379432 0.664117
0.393989 0.394491 0.679082
0.468243 0.409825 0.694318
0.542497 0.425159 0.709553
0.615422 0.440219 0.724515
0.685687 0.454730 0.738931
0.751962 0.468417 0.752528
0.236223 0.461706 0.687357
0.302497 0.475393 0.700956
0.372762 0.489903 0.715372
0.445687 0.504964 0.730334
0.519941 0.520298 0.745569
0.594196 0.535633 0.760804
0.667119 0.550692 0.775767
0.737381 0.565201 0.790186
0.803653 0.578886 0.803787
0.287921 0.572180 0.738609
0.354196 0.585866 0.752207
0.424460 0.600377 0.766624
0.497383 0.615436 0.781587
0.571634 0.630769 0.796826
0.645883 0.646101 0.812066
0.718801 0.661157 0.827035
0.789056 0.675663 0.841461
0.855319 0.689344 0.855071
0.338690 0.680672 0.788946
0.404961 0.694357 0.802547
0.475220 0.708865 0.816969
0.548136 0.723921 0.831940
0.622380 0.739250 0.847186
0.696620 0.754577 0.862435
0.769527 0.769628 0.877415
0.839770 0.784129 0.891852
0.906022 0.797804 0.905474
0.387589 0.785199 0.837465
0.453853 0.798881 0.851073
0.524103 0.813384 0.865504
0.597009 0.828435 0.880485
0.671241 0.843758 0.895743
0.745468 0.859078 0.911006
0.818360 0.874122 0.926000
0.888589 0.888615 0.940452
0.954825 0.902282 0.954088
0.433684 0.883777 0.883256
0.499938 0.897453 0.896875
0.570176 0.911950 0.911318
0.643068 0.926994 0.926312
0.717285 0.942310 0.941585
0.791495 0.957622 0.956864
0.864370 0.972658 0.971876
0.934581 0.987141 0.986346
1.000000 1.000000 1.000000
