colorkit/colorkit/luts/clean_pop.cube
TITLE "clean_pop"
LUT_3D_SIZE 5
DOMAIN_MIN 0.0 0.0 0.0
DOMAIN_MAX 1.0 1.0 1.0
0.000000 0.000000 0.000000
0.244510 0.000006 0.000000
0.498557 0.000025 0.000000
0.752637 0.000055 0.000000
0.997392 0.000093 0.000000
0.000181 0.235131 0.000000
0.231639 0.231449 0.000000
0.494803 0.224725 0.000000
0.752558 0.222373 0.000000
0.998784 0.216431 0.000000
0.000657 0.481292 0.000000
0.180081 0.479665 0.000000
0.474720 0.474064 0.000000
0.738787 0.463028 0.000000
0.990927 0.459391 0.000000
0.001272 0.727499 0.000000
0.001269 0.726517 0.000000
0.436585 0.723306 0.000000
0.718143 0.716962 0.000000
0.973930 0.707336 0.000000
0.001849 0.964639 0.000000
0.001848 0.963961 0.000000
0.369830 0.961748 0.000000
0.685326 0.957404 0.000000
0.952382 0.950844 0.000000
0.000002 0.000001 0.246638
0.242917 0.000011 0.242862
0.497439 0.000033 0.229660
0.751472 0.000064 0.201709
0.996057 0.000101 0.149799
0.000214 0.233803 0.233589
0.245675 0.245433 0.245071
0.494695 0.224647 0.224183
0.750556 0.204533 0.203952
0.996051 0.169688 0.169028
0.000699 0.480741 0.182301
0.178311 0.479111 0.176943
0.481391 0.480693 0.160561
0.742632 0.471663 0.154049
0.995135 0.476259 0.173573
0.001271 0.727166 0.000000
0.001269 0.726183 0.000000
0.435942 0.722969 0.000000
0.721978 0.720789 0.000000
0.973702 0.706990 0.000000
0.001849 0.964409 0.000000
0.001847 0.963730 0.000000
0.369040 0.961517 0.000000
0.684964 0.957172 0.000000
0.954883 0.953343 0.000000
0.000009 0.000003 0.502445
0.238559 0.000017 0.500839
0.495641 0.000043 0.495425
0.750440 0.000079 0.484884
0.995374 0.000121 0.468667
0.000249 0.229239 0.496949
0.225429 0.225188 0.495275
0.490569 0.210811 0.489754
0.747612 0.179671 0.479070
0.993432 0.117905 0.462677
0.000766 0.478853 0.478087
0.175046 0.484024 0.483117
0.501200 0.500400 0.499200
0.744605 0.473353 0.472044
0.991022 0.460327 0.458868
0.001382 0.726080 0.439476
0.001379 0.725095 0.437615
0.440687 0.732687 0.437822
0.734867 0.733590 0.429568
0.982897 0.719488 0.424375
0.001929 0.963660 0.373097
0.001927 0.962981 0.370820
0.366431 0.960760 0.362885
0.689919 0.964797 0.350615
0.964018 0.962450 0.327182
0.000021 0.000007 0.758250
0.229940 0.000024 0.757287
0.492150 0.000054 0.754087
0.748420 0.000093 0.747952
0.994005 0.000138 0.738727
0.000278 0.220193 0.754947
0.216206 0.215948 0.753939
0.487028 0.200830 0.750693
0.745569 0.167665 0.744540
0.992023 0.098649 0.735347
0.000822 0.475189 0.743913
0.159504 0.473531 0.742886
0.468610 0.467841 0.739524
0.735414 0.456613 0.733202
0.985441 0.439183 0.723740
0.001449 0.723947 0.722497
0.001453 0.725362 0.723909
0.441299 0.738165 0.736363
0.756725 0.755367 0.753329
0.995586 0.729830 0.727714
0.001991 0.962196 0.689322
0.001989 0.961516 0.688274
0.364983 0.968266 0.691152
0.699174 0.979188 0.695290
0.980387 0.978796 0.689216
0.000036 0.000012 0.999976
0.216374 0.000031 0.999938
0.486878 0.000065 0.999869
0.745377 0.000108 0.997483
0.991934 0.000155 0.991157
0.000296 0.205888 0.999803
0.201567 0.201301 0.999734
0.481662 0.184858 0.999329
0.742476 0.147881 0.995100
0.989867 0.061238 0.988872
0.000871 0.469655 0.994604
0.138437 0.467968 0.993889
0.462994 0.462194 0.991544
0.732298 0.450789 0.987218
0.983340 0.433063 0.980811
0.001506 0.720741 0.979976
0.001504 0.719746 0.979316
0.423464 0.716485 0.976889
0.720995 0.719666 0.985388
0.984249 0.711208 0.980713
0.002039 0.959996 0.957956
0.002038 0.959313 0.957275
0.358177 0.968797 0.966566
0.700811 0.984062 0.981703
1.000000 1.000000 0.998400
