colorkit/colorkit/luts/clean_pop.cube
TITLE "clean_pop"
LUT_3D_SIZE 33
DOMAIN_MIN 0.0 0.0 0.0
DOMAIN_MAX 1.0 1.0 1.0
0.000000 0.000000 0.000000
0.029636 0.000000 0.000000
0.059623 0.000000 0.000000
0.089904 0.000001 0.000000
0.120422 0.000002 0.000000
0.151160 0.000002 0.000000
0.182099 0.000004 0.000000
0.213222 0.000005 0.000000
0.244510 0.000006 0.000000
0.275944 0.000008 0.000000
0.307507 0.000010 0.000000
0.339180 0.000012 0.000000
0.370944 0.000014 0.000000
0.402783 0.000017 0.000000
0.434676 0.000019 0.000000
0.466607 0.000022 0.000000
0.498557 0.000025 0.000000
0.530507 0.000028 0.000000
0.562439 0.000032 0.000000
0.594336 0.000035 0.000000
0.626178 0.000039 0.000000
0.657947 0.000043 0.000000
0.689626 0.000047 0.000000
0.721195 0.000051 0.000000
0.752637 0.000055 0.000000
0.783933 0.000059 0.000000
0.815066 0.000064 0.000000
0.846016 0.000068 0.000000
0.876765 0.000073 0.000000
0.907296 0.000078 0.000000
0.937589 0.000083 0.000000
0.967627 0.000088 0.000000
0.997392 0.000093 0.000000
0.000003 0.027766 0.000000
0.027697 0.027694 0.000000
0.058102 0.026715 0.000000
0.089331 0.027304 0.000000
0.120311 0.027455 0.000000
0.151016 0.025771 0.000000
0.181965 0.023768 0.000000
0.213109 0.021373 0.000000
0.244420 0.018536 0.000000
0.275877 0.015220 0.000000
0.307459 0.011393 0.000000
0.339148 0.007026 0.000000
0.370926 0.002094 0.000000
0.402778 0.000017 0.000000
0.434685 0.000019 0.000000
0.466627 0.000022 0.000000
0.498587 0.000025 0.000000
0.530546 0.000028 0.000000
0.562487 0.000032 0.000000
0.594390 0.000035 0.000000
0.626239 0.000039 0.000000
0.658014 0.000043 0.000000
0.689698 0.000047 0.000000
0.721273 0.000051 0.000000
0.752719 0.000055 0.000000
0.784020 0.000059 0.000000
0.815156 0.000064 0.000000
0.846109 0.000068 0.000000
0.876862 0.000073 0.000000
0.907395 0.000078 0.000000
0.937691 0.000083 0.000000
0.967732 0.000088 0.000000
0.997499 0.000093 0.000000
0.000011 0.056021 0.000000
0.023571 0.056018 0.000000
0.055601 0.055589 0.000000
0.086296 0.053401 0.000000
0.118377 0.053795 0.000000
0.150095 0.054257 0.000000
0.181613 0.054485 0.000000
0.213119 0.054585 0.000000
0.244608 0.053984 0.000000
0.276025 0.051424 0.000000
0.307585 0.048380 0.000000
0.339264 0.044751 0.000000
0.371037 0.040410 0.000000
0.402885 0.035304 0.000000
0.434787 0.029620 0.000000
0.466726 0.023336 0.000000
0.498681 0.016436 0.000000
0.530636 0.008902 0.000000
0.562571 0.000724 0.000000
0.594476 0.000035 0.000000
0.626328 0.000039 0.000000
0.658106 0.000043 0.000000
0.689793 0.000047 0.000000
0.721370 0.000051 0.000000
0.752819 0.000055 0.000000
0.784122 0.000059 0.000000
0.815261 0.000064 0.000000
0.846216 0.000068 0.000000
0.876971 0.000073 0.000000
0.907507 0.000078 0.000000
0.937805 0.000083 0.000000
0.967847 0.000088 0.000000
0.997615 0.000093 0.000000
0.000026 0.085352 0.000000
0.018421 0.084840 0.000000
0.050909 0.084762 0.000000
0.084296 0.084268 0.000000
0.115493 0.082303 0.000000
0.147469 0.081414 0.000000
0.179780 0.081860 0.000000
0.211776 0.082092 0.000000
0.243660 0.082179 0.000000
0.275529 0.082170 0.000000
0.307425 0.082100 0.000000
0.339367 0.081995 0.000000
0.371242 0.080654 0.000000
0.403068 0.077734 0.000000
0.434957 0.074378 0.000000
0.466888 0.070519 0.000000
0.498841 0.066073 0.000000
0.530794 0.060932 0.000000
0.562730 0.054950 0.000000
0.594628 0.047914 0.000000
0.626469 0.039478 0.000000
0.658236 0.029850 0.000000
0.689911 0.019565 0.000000
0.721475 0.008620 0.000000
0.752914 0.000055 0.000000
0.784218 0.000059 0.000000
0.815358 0.000064 0.000000
0.846315 0.000068 0.000000
0.877072 0.000073 0.000000
0.907609 0.000078 0.000000
0.937909 0.000083 0.000000
0.967953 0.000088 0.000000
0.997723 0.000093 0.000000
0.000046 0.114915 0.000000
0.011942 0.114524 0.000000
0.044780 0.114086 0.000000
0.079892 0.113803 0.000000
0.113294 0.113244 0.000000
0.144968 0.111485 0.000000
0.176983 0.110088 0.000000
0.209470 0.109867 0.000000
0.241906 0.110098 0.000000
0.274155 0.110188 0.000000
0.306321 0.110174 0.000000
0.338460 0.110084 0.000000
0.370597 0.109940 0.000000
0.402743 0.109760 0.000000
0.434898 0.109558 0.000000
0.467058 0.109345 0.000000
0.499058 0.107251 0.000000
0.530997 0.104079 0.000000
0.562924 0.100523 0.000000
0.594818 0.096539 0.000000
0.626660 0.092069 0.000000
0.658429 0.087045 0.000000
0.690108 0.081379 0.000000
0.721677 0.074953 0.000000
0.753116 0.067602 0.000000
0.784408 0.059082 0.000000
0.815533 0.049006 0.000000
0.846471 0.036721 0.000000
0.877207 0.023125 0.000000
0.907722 0.008915 0.000000
0.938008 0.000083 0.000000
0.968053 0.000088 0.000000
0.997824 0.000093 0.000000
0.000072 0.144693 0.000000
0.003606 0.144380 0.000000
0.036656 0.144033 0.000000
0.074419 0.143534 0.000000
0.109085 0.143101 0.000000
0.142558 0.142481 0.000000
0.174628 0.140873 0.000000
0.206921 0.139530 0.000000
0.239197 0.138189 0.000000
0.272028 0.138415 0.000000
0.304617 0.138512 0.000000
0.337067 0.138505 0.000000
0.369439 0.138417 0.000000
0.401764 0.138266 0.000000
0.434060 0.138067 0.000000
0.466329 0.137834 0.000000
0.498570 0.137577 0.000000
0.530777 0.137305 0.000000
0.562938 0.137024 0.000000
0.595042 0.136742 0.000000
0.626890 0.133969 0.000000
0.658650 0.130641 0.000000
0.690322 0.126985 0.000000
0.721887 0.122968 0.000000
0.753327 0.118554 0.000000
0.784621 0.113700 0.000000
0.815751 0.108354 0.000000
0.846698 0.102447 0.000000
0.877444 0.095895 0.000000
0.907969 0.088582 0.000000
0.938256 0.080350 0.000000
0.968284 0.070963 0.000000
0.998036 0.060052 0.000000
0.000103 0.174666 0.000000
0.000103 0.174409 0.000000
0.026308 0.174124 0.000000
0.067525 0.173716 0.000000
0.104021 0.173160 0.000000
0.138488 0.172620 0.000000
0.172055 0.171946 0.000000
0.204460 0.170451 0.000000
0.236997 0.169147 0.000000
0.269387 0.167616 0.000000
0.302156 0.166987 0.000000
0.335054 0.167090 0.000000
0.367768 0.167095 0.000000
0.400358 0.167017 0.000000
0.432860 0.166873 0.000000
0.465294 0.166676 0.000000
0.497668 0.166436 0.000000
0.529982 0.166164 0.000000
0.562231 0.165868 0.000000
0.594408 0.165555 0.000000
0.626501 0.165231 0.000000
0.658499 0.164901 0.000000
0.690387 0.164570 0.000000
0.722140 0.164107 0.000000
0.753569 0.160973 0.000000
0.784856 0.157581 0.000000
0.815981 0.153914 0.000000
0.846926 0.149951 0.000000
0.877671 0.145670 0.000000
0.908197 0.141046 0.000000
0.938487 0.136047 0.000000
0.968521 0.130639 0.000000
0.998281 0.124776 0.000000
0.000139 0.204818 0.000000
0.000139 0.204602 0.000000
0.013802 0.204362 0.000000
0.058380 0.204021 0.000000
0.097851 0.203556 0.000000
0.133703 0.202954 0.000000
0.168087 0.202332 0.000000
0.201757 0.201610 0.000000
0.234448 0.200203 0.000000
0.267199 0.198929 0.000000
0.299794 0.197457 0.000000
0.332296 0.195777 0.000000
0.365471 0.195885 0.000000
0.398423 0.195900 0.000000
0.431212 0.195837 0.000000
0.463876 0.195705 0.000000
0.496435 0.195518 0.000000
0.528900 0.195285 0.000000
0.561275 0.195014 0.000000
0.593555 0.194713 0.000000
0.625735 0.194389 0.000000
0.657806 0.194048 0.000000
0.689757 0.193694 0.000000
0.721573 0.193332 0.000000
0.753242 0.192966 0.000000
0.784748 0.192600 0.000000
0.816076 0.192236 0.000000
0.847187 0.191574 0.000000
0.877924 0.188415 0.000000
0.908445 0.185043 0.000000
0.938731 0.181448 0.000000
0.968762 0.177618 0.000000
0.998521 0.173541 0.000000
0.000181 0.235131 0.000000
0.000180 0.234946 0.000000
0.000180 0.234739 0.000000
0.045992 0.234448 0.000000
0.090056 0.234052 0.000000
0.128000 0.233539 0.000000
0.163505 0.232899 0.000000
0.197868 0.232214 0.000000
0.231639 0.231449 0.000000
0.264576 0.230113 0.000000
0.297513 0.228863 0.000000
0.330286 0.227436 0.000000
0.362946 0.225821 0.000000
0.395866 0.224864 0.000000
0.429031 0.224890 0.000000
0.461997 0.224841 0.000000
0.494803 0.224725 0.000000
0.527471 0.224552 0.000000
0.560013 0.224331 0.000000
0.592434 0.224070 0.000000
0.624732 0.223775 0.000000
0.656902 0.223453 0.000000
0.688937 0.223109 0.000000
0.720826 0.222747 0.000000
0.752558 0.222373 0.000000
0.784118 0.221991 0.000000
0.815493 0.221602 0.000000
0.846667 0.221211 0.000000
0.877626 0.220820 0.000000
0.908352 0.220431 0.000000
0.938830 0.220047 0.000000
0.969032 0.219537 0.000000
0.998784 0.216431 0.000000
0.000227 0.265588 0.000000
0.000227 0.265426 0.000000
0.000226 0.265246 0.000000
0.029078 0.264992 0.000000
0.080163 0.264651 0.000000
0.121025 0.264207 0.000000
0.158130 0.263653 0.000000
0.193438 0.262980 0.000000
0.227813 0.262243 0.000000
0.261679 0.261442 0.000000
0.294827 0.260164 0.000000
0.327925 0.258933 0.000000
0.360849 0.257543 0.000000
0.393646 0.255984 0.000000
0.426341 0.254250 0.000000
0.459584 0.254039 0.000000
0.492705 0.254003 0.000000
0.525633 0.253903 0.000000
0.558391 0.253746 0.000000
0.590993 0.253541 0.000000
0.623444 0.253294 0.000000
0.655745 0.253011 0.000000
0.687891 0.252698 0.000000
0.719875 0.252360 0.000000
0.751689 0.252001 0.000000
0.783321 0.251627 0.000000
0.814758 0.251240 0.000000
0.845987 0.250843 0.000000
0.876993 0.250441 0.000000
0.907761 0.250034 0.000000
0.938276 0.249627 0.000000
0.968522 0.249220 0.000000
0.998481 0.248816 0.000000
0.000277 0.296169 0.000000
0.000277 0.296027 0.000000
0.000277 0.295868 0.000000
0.009320 0.295643 0.000000
0.067370 0.295345 0.000000
0.112502 0.294957 0.000000
0.151710 0.294471 0.000000
0.188307 0.293881 0.000000
0.223503 0.293180 0.000000
0.257903 0.292400 0.000000
0.291856 0.291568 0.000000
0.325184 0.290339 0.000000
0.358418 0.289124 0.000000
0.391469 0.287764 0.000000
0.424377 0.286253 0.000000
0.457166 0.284584 0.000000
0.490077 0.283323 0.000000
0.523327 0.283299 0.000000
0.556355 0.283214 0.000000
0.589185 0.283075 0.000000
0.621828 0.282886 0.000000
0.654293 0.282656 0.000000
0.686580 0.282388 0.000000
0.718685 0.282089 0.000000
0.750604 0.281762 0.000000
0.782326 0.281413 0.000000
0.813843 0.281046 0.000000
0.845142 0.280663 0.000000
0.876209 0.280268 0.000000
0.907032 0.279864 0.000000
0.937595 0.279453 0.000000
0.967883 0.279039 0.000000
0.997880 0.278623 0.000000
0.000332 0.326858 0.000000
0.000332 0.326732 0.000000
0.000331 0.326591 0.000000
0.000331 0.326388 0.000000
0.050084 0.326124 0.000000
0.102022 0.325782 0.000000
0.144065 0.325352 0.000000
0.182290 0.324829 0.000000
0.218561 0.324208 0.000000
0.253692 0.323482 0.000000
0.288123 0.322666 0.000000
0.322149 0.321806 0.000000
0.355630 0.320619 0.000000
0.388976 0.319418 0.000000
0.422129 0.318085 0.000000
0.455126 0.316614 0.000000
0.487986 0.315000 0.000000
0.520720 0.313239 0.000000
0.553854 0.312709 0.000000
0.586960 0.312639 0.000000
0.619840 0.312515 0.000000
0.652506 0.312344 0.000000
0.684966 0.312131 0.000000
0.717221 0.311880 0.000000
0.749269 0.311597 0.000000
0.781105 0.311286 0.000000
0.812721 0.310950 0.000000
0.844107 0.310594 0.000000
0.875251 0.310221 0.000000
0.906141 0.309834 0.000000
0.936765 0.309435 0.000000
0.967106 0.309029 0.000000
0.997151 0.308616 0.000000
0.000390 0.357636 0.000000
0.000390 0.357523 0.000000
0.000390 0.357397 0.000000
0.000390 0.357215 0.000000
0.025738 0.356975 0.000000
0.088927 0.356672 0.000000
0.134948 0.356288 0.000000
0.175261 0.355822 0.000000
0.212851 0.355267 0.000000
0.248902 0.354618 0.000000
0.283994 0.353870 0.000000
0.318452 0.353023 0.000000
0.352539 0.352139 0.000000
0.386146 0.350989 0.000000
0.419581 0.349800 0.000000
0.452814 0.348489 0.000000
0.485876 0.347053 0.000000
0.518784 0.345487 0.000000
0.551547 0.343787 0.000000
0.584276 0.342213 0.000000
0.617436 0.342156 0.000000
0.650344 0.342048 0.000000
0.683012 0.341894 0.000000
0.715448 0.341698 0.000000
0.747654 0.341465 0.000000
0.779627 0.341199 0.000000
0.811363 0.340904 0.000000
0.842855 0.340584 0.000000
0.874093 0.340243 0.000000
0.905067 0.339883 0.000000
0.935764 0.339508 0.000000
0.966172 0.339120 0.000000
0.996275 0.338722 0.000000
0.000453 0.388487 0.000000
0.000452 0.388385 0.000000
0.000452 0.388270 0.000000
0.000452 0.388106 0.000000
0.000451 0.387885 0.000000
0.072019 0.387614 0.000000
0.124007 0.387270 0.000000
0.167056 0.386851 0.000000
0.206280 0.386351 0.000000
0.243435 0.385766 0.000000
0.279328 0.385093 0.000000
0.314394 0.384327 0.000000
0.348886 0.383464 0.000000
0.383007 0.382546 0.000000
0.416715 0.381429 0.000000
0.450217 0.380251 0.000000
0.483507 0.378961 0.000000
0.516611 0.377556 0.000000
0.549544 0.376031 0.000000
0.582316 0.374386 0.000000
0.614928 0.372615 0.000000
0.647770 0.371747 0.000000
0.680684 0.371653 0.000000
0.713334 0.371515 0.000000
0.745726 0.371336 0.000000
0.777863 0.371121 0.000000
0.809744 0.370873 0.000000
0.841362 0.370596 0.000000
0.872713 0.370293 0.000000
0.903786 0.369969 0.000000
0.934572 0.369625 0.000000
0.965059 0.369264 0.000000
0.995233 0.368890 0.000000
0.000518 0.419392 0.000000
0.000518 0.419299 0.000000
0.000517 0.419194 0.000000
0.000517 0.419045 0.000000
0.000517 0.418844 0.000000
0.048576 0.418594 0.000000
0.110697 0.418285 0.000000
0.157457 0.417906 0.000000
0.198733 0.417453 0.000000
0.237220 0.416923 0.000000
0.274059 0.416312 0.000000
0.309834 0.415617 0.000000
0.344879 0.414834 0.000000
0.379396 0.413960 0.000000
0.413534 0.413010 0.000000
0.447320 0.411924 0.000000
0.480866 0.410756 0.000000
0.514190 0.409484 0.000000
0.547314 0.408106 0.000000
0.580252 0.406619 0.000000
0.613009 0.405021 0.000000
0.645588 0.403310 0.000000
0.677986 0.401483 0.000000
0.710848 0.401313 0.000000
0.743458 0.401190 0.000000
0.775786 0.401028 0.000000
0.807835 0.400830 0.000000
0.839603 0.400600 0.000000
0.871085 0.400340 0.000000
0.902276 0.400056 0.000000
0.933167 0.399748 0.000000
0.963748 0.399421 0.000000
0.994007 0.399077 0.000000
0.000586 0.450333 0.000000
0.000586 0.450247 0.000000
0.000586 0.450152 0.000000
0.000585 0.450016 0.000000
0.000585 0.449831 0.000000
0.015223 0.449597 0.000000
0.094091 0.449319 0.000000
0.146161 0.448974 0.000000
0.190064 0.448562 0.000000
0.230174 0.448078 0.000000
0.268131 0.447521 0.000000
0.304731 0.446887 0.000000
0.340410 0.446173 0.000000
0.375431 0.445375 0.000000
0.409961 0.444491 0.000000
0.444108 0.443518 0.000000
0.477942 0.442454 0.000000
0.511511 0.441295 0.000000
0.544847 0.440041 0.000000
0.577969 0.438687 0.000000
0.610889 0.437234 0.000000
0.643611 0.435679 0.000000
0.676136 0.434020 0.000000
0.708462 0.432257 0.000000
0.740821 0.431008 0.000000
0.773369 0.430899 0.000000
0.805613 0.430753 0.000000
0.837553 0.430572 0.000000
0.869189 0.430359 0.000000
0.900517 0.430118 0.000000
0.931530 0.429851 0.000000
0.962220 0.429562 0.000000
0.992577 0.429253 0.000000
0.000657 0.481292 0.000000
0.000657 0.481214 0.000000
0.000656 0.481126 0.000000
0.000656 0.481001 0.000000
0.000656 0.480831 0.000000
0.000655 0.480612 0.000000
0.072333 0.480357 0.000000
0.132713 0.480043 0.000000
0.180081 0.479665 0.000000
0.222192 0.479223 0.000000
0.261481 0.478712 0.000000
0.299040 0.478130 0.000000
0.335447 0.477475 0.000000
0.371042 0.476743 0.000000
0.406036 0.475932 0.000000
0.440565 0.475040 0.000000
0.474720 0.474064 0.000000
0.508562 0.473002 0.000000
0.542133 0.471853 0.000000
0.575460 0.470614 0.000000
0.608558 0.469284 0.000000
0.641439 0.467861 0.000000
0.674104 0.466345 0.000000
0.706555 0.464735 0.000000
0.738787 0.463028 0.000000
0.770794 0.461226 0.000000
0.803054 0.460626 0.000000
0.835191 0.460495 0.000000
0.867003 0.460330 0.000000
0.898487 0.460134 0.000000
0.929640 0.459911 0.000000
0.960456 0.459662 0.000000
0.990927 0.459391 0.000000
0.000730 0.512253 0.000000
0.000730 0.512180 0.000000
0.000729 0.512099 0.000000
0.000729 0.511983 0.000000
0.000729 0.511826 0.000000
0.000728 0.511624 0.000000
0.040330 0.511382 0.000000
0.116386 0.511097 0.000000
0.168521 0.510750 0.000000
0.213144 0.510343 0.000000
0.254031 0.509872 0.000000
0.292712 0.509336 0.000000
0.329957 0.508732 0.000000
0.366203 0.508058 0.000000
0.401718 0.507310 0.000000
0.436675 0.506488 0.000000
0.471188 0.505589 0.000000
0.505333 0.504610 0.000000
0.539164 0.503552 0.000000
0.572716 0.502411 0.000000
0.606011 0.501187 0.000000
0.639065 0.499879 0.000000
0.671884 0.498485 0.000000
0.704472 0.497004 0.000000
0.736827 0.495437 0.000000
0.768945 0.493783 0.000000
0.800819 0.492041 0.000000
0.832497 0.490353 0.000000
0.864507 0.490236 0.000000
0.896168 0.490086 0.000000
0.927481 0.489907 0.000000
0.958440 0.489700 0.000000
0.989040 0.489469 0.000000
0.000805 0.543196 0.000000
0.000804 0.543128 0.000000
0.000804 0.543053 0.000000
0.000804 0.542945 0.000000
0.000804 0.542800 0.000000
0.000803 0.542612 0.000000
0.000803 0.542379 0.000000
0.095849 0.542121 0.000000
0.155010 0.541802 0.000000
0.202863 0.541425 0.000000
0.245690 0.540990 0.000000
0.285690 0.540494 0.000000
0.323899 0.539935 0.000000
0.360885 0.539310 0.000000
0.396988 0.538618 0.000000
0.432423 0.537857 0.000000
0.467332 0.537024 0.000000
0.501813 0.536119 0.000000
0.535930 0.535139 0.000000
0.569729 0.534084 0.000000
0.603240 0.532952 0.000000
0.636484 0.531742 0.000000
0.669471 0.530454 0.000000
0.702208 0.529087 0.000000
0.734697 0.527640 0.000000
0.766936 0.526113 0.000000
0.798919 0.524507 0.000000
0.830640 0.522821 0.000000
0.862090 0.521056 0.000000
0.893543 0.519957 0.000000
0.925035 0.519822 0.000000
0.956155 0.519659 0.000000
0.986900 0.519468 0.000000
0.000881 0.574104 0.000000
0.000881 0.574041 0.000000
0.000881 0.573971 0.000000
0.000880 0.573871 0.000000
0.000880 0.573735 0.000000
0.000880 0.573560 0.000000
0.000879 0.573343 0.000000
0.068107 0.573097 0.000000
0.138966 0.572804 0.000000
0.191126 0.572456 0.000000
0.236343 0.572052 0.000000
0.277905 0.571591 0.000000
0.317229 0.571071 0.000000
0.355057 0.570491 0.000000
0.391821 0.569847 0.000000
0.427790 0.569140 0.000000
0.463140 0.568366 0.000000
0.497990 0.567524 0.000000
0.532422 0.566614 0.000000
0.566492 0.565634 0.000000
0.600239 0.564582 0.000000
0.633689 0.563459 0.000000
0.666859 0.562263 0.000000
0.699759 0.560994 0.000000
0.732394 0.559652 0.000000
0.764763 0.558236 0.000000
0.796864 0.556747 0.000000
0.828692 0.555185 0.000000
0.860239 0.553551 0.000000
0.891497 0.551844 0.000000
0.922455 0.550067 0.000000
0.953585 0.549522 0.000000
0.984492 0.549373 0.000000
0.000958 0.604960 0.000000
0.000958 0.604901 0.000000
0.000958 0.604835 0.000000
0.000958 0.604742 0.000000
0.000957 0.604615 0.000000
0.000957 0.604451 0.000000
0.000956 0.604248 0.000000
0.024411 0.604009 0.000000
0.119409 0.603742 0.000000
0.177618 0.603419 0.000000
0.225846 0.603043 0.000000
0.269277 0.602613 0.000000
0.309897 0.602128 0.000000
0.348685 0.601587 0.000000
0.386193 0.600987 0.000000
0.422757 0.600326 0.000000
0.458595 0.599604 0.000000
0.493853 0.598819 0.000000
0.528630 0.597970 0.000000
0.562997 0.597056 0.000000
0.597001 0.596075 0.000000
0.630676 0.595028 0.000000
0.664045 0.593913 0.000000
0.697121 0.592731 0.000000
0.729912 0.591480 0.000000
0.762422 0.590162 0.000000
0.794651 0.588776 0.000000
0.826594 0.587322 0.000000
0.858246 0.585802 0.000000
0.889599 0.584216 0.000000
0.920645 0.582564 0.000000
0.951371 0.580848 0.000000
0.981805 0.579167 0.000000
0.001036 0.635745 0.000000
0.001036 0.635690 0.000000
0.001036 0.635628 0.000000
0.001036 0.635540 0.000000
0.001036 0.635421 0.000000
0.001035 0.635268 0.000000
0.001035 0.635077 0.000000
0.001034 0.634847 0.000000
0.094404 0.634598 0.000000
0.161878 0.634298 0.000000
0.214007 0.633948 0.000000
0.259705 0.633546 0.000000
0.301842 0.633093 0.000000
0.341730 0.632586 0.000000
0.380077 0.632024 0.000000
0.417305 0.631406 0.000000
0.453684 0.630730 0.000000
0.489389 0.629995 0.000000
0.524545 0.629200 0.000000
0.559235 0.628344 0.000000
0.593519 0.627426 0.000000
0.627439 0.626446 0.000000
0.661022 0.625404 0.000000
0.694288 0.624298 0.000000
0.727249 0.623129 0.000000
0.759912 0.621896 0.000000
0.792277 0.620601 0.000000
0.824344 0.619243 0.000000
0.856109 0.617823 0.000000
0.887565 0.616342 0.000000
0.918703 0.614801 0.000000
0.949516 0.613200 0.000000
0.979991 0.611542 0.000000
0.001115 0.666442 0.000000
0.001115 0.666390 0.000000
0.001115 0.666332 0.000000
0.001115 0.666249 0.000000
0.001114 0.666137 0.000000
0.001114 0.665993 0.000000
0.001113 0.665814 0.000000
0.001113 0.665597 0.000000
0.058858 0.665355 0.000000
0.143169 0.665079 0.000000
0.200569 0.664751 0.000000
0.249065 0.664374 0.000000
0.292994 0.663949 0.000000
0.334147 0.663473 0.000000
0.373443 0.662946 0.000000
0.411413 0.662365 0.000000
0.448389 0.661730 0.000000
0.484588 0.661040 0.000000
0.520158 0.660294 0.000000
0.555200 0.659490 0.000000
0.589788 0.658628 0.000000
0.623972 0.657709 0.000000
0.657787 0.656730 0.000000
0.691258 0.655692 0.000000
0.724402 0.654595 0.000000
0.757228 0.653439 0.000000
0.789740 0.652224 0.000000
0.821940 0.650951 0.000000
0.853825 0.649620 0.000000
0.885391 0.648232 0.000000
0.916630 0.646789 0.000000
0.947534 0.645290 0.000000
0.978093 0.643738 0.000000
0.001194 0.697033 0.000000
0.001194 0.696984 0.000000
0.001193 0.696929 0.000000
0.001193 0.696851 0.000000
0.001193 0.696745 0.000000
0.001193 0.696609 0.000000
0.001192 0.696440 0.000000
0.001192 0.696236 0.000000
0.002028 0.695994 0.000000
0.120175 0.695743 0.000000
0.185162 0.695436 0.000000
0.237198 0.695083 0.000000
0.283267 0.694683 0.000000
0.325884 0.694235 0.000000
0.366257 0.693738 0.000000
0.405057 0.693191 0.000000
0.442696 0.692593 0.000000
0.479437 0.691943 0.000000
0.515459 0.691240 0.000000
0.550884 0.690483 0.000000
0.585801 0.689672 0.000000
0.620270 0.688806 0.000000
0.654336 0.687884 0.000000
0.688028 0.686908 0.000000
0.721367 0.685875 0.000000
0.754368 0.684787 0.000000
0.787038 0.683644 0.000000
0.819380 0.682447 0.000000
0.851394 0.681195 0.000000
0.883076 0.679891 0.000000
0.914422 0.678534 0.000000
0.945424 0.677125 0.000000
0.976073 0.675667 0.000000
0.001272 0.727499 0.000000
0.001272 0.727453 0.000000
0.001272 0.727402 0.000000
0.001272 0.727328 0.000000
0.001271 0.727228 0.000000
0.001271 0.727099 0.000000
0.001271 0.726939 0.000000
0.001270 0.726746 0.000000
0.001269 0.726517 0.000000
0.090052 0.726273 0.000000
0.167228 0.725987 0.000000
0.223891 0.725655 0.000000
0.272556 0.725278 0.000000
0.316881 0.724855 0.000000
0.358480 0.724386 0.000000
0.398212 0.723870 0.000000
0.436585 0.723306 0.000000
0.473921 0.722692 0.000000
0.510437 0.722028 0.000000
0.546280 0.721313 0.000000
0.581553 0.720547 0.000000
0.616330 0.719729 0.000000
0.650664 0.718859 0.000000
0.684593 0.717937 0.000000
0.718143 0.716962 0.000000
0.751331 0.715935 0.000000
0.784169 0.714857 0.000000
0.816662 0.713727 0.000000
0.848813 0.712547 0.000000
0.880620 0.711316 0.000000
0.912080 0.710037 0.000000
0.943186 0.708710 0.000000
0.973930 0.707336 0.000000
0.001350 0.757825 0.000000
0.001350 0.757781 0.000000
0.001349 0.757732 0.000000
0.001349 0.757662 0.000000
0.001349 0.757567 0.000000
0.001349 0.757445 0.000000
0.001348 0.757293 0.000000
0.001348 0.757110 0.000000
0.001347 0.756893 0.000000
0.043496 0.756651 0.000000
0.145844 0.756388 0.000000
0.208850 0.756075 0.000000
0.260728 0.755718 0.000000
0.307066 0.755319 0.000000
0.350070 0.754875 0.000000
0.390848 0.754387 0.000000
0.430036 0.753852 0.000000
0.468028 0.753271 0.000000
0.505084 0.752642 0.000000
0.541379 0.751965 0.000000
0.577037 0.751240 0.000000
0.612146 0.750466 0.000000
0.646769 0.749642 0.000000
0.680952 0.748769 0.000000
0.714726 0.747847 0.000000
0.748115 0.746876 0.000000
0.781131 0.745855 0.000000
0.813786 0.744787 0.000000
0.846083 0.743670 0.000000
0.878022 0.742507 0.000000
0.909602 0.741297 0.000000
0.940818 0.740042 0.000000
0.971663 0.738744 0.000000
0.001426 0.787990 0.000000
0.001426 0.787949 0.000000
0.001426 0.787902 0.000000
0.001426 0.787835 0.000000
0.001426 0.787745 0.000000
0.001426 0.787629 0.000000
0.001425 0.787485 0.000000
0.001425 0.787311 0.000000
0.001424 0.787105 0.000000
0.001424 0.786865 0.000000
0.119266 0.786620 0.000000
0.191652 0.786325 0.000000
0.247611 0.785988 0.000000
0.296350 0.785610 0.000000
0.340974 0.785189 0.000000
0.382934 0.784725 0.000000
0.423030 0.784218 0.000000
0.461743 0.783667 0.000000
0.499388 0.783070 0.000000
0.536174 0.782428 0.000000
0.572248 0.781739 0.000000
0.607714 0.781005 0.000000
0.642648 0.780223 0.000000
0.677102 0.779395 0.000000
0.711116 0.778520 0.000000
0.744717 0.777598 0.000000
0.777925 0.776631 0.000000
