colorkit/colorkit/luts/clean_pop.cube
TITLE "clean_pop"
LUT_3D_SIZE 9
DOMAIN_MIN 0.0 0.0 0.0
DOMAIN_MAX 1.0 1.0 1.0
0.000000 0.000000 0.000000
0.120422 0.000002 0.000000
0.244510 0.000006 0.000000
0.370944 0.000014 0.000000
0.498557 0.000025 0.000000
0.626178 0.000039 0.000000
0.752637 0.000055 0.000000
0.876765 0.000073 0.000000
0.997392 0.000093 0.000000
0.000046 0.114915 0.000000
0.113294 0.113244 0.000000
0.241906 0.110098 0.000000
0.370597 0.109940 0.000000
0.499058 0.107251 0.000000
0.626660 0.092069 0.000000
0.753116 0.067602 0.000000
0.877207 0.023125 0.000000
0.997824 0.000093 0.000000
0.000181 0.235131 0.000000
0.090056 0.234052 0.000000
0.231639 0.231449 0.000000
0.362946 0.225821 0.000000
0.494803 0.224725 0.000000
0.624732 0.223775 0.000000
0.752558 0.222373 0.000000
0.877626 0.220820 0.000000
0.998784 0.216431 0.000000
0.000390 0.357636 0.000000
0.025738 0.356975 0.000000
0.212851 0.355267 0.000000
0.352539 0.352139 0.000000
0.485876 0.347053 0.000000
0.617436 0.342156 0.000000
0.747654 0.341465 0.000000
0.874093 0.340243 0.000000
0.996275 0.338722 0.000000
0.000657 0.481292 0.000000
0.000656 0.480831 0.000000
0.180081 0.479665 0.000000
0.335447 0.477475 0.000000
0.474720 0.474064 0.000000
0.608558 0.469284 0.000000
0.738787 0.463028 0.000000
0.867003 0.460330 0.000000
0.990927 0.459391 0.000000
0.000958 0.604960 0.000000
0.000957 0.604615 0.000000
0.119409 0.603742 0.000000
0.309897 0.602128 0.000000
0.458595 0.599604 0.000000
0.597001 0.596075 0.000000
0.729912 0.591480 0.000000
0.858246 0.585802 0.000000
0.981805 0.579167 0.000000
0.001272 0.727499 0.000000
0.001271 0.727228 0.000000
0.001269 0.726517 0.000000
0.272556 0.725278 0.000000
0.436585 0.723306 0.000000
0.581553 0.720547 0.000000
0.718143 0.716962 0.000000
0.848813 0.712547 0.000000
0.973930 0.707336 0.000000
0.001576 0.847772 0.000000
0.001575 0.847549 0.000000
0.001574 0.846968 0.000000
0.216492 0.845950 0.000000
0.407545 0.844348 0.000000
0.561829 0.842101 0.000000
0.703308 0.839183 0.000000
0.836987 0.835595 0.000000
0.964124 0.831370 0.000000
0.001849 0.964639 0.000000
0.001849 0.964451 0.000000
0.001848 0.963961 0.000000
0.116210 0.963084 0.000000
0.369830 0.961748 0.000000
0.537477 0.959859 0.000000
0.685326 0.957404 0.000000
0.822772 0.954389 0.000000
0.952382 0.950844 0.000000
0.000001 0.000000 0.121675
0.119484 0.000003 0.119470
0.243837 0.000008 0.113526
0.370274 0.000017 0.101774
0.497815 0.000028 0.080882
0.625332 0.000040 0.041010
0.751801 0.000055 0.000000
0.875959 0.000073 0.000000
0.996606 0.000092 0.000000
0.000055 0.114336 0.114282
0.120995 0.120931 0.120834
0.241830 0.110054 0.109929
0.369368 0.101503 0.101342
0.497502 0.086926 0.086734
0.625394 0.062402 0.062193
0.751973 0.017133 0.016942
0.876200 0.000073 0.000000
0.996915 0.000093 0.000000
0.000194 0.234766 0.091592
0.089636 0.234785 0.089246
0.235893 0.235687 0.083071
0.365126 0.230467 0.081024
0.497103 0.233385 0.090496
0.626357 0.233443 0.091167
0.752737 0.223990 0.063176
0.876894 0.212067 0.014289
0.997577 0.197114 0.000000
0.000396 0.357412 0.028538
0.023958 0.356750 0.023279
0.212565 0.355234 0.009510
0.355225 0.354819 0.000000
0.485720 0.346818 0.000000
0.619528 0.347973 0.000000
0.749560 0.349189 0.000000
0.875773 0.349592 0.000000
0.997770 0.349581 0.000000
0.000656 0.481136 0.000000
0.000655 0.480674 0.000000
0.179580 0.479508 0.000000
0.335202 0.477316 0.000000
0.476576 0.475916 0.000000
0.608442 0.469122 0.000000
0.739642 0.464991 0.000000
0.868875 0.466168 0.000000
0.992688 0.466595 0.000000
0.000958 0.604843 0.000000
0.000957 0.604497 0.000000
0.118645 0.603624 0.000000
0.309627 0.602010 0.000000
0.458428 0.599486 0.000000
0.598310 0.597381 0.000000
0.729820 0.591360 0.000000
0.858171 0.585680 0.000000
0.983578 0.583746 0.000000
0.001272 0.727407 0.000000
0.001271 0.727135 0.000000
0.001269 0.726424 0.000000
0.272242 0.725185 0.000000
0.436407 0.723212 0.000000
0.581429 0.720453 0.000000
0.719088 0.717905 0.000000
0.848737 0.712452 0.000000
0.973867 0.707240 0.000000
0.001576 0.847696 0.000000
0.001575 0.847474 0.000000
0.001574 0.846892 0.000000
0.216082 0.845874 0.000000
0.407351 0.844272 0.000000
0.561700 0.842025 0.000000
0.703211 0.839106 0.000000
0.837673 0.836280 0.000000
0.964060 0.831292 0.000000
0.001849 0.964575 0.000000
0.001849 0.964387 0.000000
0.001848 0.963897 0.000000
0.115421 0.963020 0.000000
0.369612 0.961684 0.000000
0.537340 0.959794 0.000000
0.685226 0.957340 0.000000
0.822693 0.954325 0.000000
0.952874 0.951335 0.000000
0.000002 0.000001 0.246638
0.117506 0.000004 0.245597
0.242917 0.000011 0.242862
0.369720 0.000021 0.237750
0.497439 0.000033 0.229660
0.625062 0.000048 0.217927
0.751472 0.000064 0.201709
0.875523 0.000082 0.179755
0.996057 0.000101 0.149799
0.000064 0.112064 0.243099
0.109755 0.109692 0.242029
0.239455 0.103246 0.239236
0.367666 0.090321 0.234034
0.496034 0.066564 0.225808
0.623973 0.018840 0.213881
0.750594 0.000064 0.197313
0.874960 0.000082 0.177645
0.995791 0.000101 0.153102
0.000214 0.233803 0.233589
0.088861 0.237516 0.237253
0.245675 0.245433 0.245071
0.367499 0.232142 0.231738
0.494695 0.224647 0.224183
0.623414 0.216114 0.215588
0.750556 0.204533 0.203952
0.875130 0.189332 0.188705
0.996051 0.169688 0.169028
0.000432 0.356834 0.214937
0.019368 0.356436 0.213898
0.215766 0.361169 0.214802
0.361899 0.361448 0.210909
0.491517 0.354424 0.208928
0.623282 0.358018 0.218714
0.752337 0.359899 0.222433
0.876240 0.352008 0.207863
0.996889 0.343197 0.190866
0.000699 0.480741 0.182301
0.000697 0.480278 0.180857
0.178311 0.479111 0.176943
0.338287 0.481939 0.171708
0.481391 0.480693 0.160561
0.610285 0.470379 0.140147
0.742632 0.471663 0.154049
0.871645 0.474569 0.166575
0.995135 0.476259 0.173573
0.000989 0.604547 0.122933
0.000987 0.604201 0.120768
0.116660 0.603327 0.114874
0.308948 0.601711 0.103260
0.460958 0.602935 0.083597
0.601956 0.601012 0.045363
0.730903 0.592134 0.000000
0.859001 0.587354 0.000000
0.986047 0.590088 0.000000
0.001271 0.727166 0.000000
0.001270 0.726894 0.000000
0.001269 0.726183 0.000000
0.271418 0.724943 0.000000
0.435942 0.722969 0.000000
0.583506 0.723132 0.000000
0.721978 0.720789 0.000000
0.849367 0.712907 0.000000
0.973702 0.706990 0.000000
0.001575 0.847499 0.000000
0.001574 0.847276 0.000000
0.001573 0.846695 0.000000
0.215007 0.845675 0.000000
0.406844 0.844073 0.000000
0.561362 0.841825 0.000000
0.704975 0.841284 0.000000
0.840050 0.838653 0.000000
0.964419 0.831547 0.000000
0.001849 0.964409 0.000000
0.001849 0.964221 0.000000
0.001847 0.963730 0.000000
0.113336 0.962853 0.000000
0.369040 0.961517 0.000000
0.536982 0.959627 0.000000
0.684964 0.957172 0.000000
0.824234 0.956167 0.000000
0.954883 0.953343 0.000000
0.000005 0.000002 0.373953
0.113783 0.000006 0.373314
0.241210 0.000014 0.371647
0.368690 0.000025 0.368567
0.496734 0.000038 0.363787
0.624542 0.000054 0.357058
0.751070 0.000072 0.348171
0.875203 0.000091 0.336952
0.995796 0.000112 0.323256
0.000073 0.108162 0.371782
0.105777 0.105709 0.371127
0.237721 0.099027 0.369438
0.366628 0.085545 0.366336
0.495321 0.060349 0.361535
0.623441 0.010291 0.354800
0.750192 0.000072 0.345853
0.874484 0.000091 0.334539
0.995191 0.000111 0.320720
0.000232 0.232016 0.366055
0.081534 0.230920 0.365383
0.228249 0.228021 0.363640
0.361188 0.222594 0.360509
0.491671 0.213858 0.355535
0.620866 0.201126 0.348615
0.748244 0.183291 0.339477
0.872922 0.158600 0.327931
0.994060 0.128446 0.315585
0.000459 0.355754 0.355295
0.010949 0.357315 0.356846
0.216183 0.363819 0.363200
0.372820 0.372320 0.371571
0.497530 0.359071 0.358267
0.619504 0.348113 0.347249
0.747581 0.341606 0.340665
0.872791 0.333450 0.332438
0.994174 0.323598 0.322522
0.000734 0.480000 0.338042
0.000733 0.479537 0.337332
0.178236 0.483722 0.339296
0.342971 0.489152 0.341287
0.489683 0.488936 0.338068
0.620828 0.482070 0.336228
0.748019 0.483433 0.344573
0.875853 0.487004 0.350342
0.996013 0.479686 0.338896
0.001036 0.604000 0.312388
0.001035 0.603654 0.311608
0.112918 0.602778 0.309502
0.310237 0.605749 0.308112
0.465661 0.609334 0.305361
0.608448 0.607446 0.297594
0.737548 0.597352 0.283174
0.862969 0.594988 0.292802
0.989781 0.599375 0.304768
0.001342 0.726747 0.275267
0.001341 0.726474 0.274361
0.001338 0.725762 0.271980
0.269966 0.724520 0.267407
0.437411 0.726127 0.261795
0.587690 0.728453 0.253667
0.727207 0.725972 0.240270
0.854805 0.717351 0.220589
0.974442 0.708292 0.204259
0.001629 0.847154 0.220261
0.001628 0.846932 0.219093
0.001626 0.846349 0.216009
0.213065 0.845328 0.210115
0.405956 0.843723 0.200775
0.562757 0.844351 0.187873
0.708615 0.845732 0.169557
0.844363 0.842942 0.142247
0.968926 0.835352 0.100606
0.001876 0.964112 0.125265
0.001875 0.963924 0.123149
0.001873 0.963433 0.117453
0.109430 0.962553 0.106202
0.368004 0.961215 0.086426
0.536333 0.959322 0.050376
0.686282 0.959325 0.000000
0.827409 0.959946 0.000000
0.958524 0.956980 0.000000
0.000009 0.000003 0.502445
0.107833 0.000008 0.501999
0.238559 0.000017 0.500839
0.367097 0.000029 0.498709
0.495641 0.000043 0.495425
0.623733 0.000060 0.490848
0.750440 0.000079 0.484884
0.874694 0.000099 0.477487
0.995374 0.000121 0.468667
0.000079 0.101905 0.500928
0.099382 0.099309 0.500470
0.235022 0.092214 0.499297
0.365017 0.077735 0.497160
0.494212 0.049774 0.493883
0.622616 0.000060 0.489334
0.749562 0.000079 0.483347
0.873975 0.000099 0.475920
0.994769 0.000121 0.467062
0.000249 0.229239 0.496949
0.073368 0.228127 0.496484
0.225429 0.225188 0.495275
0.359508 0.219648 0.493095
0.490569 0.210811 0.489754
0.620054 0.197861 0.485111
0.747612 0.179671 0.479070
0.872410 0.154366 0.471588
0.993432 0.117905 0.462677
0.000484 0.354084 0.489592
0.000482 0.353410 0.489142
0.206296 0.351686 0.487876
0.354324 0.353843 0.492869
0.491682 0.349394 0.490334
0.614952 0.336194 0.477475
0.743714 0.326665 0.471296
0.869330 0.314559 0.463637
0.990956 0.299662 0.454500
0.000766 0.478853 0.478087
0.000766 0.478996 0.478230
0.175046 0.484024 0.483117
0.343853 0.491679 0.490624
0.501200 0.500400 0.499200
0.627027 0.487289 0.486030
0.744605 0.473353 0.472044
0.868963 0.466774 0.465389
0.991022 0.460327 0.458868
0.001072 0.603148 0.461666
0.001071 0.602802 0.461182
0.107879 0.605916 0.462986
0.311946 0.611586 0.466231
0.471379 0.617307 0.468932
0.617768 0.616719 0.466023
0.748769 0.609988 0.464206
0.872092 0.609959 0.471351
0.995541 0.613470 0.477422
0.001382 0.726080 0.439476
0.001381 0.725807 0.438962
0.001379 0.725095 0.437615
0.269239 0.727664 0.437391
0.440687 0.732687 0.437822
0.593528 0.735963 0.436056
0.734867 0.733590 0.429568
0.862625 0.723737 0.417247
0.982897 0.719488 0.424375
0.001674 0.846613 0.410459
0.001673 0.846390 0.409899
0.001671 0.845807 0.408433
0.210014 0.844783 0.405627
0.406150 0.846278 0.402915
0.566408 0.850457 0.400170
0.713929 0.852248 0.394633
0.850789 0.849333 0.385065
0.975603 0.840974 0.371133
0.001929 0.963660 0.373097
0.001928 0.963472 0.372468
0.001927 0.962981 0.370820
0.103183 0.962099 0.367726
0.366431 0.960760 0.362885
0.536875 0.961453 0.357197
0.689919 0.964797 0.350615
0.832167 0.965586 0.340823
0.964018 0.962450 0.327182
0.000014 0.000005 0.630937
0.099067 0.000010 0.630600
0.234836 0.000020 0.629726
0.364877 0.000033 0.628128
0.494121 0.000049 0.625676
0.622606 0.000067 0.622274
0.749560 0.000086 0.617866
0.873981 0.000107 0.612440
0.994779 0.000130 0.606028
0.000083 0.092632 0.629792
0.089870 0.089798 0.629447
0.231224 0.081996 0.628563
0.362768 0.065740 0.626967
0.492662 0.032441 0.624535
0.621487 0.000066 0.621155
0.748680 0.000086 0.616737
0.873261 0.000107 0.611299
0.994173 0.000130 0.604871
0.000264 0.225335 0.626789
0.060697 0.224199 0.626441
0.221453 0.221203 0.625526
0.357231 0.215547 0.623895
0.489029 0.206514 0.621412
0.618917 0.193245 0.617980
0.746724 0.174532 0.613547
0.871687 0.148303 0.608101
0.992822 0.109875 0.601682
0.000507 0.351757 0.621289
0.000506 0.351077 0.620958
0.201898 0.349338 0.620002
0.346552 0.346067 0.618338
0.481970 0.340953 0.615812
0.613810 0.333714 0.612327
0.742828 0.324098 0.607824
0.868614 0.311871 0.602288
0.990359 0.296813 0.595753
0.000795 0.477257 0.612790
0.000794 0.476790 0.612452
0.166741 0.475610 0.611488
0.332338 0.477754 0.615254
0.483270 0.482488 0.622997
0.621552 0.477607 0.619444
0.741792 0.462171 0.603357
0.863607 0.450905 0.593410
0.986224 0.441466 0.586742
0.001105 0.601962 0.600857
0.001104 0.601615 0.600510
0.098976 0.605000 0.603811
0.309732 0.611474 0.610106
0.472499 0.619714 0.618201
0.629580 0.628480 0.626829
0.755019 0.615596 0.613891
0.872190 0.602088 0.600336
0.986454 0.591385 0.589582
0.001417 0.725150 0.585111
0.001416 0.724877 0.584752
0.001422 0.727059 0.586187
0.268200 0.732151 0.589514
0.443171 0.738584 0.593632
0.599963 0.744386 0.596815
0.744835 0.743518 0.594099
0.874184 0.736935 0.592276
0.994665 0.736983 0.599231
0.001709 0.845855 0.565215
0.001708 0.845631 0.564840
0.001707 0.845048 0.563861
0.206604 0.847189 0.564136
0.407682 0.852376 0.565910
0.570520 0.857588 0.567038
0.720629 0.860527 0.565868
0.859279 0.857794 0.560080
0.984239 0.848244 0.548969
0.001962 0.963023 0.540861
0.001962 0.962835 0.540465
0.001961 0.962343 0.539429
0.093874 0.961458 0.537483
0.365347 0.962887 0.536048
0.539514 0.967724 0.535774
0.694430 0.971712 0.534057
0.838383 0.973001 0.529792
0.971346 0.969765 0.521963
0.000021 0.000007 0.758250
0.086634 0.000012 0.757982
0.229940 0.000024 0.757287
0.361991 0.000038 0.756022
0.492150 0.000054 0.754087
0.621146 0.000073 0.751409
0.748420 0.000093 0.747952
0.873055 0.000115 0.743713
0.994005 0.000138 0.738727
0.000083 0.079337 0.757343
0.076157 0.076088 0.757072
0.226222 0.067019 0.756370
0.359837 0.047273 0.755113
0.490652 0.009093 0.753207
0.620023 0.000073 0.750534
0.747538 0.000093 0.747072
0.872334 0.000115 0.742826
0.993398 0.000138 0.737831
0.000278 0.220193 0.754947
0.040748 0.219023 0.754676
0.216206 0.215948 0.753939
0.354265 0.210134 0.752649
0.487028 0.200830 0.750693
0.617440 0.187117 0.748002
0.745569 0.167665 0.744540
0.870744 0.140101 0.740307
0.992023 0.098649 0.735347
0.000529 0.348731 0.750593
0.000527 0.348043 0.750333
0.196065 0.346285 0.749568
0.343479 0.342979 0.748252
0.479939 0.337809 0.746268
0.612326 0.330486 0.743541
0.741675 0.320753 0.740033
0.867680 0.308366 0.735740
0.989578 0.293093 0.730698
0.000822 0.475189 0.743913
0.000821 0.474720 0.743650
0.159504 0.473531 0.742886
0.325893 0.471308 0.741539
0.468610 0.467841 0.739524
0.604166 0.462979 0.736758
0.735414 0.456613 0.733202
0.862668 0.448683 0.728851
0.985441 0.439183 0.723740
0.001136 0.600427 0.734619
0.001135 0.600079 0.734352
0.085271 0.599189 0.733611
0.300530 0.599769 0.734874
0.461246 0.606599 0.744143
0.612201 0.611116 0.751131
0.749866 0.606008 0.747014
0.869880 0.591112 0.731531
0.979489 0.574261 0.714114
0.001449 0.723947 0.722497
0.001448 0.723673 0.722224
0.001453 0.725362 0.723909
0.263830 0.730816 0.729156
0.441299 0.738165 0.736363
0.601211 0.746674 0.744748
0.756725 0.755367 0.753329
0.880395 0.742803 0.740722
0.995586 0.729830 0.727714
0.001740 0.844873 0.707415
0.001740 0.844649 0.707134
0.001743 0.846066 0.708095
0.202064 0.850500 0.711277
0.407723 0.856550 0.715587
0.573490 0.863425 0.720340
0.727540 0.869185 0.723855
0.869614 0.868103 0.721294
0.995891 0.861700 0.719460
0.001991 0.962196 0.689322
0.001990 0.962008 0.689032
0.001989 0.961516 0.688274
0.080852 0.963311 0.688808
0.364983 0.968266 0.691152
0.541804 0.973954 0.693630
0.699174 0.979188 0.695290
0.845708 0.981785 0.694522
0.980387 0.978796 0.689216
0.000028 0.000009 0.883209
0.069007 0.000014 0.882989
0.223799 0.000028 0.882412
0.358428 0.000043 0.881371
0.489729 0.000060 0.879781
0.619355 0.000079 0.877586
0.747020 0.000101 0.874759
0.871917 0.000123 0.871300
0.993053 0.000147 0.867244
0.000076 0.060082 0.882468
0.056070 0.056011 0.882249
0.219935 0.044250 0.881670
0.356211 0.019246 0.880644
0.488208 0.000060 0.879069
0.618228 0.000079 0.876872
0.746136 0.000101 0.874042
0.871196 0.000123 0.870580
0.992445 0.000147 0.866518
0.000288 0.213728 0.880473
0.012265 0.212513 0.880259
0.209599 0.209335 0.879638
0.350598 0.203310 0.878574
0.484566 0.193643 0.876970
0.615624 0.179330 0.874771
0.744148 0.158861 0.871949
0.869583 0.129385 0.868511
0.991036 0.083162 0.864501
0.000549 0.344993 0.876882
0.000547 0.344296 0.876670
0.188671 0.342513 0.876033
0.339675 0.339163 0.874947
0.477438 0.333921 0.873320
0.610500 0.326493 0.871092
0.740256 0.316611 0.868234
0.866530 0.304022 0.864747
0.988614 0.288474 0.860665
0.000848 0.472648 0.871402
0.000846 0.472176 0.871189
0.150170 0.470977 0.870558
0.321836 0.468739 0.869447
0.466034 0.465248 0.867797
0.602311 0.460352 0.865544
0.733982 0.453939 0.862656
0.861512 0.445949 0.859133
0.984476 0.436375 0.855008
0.001165 0.598545 0.863824
0.001164 0.598195 0.863608
0.067123 0.597297 0.863010
0.294827 0.595669 0.861857
0.449501 0.593109 0.860184
0.591865 0.590806 0.859712
0.732001 0.590590 0.863116
0.859955 0.583025 0.857023
0.978515 0.572265 0.847245
0.001479 0.722471 0.854009
0.001478 0.722197 0.853790
0.001476 0.721480 0.853217
0.254920 0.720548 0.852421
0.432493 0.727252 0.860895
0.590299 0.734287 0.870104
0.739948 0.738602 0.876490
0.875542 0.733400 0.872068
0.993689 0.719132 0.857298
0.001769 0.843669 0.841901
0.001768 0.843445 0.841677
0.001769 0.843824 0.842055
0.194497 0.848444 0.846537
0.404309 0.854915 0.852869
0.571773 0.862778 0.860628
0.728849 0.871351 0.869115
0.881405 0.879869 0.877566
1.000000 0.867722 0.865395
0.002016 0.961183 0.827530
0.002016 0.960995 0.827301
0.002017 0.961741 0.827779
0.061733 0.965596 0.830780
0.362929 0.971097 0.834925
0.542383 0.977791 0.839986
0.702441 0.984879 0.845194
0.852901 0.990508 0.848930
0.990866 0.989268 0.846515
0.000036 0.000012 0.999976
0.042461 0.000015 0.999970
0.216374 0.000031 0.999938
0.354208 0.000047 0.999906
0.486878 0.000065 0.999869
0.617251 0.000086 0.999828
0.745377 0.000108 0.997483
0.870582 0.000131 0.994569
0.991934 0.000155 0.991157
0.000059 0.030084 0.999960
0.024875 0.024834 0.999959
0.212318 0.011141 0.999931
0.351934 0.000047 0.999906
0.485346 0.000065 0.999870
0.616118 0.000086 0.999269
0.744490 0.000108 0.996881
0.869859 0.000131 0.993964
0.991325 0.000155 0.990549
0.000296 0.205888 0.999803
0.000294 0.204618 0.999804
0.201567 0.201301 0.999734
0.346248 0.195002 0.999684
0.481662 0.184858 0.999329
0.613487 0.169744 0.997474
0.742476 0.147881 0.995100
0.868215 0.115639 0.992217
0.989867 0.061238 0.988872
0.000566 0.340560 0.999245
0.000565 0.339853 0.999067
0.179605 0.338039 0.998522
0.335158 0.334636 0.997596
0.474488 0.329306 0.996218
0.608351 0.321750 0.994337
0.738587 0.311687 0.991931
0.865176 0.298849 0.989003
0.987479 0.282963 0.985581
0.000871 0.469655 0.994604
0.000870 0.469179 0.994425
0.138437 0.467968 0.993889
0.317010 0.465713 0.992939
0.462994 0.462194 0.991544
0.600127 0.457256 0.989645
0.732298 0.450789 0.987218
0.860152 0.442727 0.984263
0.983340 0.433063 0.980811
0.001191 0.596333 0.988213
0.001190 0.595982 0.988032
0.039294 0.595072 0.987541
0.289453 0.593442 0.986547
0.446317 0.590870 0.985135
0.588344 0.587272 0.983218
0.723308 0.582585 0.980770
0.852951 0.576791 0.977791
0.977369 0.569919 0.974309
0.001506 0.720741 0.979976
0.001506 0.720466 0.979794
0.001504 0.719746 0.979316
0.248376 0.718482 0.978319
0.423464 0.716485 0.976889
0.574058 0.715519 0.977406
0.720995 0.719666 0.985388
0.859080 0.718846 0.987345
0.984249 0.711208 0.980713
0.001795 0.842258 0.969872
0.001794 0.842034 0.969686
0.001793 0.841447 0.969202
0.183757 0.840408 0.968232
0.396465 0.845400 0.974335
0.563331 0.852598 0.983220
0.718361 0.859677 0.992231
0.865316 0.863787 0.998106
0.997432 0.858593 0.993551
0.002039 0.959996 0.957956
0.002039 0.959807 0.957768
0.002038 0.959313 0.957275
0.031059 0.963073 0.961011
0.358177 0.968797 0.966566
0.539377 0.975947 0.973639
0.700811 0.984062 0.981703
0.854224 0.992546 0.990156
1.000000 1.000000 0.998400
