colorkit/colorkit/luts/fuji_style.cube
TITLE "fuji_style"
LUT_3D_SIZE 9
DOMAIN_MIN 0.0 0.0 0.0
DOMAIN_MAX 1.0 1.0 1.0
0.000000 0.003567 0.001085
0.114101 0.002030 0.000000
0.234434 0.000000 0.000000
0.356603 0.000000 0.000000
0.479714 0.000000 0.000000
0.602877 0.000000 0.000000
0.725202 0.000000 0.000000
0.845800 0.000000 0.000000
0.963778 0.000000 0.000000
0.000000 0.120656 0.000000
0.109749 0.120499 0.000000
0.232172 0.119698 0.000000
0.359673 0.121760 0.000000
0.487151 0.122429 0.000000
0.610479 0.117701 0.000000
0.732639 0.110834 0.000000
0.853133 0.101830 0.000000
0.971044 0.090098 0.000000
0.000000 0.243086 0.000000
0.100471 0.242649 0.000000
0.226721 0.241849 0.000000
0.349732 0.239658 0.000000
0.476916 0.240828 0.000000
0.605196 0.242547 0.000000
0.732050 0.243363 0.000000
0.856803 0.243677 0.000000
0.978664 0.243721 0.000000
0.000000 0.367280 0.000000
0.082568 0.366972 0.000000
0.219467 0.366276 0.000000
0.345893 0.365151 0.000000
0.470262 0.363227 0.000000
0.593956 0.360974 0.000000
0.721858 0.363512 0.000000
0.847366 0.365078 0.000000
0.969784 0.365991 0.000000
0.000000 0.492282 0.000000
0.046005 0.492034 0.000000
0.208084 0.491515 0.000000
0.339491 0.490636 0.000000
0.466171 0.489333 0.000000
0.590824 0.487561 0.000000
0.713658 0.485292 0.000000
0.836437 0.484703 0.000000
0.959557 0.486871 0.000000
0.000000 0.617139 0.000000
0.000000 0.616926 0.000000
0.190951 0.616511 0.000000
0.330335 0.615827 0.000000
0.460229 0.614827 0.000000
0.586601 0.613480 0.000000
0.710485 0.611768 0.000000
0.831755 0.609684 0.000000
0.949886 0.607238 0.000000
0.000000 0.740897 0.000000
0.000000 0.740711 0.000000
0.165837 0.740367 0.000000
0.317862 0.739812 0.000000
0.452211 0.739010 0.000000
0.580871 0.737938 0.000000
0.706127 0.736580 0.000000
0.828293 0.734936 0.000000
0.947043 0.733013 0.000000
0.000000 0.862602 0.000000
0.000000 0.862441 0.000000
0.127963 0.862152 0.000000
0.301535 0.861692 0.000000
0.441929 0.861033 0.000000
0.573532 0.860154 0.000000
0.700512 0.859046 0.000000
0.823790 0.857707 0.000000
0.943301 0.856144 0.000000
0.000000 0.952363 0.000000
0.000000 0.952291 0.000000
0.082149 0.952105 0.000000
0.286255 0.951767 0.000000
0.432572 0.951251 0.000000
0.566885 0.950539 0.000000
0.695414 0.949621 0.000000
0.819679 0.948495 0.000000
0.939861 0.947168 0.000000
0.000000 0.002534 0.117482
0.111942 0.000633 0.116658
0.231299 0.000000 0.114464
0.352339 0.000000 0.110338
0.474276 0.000000 0.103729
0.596250 0.000000 0.093909
0.718445 0.000000 0.081745
0.839172 0.000000 0.065319
0.957247 0.000000 0.040996
0.000000 0.120643 0.114543
0.116838 0.128055 0.121624
0.234248 0.121604 0.115420
0.356610 0.118457 0.112129
0.479903 0.113968 0.107401
0.603199 0.107592 0.100649
0.725626 0.098854 0.091326
0.846302 0.087110 0.078638
0.964345 0.071262 0.061122
0.000000 0.242931 0.105470
0.100391 0.242896 0.104717
0.230929 0.246228 0.104551
0.352260 0.242065 0.101261
0.483177 0.246861 0.107111
0.611827 0.249024 0.109582
0.734959 0.246267 0.103649
0.855153 0.241691 0.093234
0.972883 0.236541 0.079882
0.000000 0.367172 0.087535
0.082241 0.366863 0.086367
0.219375 0.366165 0.083378
0.348597 0.367904 0.078672
0.470260 0.363113 0.068446
0.598491 0.365350 0.069720
0.727286 0.368737 0.075552
0.853227 0.370782 0.078411
0.975858 0.372048 0.079707
0.000000 0.492196 0.051792
0.045521 0.491947 0.050011
0.207994 0.491428 0.045383
0.339465 0.490547 0.036251
0.468086 0.491240 0.022153
0.590842 0.487471 0.002290
0.713685 0.485201 0.000000
0.840847 0.488952 0.000000
0.964575 0.491711 0.000000
0.000000 0.617065 0.000000
0.000000 0.616852 0.000000
0.190856 0.616437 0.000000
0.330310 0.615753 0.000000
0.460231 0.614754 0.000000
0.587984 0.614831 0.000000
0.710508 0.611695 0.000000
0.831782 0.609611 0.000000
0.951680 0.608923 0.000000
0.000000 0.740833 0.000000
0.000000 0.740647 0.000000
0.165725 0.740304 0.000000
0.317832 0.739749 0.000000
0.452208 0.738949 0.000000
0.580881 0.737877 0.000000
0.707151 0.737570 0.000000
0.828312 0.734878 0.000000
0.947063 0.732957 0.000000
0.000000 0.862547 0.000000
0.000000 0.862387 0.000000
0.127806 0.862099 0.000000
0.301494 0.861640 0.000000
0.441916 0.860982 0.000000
0.573531 0.860106 0.000000
0.700516 0.859000 0.000000
0.824552 0.858447 0.000000
0.943306 0.856101 0.000000
0.000000 0.952339 0.000000
0.000000 0.952267 0.000000
0.081877 0.952081 0.000000
0.286196 0.951743 0.000000
0.432545 0.951227 0.000000
0.566871 0.950515 0.000000
0.695405 0.949596 0.000000
0.819672 0.948470 0.000000
0.940439 0.947733 0.000000
0.000000 0.000764 0.238278
0.111154 0.000000 0.237880
0.230940 0.000000 0.236837
0.352132 0.000000 0.234917
0.474144 0.000000 0.231947
0.596163 0.000000 0.227777
0.717330 0.000000 0.222272
0.836772 0.000000 0.215310
0.953615 0.000000 0.206781
0.000000 0.119604 0.236721
0.108041 0.118762 0.236293
0.229659 0.116571 0.235213
0.351501 0.112482 0.233251
0.473846 0.105958 0.230230
0.596071 0.096300 0.225997
0.717379 0.082413 0.220415
0.838212 0.065838 0.214823
0.956572 0.042098 0.208233
0.000000 0.242559 0.232633
0.101729 0.246701 0.236603
0.239932 0.255683 0.245195
0.360270 0.248970 0.238865
0.479930 0.243458 0.233340
0.603345 0.240294 0.230037
0.725901 0.236430 0.225984
0.846685 0.231708 0.221018
0.964812 0.226064 0.215066
0.000000 0.366930 0.225049
0.081271 0.366619 0.224554
0.222706 0.371548 0.227093
0.355167 0.374719 0.227846
0.477426 0.369211 0.223710
0.606468 0.373075 0.229710
0.735482 0.376611 0.233594
0.857870 0.375219 0.231214
0.975142 0.371161 0.224938
0.000000 0.492017 0.212991
0.044035 0.491766 0.212453
0.207649 0.491247 0.211183
0.342160 0.494327 0.210832
0.472848 0.496128 0.208826
0.594502 0.490406 0.202047
0.718870 0.490227 0.203150
0.847294 0.495164 0.209582
0.971437 0.498309 0.213482
0.000000 0.616922 0.195140
0.000000 0.616709 0.194542
0.190481 0.616294 0.193139
0.330135 0.615610 0.190632
0.462246 0.617356 0.187775
0.591624 0.618538 0.183237
0.713208 0.613931 0.174981
0.831764 0.609468 0.164902
0.956758 0.613842 0.171733
0.000000 0.740714 0.169316
0.000000 0.740529 0.168625
0.165285 0.740186 0.166991
0.317645 0.739632 0.164060
0.452103 0.738832 0.159536
0.582387 0.739721 0.153628
0.710048 0.740511 0.145477
0.830376 0.736635 0.133523
0.947043 0.732845 0.118363
0.000000 0.862447 0.130832
0.000000 0.862288 0.129946
0.127220 0.862001 0.127825
0.301285 0.861544 0.123976
0.441797 0.860887 0.117938
0.573453 0.860013 0.109150
0.701658 0.860358 0.097042
0.826926 0.860867 0.079968
0.944942 0.857538 0.054160
0.000000 0.952275 0.084868
0.000000 0.952203 0.083526
0.080959 0.952017 0.080302
0.285958 0.951679 0.074327
0.432410 0.951163 0.064516
0.566779 0.950451 0.048896
0.695335 0.949533 0.024170
0.821234 0.950263 0.000000
0.942549 0.949845 0.000000
0.000000 0.000000 0.360872
0.109699 0.000000 0.360621
0.230275 0.000000 0.359972
0.351739 0.000000 0.358788
0.473885 0.000000 0.356974
0.595981 0.000000 0.354455
0.717198 0.000000 0.351180
0.836676 0.000000 0.347119
0.953543 0.000000 0.342267
0.000000 0.118224 0.359881
0.106568 0.117370 0.359602
0.229007 0.115151 0.358924
0.351124 0.111011 0.357711
0.473602 0.104398 0.355865
0.595903 0.094594 0.353313
0.717260 0.080453 0.350002
0.836841 0.059658 0.345903
0.953787 0.026449 0.341011
0.000000 0.241893 0.357326
0.097776 0.241448 0.357022
0.225386 0.240369 0.356318
0.351900 0.240426 0.357865
0.472417 0.235457 0.353192
0.595175 0.231307 0.350598
0.716826 0.225848 0.347240
0.836611 0.218965 0.343086
0.955263 0.212716 0.339686
0.000000 0.366509 0.352694
0.080146 0.368492 0.354590
0.224908 0.375531 0.361344
0.365176 0.385154 0.370550
0.488646 0.379675 0.365559
0.603556 0.369988 0.355989
0.726040 0.367084 0.352978
0.846888 0.363999 0.349759
0.965095 0.360530 0.346129
0.000000 0.491712 0.345573
0.041123 0.491462 0.345231
0.209000 0.495196 0.347587
0.347254 0.501574 0.351567
0.481007 0.504573 0.352701
0.604236 0.498810 0.348062
0.728566 0.499706 0.352312
0.857101 0.504634 0.357580
0.978241 0.504807 0.357431
0.000000 0.616685 0.335569
0.000000 0.616472 0.335211
0.189724 0.616057 0.334423
0.331590 0.618562 0.334903
0.467079 0.623702 0.336384
0.598001 0.625104 0.335111
0.719871 0.619591 0.329249
0.837081 0.614645 0.327588
0.964219 0.621089 0.335256
0.000000 0.740521 0.322266
0.000000 0.740337 0.321894
0.164401 0.739995 0.321072
0.317247 0.739442 0.319643
0.453195 0.740732 0.318475
0.586606 0.744998 0.318000
0.715183 0.745787 0.315132
0.835782 0.741363 0.309067
0.946970 0.732659 0.300288
0.000000 0.862286 0.305193
0.000000 0.862129 0.304807
0.126052 0.861843 0.303942
0.300850 0.861387 0.302429
0.441536 0.860733 0.300149
0.574188 0.861192 0.297518
0.705308 0.864785 0.295219
0.831172 0.865238 0.290790
0.949411 0.861550 0.283870
0.000000 0.952159 0.289464
0.000000 0.952087 0.289054
0.079150 0.951901 0.288135
0.285479 0.951563 0.286528
0.432127 0.951047 0.284104
0.566582 0.950335 0.280759
0.696817 0.951601 0.277129
0.824643 0.954199 0.272911
0.946349 0.953662 0.266609
0.000000 0.000000 0.484368
0.107438 0.000000 0.484186
0.229248 0.000000 0.483726
0.351128 0.000000 0.482893
0.473475 0.000000 0.481623
0.595687 0.000000 0.479870
0.716978 0.000000 0.477604
0.836508 0.000000 0.474814
0.953412 0.000000 0.471508
0.000000 0.116093 0.483645
0.104266 0.115221 0.483437
0.227992 0.112960 0.482950
0.350528 0.108739 0.482091
0.473207 0.101988 0.480795
0.595623 0.091952 0.479016
0.717053 0.077403 0.476724
0.836684 0.055770 0.473908
0.953666 0.021454 0.470577
0.000000 0.240883 0.481815
0.095303 0.240434 0.481584
0.224367 0.239347 0.481075
0.348561 0.237396 0.480192
0.472032 0.234408 0.478873
0.594904 0.230235 0.477068
0.716628 0.224745 0.474750
0.836461 0.217822 0.471906
0.953589 0.209357 0.468546
0.000000 0.365878 0.478543
0.076463 0.365563 0.478296
0.217340 0.364860 0.477768
0.351723 0.371035 0.486270
0.480697 0.370640 0.486790
0.593231 0.359253 0.473692
0.715458 0.355979 0.471345
0.835630 0.351937 0.468469
0.952997 0.347124 0.465072
0.000000 0.491263 0.473590
0.036531 0.491894 0.474185
0.209070 0.497206 0.479288
0.349935 0.505663 0.487402
0.491518 0.515486 0.496799
0.616719 0.511283 0.493212
0.730538 0.500288 0.482337
0.847069 0.494527 0.476580
0.965222 0.491739 0.473686
0.000000 0.616340 0.466759
0.000000 0.616126 0.466492
0.189613 0.618731 0.468284
0.334771 0.624838 0.472615
0.473119 0.631718 0.477325
0.607171 0.634590 0.478679
0.730089 0.628567 0.473496
0.852800 0.629088 0.477566
0.975656 0.632237 0.481819
0.000000 0.740243 0.457894
0.000000 0.740059 0.457625
0.162989 0.739718 0.457064
0.317684 0.741485 0.457603
0.457190 0.747350 0.460467
0.592524 0.752457 0.462486
0.722722 0.753571 0.461564
0.843660 0.748281 0.456174
0.958551 0.742750 0.453570
0.000000 0.862056 0.446879
0.000000 0.861900 0.446612
0.124184 0.861616 0.446045
0.300148 0.861161 0.445076
0.441836 0.861851 0.444365
0.578210 0.867265 0.445808
0.710620 0.871267 0.446026
0.837479 0.871758 0.443876
0.956040 0.867522 0.438730
0.000000 0.951982 0.437095
0.000000 0.951910 0.436826
0.076242 0.951724 0.436249
0.284716 0.951385 0.435261
0.431673 0.950869 0.433788
0.567673 0.952438 0.432883
0.700931 0.957260 0.433063
0.829699 0.960051 0.431750
0.952040 0.959386 0.428277
0.000000 0.000000 0.607861
0.104243 0.000000 0.607718
0.227818 0.000000 0.607363
0.350276 0.000000 0.606729
0.472899 0.000000 0.605766
0.595270 0.000000 0.604442
0.716662 0.000000 0.602738
0.836260 0.000000 0.600647
0.953215 0.000000 0.598180
0.000000 0.113096 0.607287
0.101001 0.112200 0.607118
0.226571 0.109878 0.606738
0.349690 0.105539 0.606079
0.472645 0.098587 0.605092
0.595219 0.088208 0.603746
0.716749 0.073044 0.602019
0.836448 0.050097 0.599908
0.953479 0.014595 0.597420
0.000000 0.239489 0.605864
0.091775 0.239035 0.605674
0.222935 0.237940 0.605274
0.347731 0.235973 0.604595
0.471480 0.232963 0.603589
0.594509 0.228759 0.602223
0.716332 0.223227 0.600477
0.836232 0.216247 0.598347
0.953407 0.207709 0.595841
0.000000 0.365015 0.603354
0.072201 0.364698 0.603149
0.215867 0.363992 0.602733
0.343823 0.362760 0.602038
0.469007 0.360909 0.601017
0.592840 0.358366 0.599634
0.715166 0.355082 0.597872
0.835403 0.351027 0.595724
0.952816 0.346198 0.593201
0.000000 0.490653 0.599594
0.029780 0.490400 0.599378
0.204300 0.489877 0.598953
0.341951 0.495174 0.605671
0.479254 0.502644 0.615195
0.609103 0.501941 0.615115
0.722758 0.490425 0.602235
0.833801 0.480837 0.591876
0.951563 0.477549 0.589335
0.000000 0.615875 0.594464
0.000000 0.615661 0.594245
0.188402 0.619680 0.598107
0.335184 0.626641 0.604794
0.476116 0.635889 0.613669
0.617908 0.645717 0.623074
0.743665 0.642810 0.620934
0.857224 0.632103 0.610276
0.965479 0.621968 0.600292
0.000000 0.739871 0.587889
0.000000 0.739688 0.587671
0.161540 0.741407 0.588906
0.319392 0.746755 0.592959
0.460957 0.753804 0.598244
0.599207 0.760941 0.603439
0.732538 0.763732 0.604954
0.854001 0.757471 0.599231
0.974774 0.758151 0.603502
0.000000 0.861749 0.579837
0.000000 0.861594 0.579626
0.121515 0.861311 0.579200
0.299791 0.862511 0.579630
0.444836 0.868223 0.582976
0.582944 0.874497 0.586476
0.717346 0.879509 0.588852
0.845845 0.880426 0.588152
0.964779 0.875404 0.583128
0.000000 0.951736 0.572788
0.000000 0.951664 0.572581
0.072020 0.951478 0.572157
0.283638 0.951140 0.571442
0.432244 0.953137 0.571951
0.571418 0.958992 0.574596
0.706133 0.964451 0.576709
0.836352 0.967765 0.577199
0.959667 0.967064 0.574924
0.000000 0.000000 0.730442
0.099988 0.000000 0.730322
0.225956 0.000000 0.730034
0.349169 0.000000 0.729524
0.472149 0.000000 0.728754
0.594722 0.000000 0.727698
0.716244 0.000000 0.726344
0.835930 0.000000 0.724687
0.952947 0.000000 0.722737
0.000000 0.109127 0.729959
0.096639 0.108197 0.729814
0.224715 0.105791 0.729501
0.348596 0.101289 0.728967
0.471909 0.094052 0.728175
0.594684 0.083184 0.727098
0.716342 0.067118 0.725724
0.836128 0.042110 0.724048
0.953220 0.005784 0.722081
0.000000 0.237686 0.728791
0.087031 0.237227 0.728626
0.221060 0.236120 0.728294
0.346642 0.234134 0.727741
0.470752 0.231095 0.726931
0.593983 0.226850 0.725839
0.715933 0.221264 0.724449
0.835918 0.214211 0.722758
0.953154 0.205578 0.720778
0.000000 0.363908 0.726756
0.066370 0.363589 0.726576
0.213933 0.362878 0.726231
0.342727 0.361641 0.725665
0.468281 0.359782 0.724843
0.592317 0.357230 0.723738
0.714769 0.353932 0.722337
0.835092 0.349861 0.720636
0.952564 0.345012 0.718645
0.000000 0.489875 0.723736
0.021220 0.489621 0.723548
0.202251 0.489097 0.723194
0.336374 0.488210 0.722621
0.464188 0.486897 0.721791
0.591087 0.486483 0.722646
0.713503 0.483420 0.720119
0.833486 0.480038 0.717563
0.951307 0.476745 0.715565
0.000000 0.615284 0.719650
0.000000 0.615070 0.719460
0.184542 0.614655 0.719104
0.329429 0.618021 0.723213
0.468521 0.626397 0.733229
0.606752 0.634063 0.742557
0.736336 0.633286 0.742250
0.849793 0.621903 0.729786
0.952817 0.607708 0.714167
0.000000 0.739400 0.714458
0.000000 0.739218 0.714271
0.159067 0.741648 0.716603
0.318697 0.747428 0.722161
0.461538 0.755473 0.729894
0.602413 0.765166 0.739198
0.743301 0.774890 0.748507
0.868544 0.773291 0.747848
0.980604 0.762984 0.737504
0.000000 0.861362 0.708156
0.000000 0.861208 0.707978
0.118198 0.862226 0.708717
0.300305 0.866868 0.712391
0.447000 0.873345 0.717498
0.587090 0.881005 0.723477
0.724443 0.888255 0.728996
0.856042 0.891006 0.730653
0.975200 0.884805 0.724765
0.000000 0.951420 0.702685
0.000000 0.951348 0.702513
0.066223 0.951162 0.702176
0.283075 0.953358 0.703525
0.434362 0.958962 0.707308
0.575121 0.965645 0.711756
0.711779 0.972318 0.716040
0.844252 0.976942 0.718623
0.969128 0.976594 0.717326
0.000000 0.000000 0.851204
0.094543 0.000000 0.851099
0.223649 0.000000 0.850855
0.347802 0.000000 0.850427
0.471221 0.000000 0.849786
0.594044 0.000000 0.848912
0.715722 0.000000 0.847792
0.835515 0.000000 0.846425
0.952609 0.000000 0.844820
0.000000 0.104080 0.850779
0.091040 0.103106 0.850649
0.222411 0.100586 0.850382
0.347242 0.095862 0.849932
0.470995 0.088231 0.849270
0.594018 0.076672 0.848375
0.715832 0.059277 0.847236
0.835723 0.031396 0.845853
0.952891 0.000000 0.844233
0.000000 0.235462 0.849781
0.080888 0.234996 0.849632
0.218727 0.233876 0.849346
0.345290 0.231867 0.848879
0.469845 0.228793 0.848200
0.593325 0.224497 0.847291
0.715430 0.218841 0.846139
0.835519 0.211698 0.844743
0.952829 0.202945 0.843112
0.000000 0.362552 0.848065
0.058623 0.362231 0.847902
0.211523 0.361516 0.847604
0.341365 0.360273 0.847125
0.467374 0.358405 0.846436
0.591661 0.355840 0.845517
0.714268 0.352526 0.844356
0.834694 0.348435 0.842953
0.952240 0.343561 0.841316
0.000000 0.488927 0.845540
0.010701 0.488672 0.845370
0.199691 0.488147 0.845065
0.334984 0.487257 0.844580
0.463273 0.485941 0.843886
0.588793 0.484154 0.842963
0.712158 0.481866 0.841800
0.833085 0.479067 0.840394
0.950978 0.475765 0.838755
0.000000 0.614567 0.842150
0.000000 0.614354 0.841979
0.181712 0.613938 0.841673
0.325676 0.613252 0.841188
0.457272 0.612251 0.840495
0.588793 0.615343 0.845540
0.719712 0.618548 0.851006
0.841044 0.614936 0.847570
0.950337 0.605574 0.836624
0.000000 0.738831 0.837871
0.000000 0.738649 0.837704
0.154978 0.738309 0.837404
0.313972 0.739976 0.839419
0.455946 0.747654 0.848270
0.595263 0.756546 0.858571
0.733214 0.764385 0.867775
0.861481 0.763693 0.867462
0.973501 0.752585 0.855492
0.000000 0.860894 0.832713
0.000000 0.860742 0.832557
0.113688 0.861948 0.833708
0.298832 0.866837 0.838414
0.446494 0.873825 0.845140
0.587762 0.882580 0.853560
0.727772 0.892497 0.863085
0.866666 0.902041 0.872229
0.990378 0.901756 0.873076
0.000000 0.951033 0.828260
0.000000 0.950961 0.828113
0.058646 0.951998 0.828906
0.282427 0.956300 0.832522
0.435173 0.962444 0.837700
0.577367 0.970110 0.844154
0.716161 0.978573 0.851241
0.852138 0.986138 0.857474
0.980186 0.987735 0.858412
0.000000 0.000000 0.968108
0.087831 0.000000 0.968040
0.220926 0.000000 0.967863
0.346197 0.000000 0.967537
0.470133 0.000000 0.967038
0.593246 0.000000 0.966348
0.715107 0.000000 0.965456
0.835023 0.000000 0.964361
0.952205 0.000000 0.963068
0.000000 0.097905 0.967851
0.084101 0.096869 0.967783
0.219683 0.094194 0.967605
0.345646 0.089166 0.967279
0.469916 0.080992 0.966779
0.593229 0.068448 0.966088
0.715225 0.049039 0.965195
0.835239 0.018815 0.964098
0.952494 0.000000 0.962805
0.000000 0.232839 0.967181
0.073168 0.232364 0.967113
0.215954 0.231227 0.966935
0.343690 0.229188 0.966608
0.468770 0.226069 0.966107
0.592541 0.221711 0.965414
0.714827 0.215969 0.964520
0.835039 0.208713 0.963421
0.952435 0.199812 0.962126
0.000000 0.360964 0.965961
0.048465 0.360638 0.965893
0.208646 0.359918 0.965714
0.339746 0.358665 0.965387
0.466295 0.356785 0.964885
0.590876 0.354204 0.964190
0.713666 0.350870 0.963274
0.834214 0.346755 0.962080
0.951845 0.341853 0.960692
0.000000 0.487818 0.964098
0.000000 0.487561 0.964030
0.196620 0.487033 0.963851
0.333327 0.486140 0.963455
0.462181 0.484821 0.962857
0.588002 0.483028 0.962067
0.711551 0.480734 0.961076
0.832600 0.477927 0.959883
0.950579 0.474616 0.958495
0.000000 0.613730 0.961405
0.000000 0.613516 0.961247
0.178303 0.613100 0.960977
0.323960 0.612413 0.960556
0.456158 0.611411 0.959961
0.583725 0.610060 0.959175
0.708327 0.608342 0.958189
0.830064 0.606251 0.957001
0.948517 0.603798 0.955621
0.000000 0.738166 0.957767
0.000000 0.737985 0.957614
0.150926 0.737646 0.957350
0.311135 0.737096 0.956938
0.447993 0.736300 0.956351
0.581778 0.740084 0.961778
0.716379 0.746880 0.971233
0.845985 0.749638 0.975704
0.965234 0.745759 0.971842
0.000000 0.860349 0.953406
0.000000 0.860198 0.953265
0.107823 0.859919 0.953013
0.294561 0.860237 0.953458
0.441920 0.867043 0.961099
0.582396 0.875469 0.970580
0.721101 0.884684 0.980991
0.857622 0.892665 0.990102
0.983571 0.892186 0.989944
0.000000 0.950577 0.949658
0.000000 0.950505 0.949527
0.048334 0.950318 0.949286
0.279909 0.954590 0.953505
0.433423 0.960961 0.959826
0.576127 0.969087 0.967907
0.715808 0.978561 0.977343
0.854350 0.988854 0.987605
0.991757 0.999397 0.998126
