colorkit/colorkit/luts/fuji_style.cube
TITLE "fuji_style"
LUT_3D_SIZE 5
DOMAIN_MIN 0.0 0.0 0.0
DOMAIN_MAX 1.0 1.0 1.0
0.000000 0.003567 0.001085
0.234434 0.000000 0.000000
0.479714 0.000000 0.000000
0.725202 0.000000 0.000000
0.963778 0.000000 0.000000
0.000000 0.243086 0.000000
0.226721 0.241849 0.000000
0.476916 0.240828 0.000000
0.732050 0.243363 0.000000
0.978664 0.243721 0.000000
0.000000 0.492282 0.000000
0.208084 0.491515 0.000000
0.466171 0.489333 0.000000
0.713658 0.485292 0.000000
0.959557 0.486871 0.000000
0.000000 0.740897 0.000000
0.165837 0.740367 0.000000
0.452211 0.739010 0.000000
0.706127 0.736580 0.000000
0.947043 0.733013 0.000000
0.000000 0.952363 0.000000
0.082149 0.952105 0.000000
0.432572 0.951251 0.000000
0.695414 0.949621 0.000000
0.939861 0.947168 0.000000
0.000000 0.000764 0.238278
0.230940 0.000000 0.236837
0.474144 0.000000 0.231947
0.717330 0.000000 0.222272
0.953615 0.000000 0.206781
0.000000 0.242559 0.232633
0.239932 0.255683 0.245195
0.479930 0.243458 0.233340
0.725901 0.236430 0.225984
0.964812 0.226064 0.215066
0.000000 0.492017 0.212991
0.207649 0.491247 0.211183
0.472848 0.496128 0.208826
0.718870 0.490227 0.203150
0.971437 0.498309 0.213482
0.000000 0.740714 0.169316
0.165285 0.740186 0.166991
0.452103 0.738832 0.159536
0.710048 0.740511 0.145477
0.947043 0.732845 0.118363
0.000000 0.952275 0.084868
0.080959 0.952017 0.080302
0.432410 0.951163 0.064516
0.695335 0.949533 0.024170
0.942549 0.949845 0.000000
0.000000 0.000000 0.484368
0.229248 0.000000 0.483726
0.473475 0.000000 0.481623
0.716978 0.000000 0.477604
0.953412 0.000000 0.471508
0.000000 0.240883 0.481815
0.224367 0.239347 0.481075
0.472032 0.234408 0.478873
0.716628 0.224745 0.474750
0.953589 0.209357 0.468546
0.000000 0.491263 0.473590
0.209070 0.497206 0.479288
0.491518 0.515486 0.496799
0.730538 0.500288 0.482337
0.965222 0.491739 0.473686
0.000000 0.740243 0.457894
0.162989 0.739718 0.457064
0.457190 0.747350 0.460467
0.722722 0.753571 0.461564
0.958551 0.742750 0.453570
0.000000 0.951982 0.437095
0.076242 0.951724 0.436249
0.431673 0.950869 0.433788
0.700931 0.957260 0.433063
0.952040 0.959386 0.428277
0.000000 0.000000 0.730442
0.225956 0.000000 0.730034
0.472149 0.000000 0.728754
0.716244 0.000000 0.726344
0.952947 0.000000 0.722737
0.000000 0.237686 0.728791
0.221060 0.236120 0.728294
0.470752 0.231095 0.726931
0.715933 0.221264 0.724449
0.953154 0.205578 0.720778
0.000000 0.489875 0.723736
0.202251 0.489097 0.723194
0.464188 0.486897 0.721791
0.713503 0.483420 0.720119
0.951307 0.476745 0.715565
0.000000 0.739400 0.714458
0.159067 0.741648 0.716603
0.461538 0.755473 0.729894
0.743301 0.774890 0.748507
0.980604 0.762984 0.737504
0.000000 0.951420 0.702685
0.066223 0.951162 0.702176
0.434362 0.958962 0.707308
0.711779 0.972318 0.716040
0.969128 0.976594 0.717326
0.000000 0.000000 0.968108
0.220926 0.000000 0.967863
0.470133 0.000000 0.967038
0.715107 0.000000 0.965456
0.952205 0.000000 0.963068
0.000000 0.232839 0.967181
0.215954 0.231227 0.966935
0.468770 0.226069 0.966107
0.714827 0.215969 0.964520
0.952435 0.199812 0.962126
0.000000 0.487818 0.964098
0.196620 0.487033 0.963851
0.462181 0.484821 0.962857
0.711551 0.480734 0.961076
0.950579 0.474616 0.958495
0.000000 0.738166 0.957767
0.150926 0.737646 0.957350
0.447993 0.736300 0.956351
0.716379 0.746880 0.971233
0.965234 0.745759 0.971842
0.000000 0.950577 0.949658
0.048334 0.950318 0.949286
0.433423 0.960961 0.959826
0.715808 0.978561 0.977343
0.991757 0.999397 0.998126
