colorkit/colorkit/luts/fuji_style.cube
TITLE "fuji_style"
LUT_3D_SIZE 33
DOMAIN_MIN 0.0 0.0 0.0
DOMAIN_MAX 1.0 1.0 1.0
0.000000 0.003567 0.001085
0.026139 0.003206 0.000895
0.054927 0.002908 0.000614
0.084414 0.002532 0.000241
0.114101 0.002030 0.000000
0.143962 0.001385 0.000000
0.173981 0.000585 0.000000
0.204143 0.000000 0.000000
0.234434 0.000000 0.000000
0.264839 0.000000 0.000000
0.295345 0.000000 0.000000
0.325937 0.000000 0.000000
0.356603 0.000000 0.000000
0.387327 0.000000 0.000000
0.418096 0.000000 0.000000
0.448896 0.000000 0.000000
0.479714 0.000000 0.000000
0.510534 0.000000 0.000000
0.541344 0.000000 0.000000
0.572130 0.000000 0.000000
0.602877 0.000000 0.000000
0.633571 0.000000 0.000000
0.664200 0.000000 0.000000
0.694748 0.000000 0.000000
0.725202 0.000000 0.000000
0.755548 0.000000 0.000000
0.785773 0.000000 0.000000
0.815861 0.000000 0.000000
0.845800 0.000000 0.000000
0.875575 0.000000 0.000000
0.905172 0.000000 0.000000
0.934578 0.000000 0.000000
0.963778 0.000000 0.000000
0.000000 0.031215 0.000000
0.024986 0.031982 0.000000
0.053784 0.031157 0.000000
0.084679 0.031952 0.000000
0.115858 0.032613 0.000001
0.146220 0.032358 0.000000
0.176086 0.031437 0.000000
0.206149 0.030437 0.000000
0.236372 0.029316 0.000000
0.266729 0.028045 0.000000
0.297199 0.026607 0.000000
0.327763 0.024985 0.000000
0.358407 0.023168 0.000000
0.389114 0.021146 0.000000
0.419869 0.018910 0.000000
0.450658 0.016453 0.000000
0.481466 0.013768 0.000000
0.512278 0.010849 0.000000
0.543082 0.007692 0.000000
0.573862 0.004293 0.000000
0.604604 0.000648 0.000000
0.635295 0.000000 0.000000
0.665920 0.000000 0.000000
0.696465 0.000000 0.000000
0.726917 0.000000 0.000000
0.757261 0.000000 0.000000
0.787484 0.000000 0.000000
0.817571 0.000000 0.000000
0.847508 0.000000 0.000000
0.877282 0.000000 0.000000
0.906879 0.000000 0.000000
0.936284 0.000000 0.000000
0.965484 0.000000 0.000000
0.000000 0.060401 0.000000
0.022829 0.060649 0.000000
0.052542 0.061028 0.000000
0.081985 0.060013 0.000000
0.112121 0.059910 0.000000
0.143750 0.060980 0.000000
0.175212 0.061656 0.000000
0.206631 0.062100 0.000000
0.238069 0.062402 0.000000
0.268931 0.061962 0.000000
0.299325 0.060824 0.000000
0.329831 0.059575 0.000000
0.360428 0.058189 0.000000
0.391098 0.056643 0.000000
0.421822 0.054916 0.000000
0.452586 0.052986 0.000000
0.483373 0.050827 0.000000
0.514167 0.048414 0.000000
0.544956 0.045714 0.000000
0.575722 0.042689 0.000000
0.606453 0.039282 0.000000
0.637134 0.035560 0.000000
0.667751 0.031596 0.000000
0.698289 0.027387 0.000000
0.728734 0.022933 0.000000
0.759072 0.018233 0.000000
0.789289 0.013287 0.000000
0.819372 0.008097 0.000000
0.849305 0.002664 0.000000
0.879075 0.000000 0.000000
0.908669 0.000000 0.000000
0.938071 0.000000 0.000000
0.967268 0.000000 0.000000
0.000000 0.090436 0.000000
0.020637 0.090262 0.000000
0.050001 0.090308 0.000000
0.081014 0.090635 0.000000
0.110722 0.089750 0.000000
0.140306 0.088862 0.000000
0.171870 0.089742 0.000000
0.203619 0.090603 0.000000
0.235307 0.091215 0.000000
0.266982 0.091655 0.000000
0.298670 0.091973 0.000000
0.330383 0.092205 0.000000
0.362124 0.092375 0.000000
0.393257 0.091802 0.000000
0.423937 0.090592 0.000000
0.454663 0.089281 0.000000
0.485418 0.087856 0.000000
0.516186 0.086304 0.000000
0.546951 0.084612 0.000000
0.577698 0.082767 0.000000
0.608411 0.080757 0.000000
0.639077 0.078566 0.000000
0.669680 0.076180 0.000000
0.700206 0.073581 0.000000
0.730641 0.070750 0.000000
0.760970 0.067662 0.000000
0.791178 0.064292 0.000000
0.821253 0.060604 0.000000
0.851180 0.056557 0.000000
0.880944 0.052098 0.000000
0.910532 0.047156 0.000000
0.939929 0.041634 0.000000
0.969122 0.035497 0.000000
0.000000 0.120656 0.000000
0.017997 0.120519 0.000000
0.047522 0.120358 0.000000
0.078686 0.120214 0.000000
0.109749 0.120499 0.000000
0.139701 0.119707 0.000000
0.169616 0.118947 0.000000
0.200206 0.118718 0.000000
0.232172 0.119698 0.000000
0.264072 0.120443 0.000000
0.295944 0.121008 0.000000
0.327808 0.121436 0.000000
0.359673 0.121760 0.000000
0.391543 0.122004 0.000000
0.423417 0.122188 0.000000
0.455288 0.122326 0.000000
0.487151 0.122429 0.000000
0.518334 0.121747 0.000000
0.549068 0.120488 0.000000
0.579789 0.119142 0.000000
0.610479 0.117701 0.000000
0.641124 0.116158 0.000000
0.671709 0.114504 0.000000
0.702219 0.112732 0.000000
0.732639 0.110834 0.000000
0.762955 0.108804 0.000000
0.793152 0.106632 0.000000
0.823216 0.104311 0.000000
0.853133 0.101830 0.000000
0.882888 0.099181 0.000000
0.912468 0.096351 0.000000
0.941858 0.093329 0.000000
0.971044 0.090098 0.000000
0.000000 0.151045 0.000000
0.014613 0.150933 0.000000
0.044467 0.150801 0.000000
0.076558 0.150616 0.000000
0.107596 0.150369 0.000000
0.138715 0.150581 0.000000
0.168884 0.149857 0.000000
0.199068 0.149188 0.000000
0.229466 0.148629 0.000000
0.260864 0.148946 0.000000
0.292936 0.149791 0.000000
0.324970 0.150461 0.000000
0.356979 0.150991 0.000000
0.388972 0.151407 0.000000
0.420950 0.151732 0.000000
0.452912 0.151986 0.000000
0.484853 0.152182 0.000000
0.516765 0.152331 0.000000
0.548640 0.152443 0.000000
0.580468 0.152526 0.000000
0.612238 0.152585 0.000000
0.643274 0.151843 0.000000
0.673836 0.150558 0.000000
0.704325 0.149200 0.000000
0.734727 0.147763 0.000000
0.765026 0.146244 0.000000
0.795209 0.144637 0.000000
0.825259 0.142938 0.000000
0.855164 0.141144 0.000000
0.884908 0.139250 0.000000
0.914478 0.137252 0.000000
0.943858 0.135146 0.000000
0.973035 0.132928 0.000000
0.000000 0.181590 0.000000
0.010426 0.181494 0.000000
0.040492 0.181382 0.000000
0.073936 0.181227 0.000000
0.105680 0.181020 0.000000
0.136737 0.180756 0.000000
0.167881 0.180850 0.000000
0.198243 0.180176 0.000000
0.228651 0.179576 0.000000
0.259199 0.179038 0.000000
0.289759 0.178421 0.000000
0.321892 0.179262 0.000000
0.354057 0.180018 0.000000
0.386185 0.180635 0.000000
0.418281 0.181136 0.000000
0.450346 0.181542 0.000000
0.482377 0.181868 0.000000
0.514368 0.182128 0.000000
0.546314 0.182333 0.000000
0.578204 0.182494 0.000000
0.610030 0.182617 0.000000
0.641781 0.182710 0.000000
0.673445 0.182777 0.000000
0.705011 0.182824 0.000000
0.736467 0.182853 0.000000
0.767184 0.182131 0.000000
0.797348 0.180841 0.000000
0.827382 0.179490 0.000000
0.857272 0.178076 0.000000
0.887002 0.176596 0.000000
0.916559 0.175048 0.000000
0.945928 0.173429 0.000000
0.975094 0.171738 0.000000
0.000000 0.212275 0.000000
0.005380 0.212191 0.000000
0.035474 0.212093 0.000000
0.070669 0.211959 0.000000
0.103323 0.211782 0.000000
0.134926 0.211556 0.000000
0.166037 0.211278 0.000000
0.197223 0.211280 0.000000
0.227754 0.210644 0.000000
0.258354 0.210097 0.000000
0.289032 0.209575 0.000000
0.319710 0.208984 0.000000
0.350928 0.208850 0.000000
0.383200 0.209675 0.000000
0.415422 0.210367 0.000000
0.447598 0.210945 0.000000
0.479728 0.211424 0.000000
0.511808 0.211820 0.000000
0.543832 0.212145 0.000000
0.575793 0.212410 0.000000
0.607682 0.212624 0.000000
0.639489 0.212795 0.000000
0.671205 0.212930 0.000000
0.702818 0.213033 0.000000
0.734316 0.213110 0.000000
0.765688 0.213166 0.000000
0.796920 0.213203 0.000000
0.828001 0.213224 0.000000
0.858916 0.213233 0.000000
0.889169 0.212642 0.000000
0.918711 0.211367 0.000000
0.948066 0.210043 0.000000
0.977220 0.208669 0.000000
0.000000 0.243086 0.000000
0.000000 0.243010 0.000000
0.029546 0.242923 0.000000
0.066648 0.242805 0.000000
0.100471 0.242649 0.000000
0.132750 0.242452 0.000000
0.164305 0.242211 0.000000
0.195486 0.241921 0.000000
0.226721 0.241849 0.000000
0.257400 0.241243 0.000000
0.288161 0.240738 0.000000
0.318953 0.240229 0.000000
0.349732 0.239658 0.000000
0.380504 0.239023 0.000000
0.412384 0.239429 0.000000
0.444680 0.240184 0.000000
0.476916 0.240828 0.000000
0.509090 0.241374 0.000000
0.541199 0.241836 0.000000
0.573237 0.242223 0.000000
0.605196 0.242547 0.000000
0.637066 0.242816 0.000000
0.668839 0.243037 0.000000
0.700504 0.243218 0.000000
0.732050 0.243363 0.000000
0.763465 0.243477 0.000000
0.794737 0.243565 0.000000
0.825854 0.243631 0.000000
0.856803 0.243677 0.000000
0.887572 0.243707 0.000000
0.918147 0.243723 0.000000
0.948516 0.243727 0.000000
0.978664 0.243721 0.000000
0.000000 0.274006 0.000000
0.000000 0.273937 0.000000
0.022662 0.273859 0.000000
0.061729 0.273752 0.000000
0.097059 0.273614 0.000000
0.130173 0.273439 0.000000
0.162261 0.273225 0.000000
0.193814 0.272970 0.000000
0.225069 0.272671 0.000000
0.256354 0.272537 0.000000
0.287162 0.271955 0.000000
0.318061 0.271485 0.000000
0.348949 0.270986 0.000000
0.379812 0.270431 0.000000
0.410654 0.269819 0.000000
0.441599 0.269270 0.000000
0.473947 0.270079 0.000000
0.506222 0.270781 0.000000
0.538422 0.271387 0.000000
0.570542 0.271908 0.000000
0.602576 0.272354 0.000000
0.634514 0.272735 0.000000
0.666349 0.273057 0.000000
0.698071 0.273330 0.000000
0.729668 0.273557 0.000000
0.761131 0.273746 0.000000
0.792447 0.273901 0.000000
0.823604 0.274026 0.000000
0.854591 0.274125 0.000000
0.885394 0.274202 0.000000
0.916001 0.274258 0.000000
0.946399 0.274298 0.000000
0.976575 0.274323 0.000000
0.000000 0.305022 0.000000
0.000000 0.304958 0.000000
0.014776 0.304886 0.000000
0.055708 0.304789 0.000000
0.093009 0.304664 0.000000
0.127151 0.304507 0.000000
0.159880 0.304316 0.000000
0.191872 0.304088 0.000000
0.223446 0.303821 0.000000
0.254773 0.303514 0.000000
0.286105 0.303329 0.000000
0.317025 0.302767 0.000000
0.348038 0.302325 0.000000
0.379005 0.301834 0.000000
0.409936 0.301293 0.000000
0.440833 0.300700 0.000000
0.471694 0.300053 0.000000
0.503210 0.300044 0.000000
0.535507 0.300795 0.000000
0.567714 0.301454 0.000000
0.599826 0.302029 0.000000
0.631837 0.302530 0.000000
0.663738 0.302964 0.000000
0.695521 0.303338 0.000000
0.727174 0.303660 0.000000
0.758688 0.303934 0.000000
0.790052 0.304168 0.000000
0.821253 0.304364 0.000000
0.852280 0.304528 0.000000
0.883121 0.304663 0.000000
0.913762 0.304773 0.000000
0.944193 0.304861 0.000000
0.974398 0.304929 0.000000
0.000000 0.336118 0.000000
0.000000 0.336058 0.000000
0.005846 0.335991 0.000000
0.048279 0.335902 0.000000
0.088222 0.335788 0.000000
0.123635 0.335645 0.000000
0.157131 0.335472 0.000000
0.189639 0.335266 0.000000
0.221585 0.335026 0.000000
0.253191 0.334749 0.000000
0.284584 0.334434 0.000000
0.315956 0.334205 0.000000
0.346992 0.333682 0.000000
0.378078 0.333243 0.000000
0.409109 0.332759 0.000000
0.440091 0.332229 0.000000
0.471025 0.331652 0.000000
0.501911 0.331027 0.000000
0.532742 0.330353 0.000000
0.564756 0.330863 0.000000
0.596952 0.331568 0.000000
0.629039 0.332192 0.000000
0.661010 0.332743 0.000000
0.692857 0.333226 0.000000
0.724570 0.333649 0.000000
0.756138 0.334018 0.000000
0.787552 0.334338 0.000000
0.818800 0.334615 0.000000
0.849871 0.334854 0.000000
0.880752 0.335057 0.000000
0.911431 0.335230 0.000000
0.941896 0.335375 0.000000
0.972134 0.335495 0.000000
0.000000 0.367280 0.000000
0.000000 0.367223 0.000000
0.000000 0.367160 0.000000
0.038928 0.367078 0.000000
0.082568 0.366972 0.000000
0.119569 0.366841 0.000000
0.153981 0.366682 0.000000
0.187092 0.366495 0.000000
0.219467 0.366276 0.000000
0.251395 0.366025 0.000000
0.283036 0.365739 0.000000
0.314487 0.365418 0.000000
0.345893 0.365151 0.000000
0.377025 0.364662 0.000000
0.408168 0.364225 0.000000
0.439245 0.363747 0.000000
0.470262 0.363227 0.000000
0.501219 0.362664 0.000000
0.532113 0.362057 0.000000
0.562939 0.361406 0.000000
0.593956 0.360974 0.000000
0.626124 0.361721 0.000000
0.658169 0.362388 0.000000
0.690083 0.362983 0.000000
0.721858 0.363512 0.000000
0.753485 0.363980 0.000000
0.784952 0.364394 0.000000
0.816249 0.364758 0.000000
0.847366 0.365078 0.000000
0.878290 0.365357 0.000000
0.909009 0.365600 0.000000
0.939511 0.365810 0.000000
0.969784 0.365991 0.000000
0.000000 0.398492 0.000000
0.000000 0.398438 0.000000
0.000000 0.398378 0.000000
0.027867 0.398301 0.000000
0.075868 0.398203 0.000000
0.114879 0.398081 0.000000
0.150391 0.397935 0.000000
0.184208 0.397763 0.000000
0.217077 0.397562 0.000000
0.249371 0.397332 0.000000
0.281294 0.397071 0.000000
0.312969 0.396778 0.000000
0.344468 0.396451 0.000000
0.375897 0.396151 0.000000
0.407106 0.395691 0.000000
0.438291 0.395257 0.000000
0.469399 0.394784 0.000000
0.500436 0.394273 0.000000
0.531399 0.393722 0.000000
0.562286 0.393132 0.000000
0.593091 0.392500 0.000000
0.623807 0.391827 0.000000
0.655217 0.391900 0.000000
0.687202 0.392606 0.000000
0.719043 0.393242 0.000000
0.750730 0.393812 0.000000
0.782253 0.394323 0.000000
0.813602 0.394779 0.000000
0.844767 0.395184 0.000000
0.875736 0.395545 0.000000
0.906497 0.395863 0.000000
0.937039 0.396145 0.000000
0.967350 0.396393 0.000000
0.000000 0.429740 0.000000
0.000000 0.429688 0.000000
0.000000 0.429631 0.000000
0.015658 0.429558 0.000000
0.067862 0.429466 0.000000
0.109478 0.429353 0.000000
0.146318 0.429217 0.000000
0.180960 0.429058 0.000000
0.214397 0.428873 0.000000
0.247106 0.428661 0.000000
0.279348 0.428420 0.000000
0.311273 0.428151 0.000000
0.342974 0.427850 0.000000
0.374511 0.427518 0.000000
0.405954 0.427189 0.000000
0.437222 0.426756 0.000000
0.468433 0.426324 0.000000
0.499557 0.425856 0.000000
0.530597 0.425353 0.000000
0.561551 0.424814 0.000000
0.592416 0.424237 0.000000
0.623184 0.423624 0.000000
0.653850 0.422972 0.000000
0.684403 0.422282 0.000000
0.716126 0.422837 0.000000
0.747876 0.423509 0.000000
0.779458 0.424117 0.000000
0.810862 0.424666 0.000000
0.842078 0.425162 0.000000
0.873095 0.425608 0.000000
0.903901 0.426007 0.000000
0.934485 0.426365 0.000000
0.964834 0.426684 0.000000
0.000000 0.461008 0.000000
0.000000 0.460958 0.000000
0.000000 0.460904 0.000000
0.002272 0.460835 0.000000
0.058143 0.460748 0.000000
0.103249 0.460642 0.000000
0.141708 0.460515 0.000000
0.177318 0.460367 0.000000
0.211406 0.460195 0.000000
0.244587 0.459998 0.000000
0.277185 0.459776 0.000000
0.309391 0.459526 0.000000
0.341318 0.459249 0.000000
0.373040 0.458943 0.000000
0.404603 0.458607 0.000000
0.436047 0.458252 0.000000
0.467358 0.457842 0.000000
0.498579 0.457412 0.000000
0.529703 0.456950 0.000000
0.560731 0.456454 0.000000
0.591661 0.455925 0.000000
0.622488 0.455361 0.000000
0.653205 0.454764 0.000000
0.683805 0.454131 0.000000
0.714279 0.453464 0.000000
0.744926 0.453070 0.000000
0.776571 0.453775 0.000000
0.808032 0.454419 0.000000
0.839302 0.455004 0.000000
0.870368 0.455536 0.000000
0.901220 0.456018 0.000000
0.931846 0.456454 0.000000
0.962236 0.456847 0.000000
0.000000 0.492282 0.000000
0.000000 0.492234 0.000000
0.000000 0.492182 0.000000
0.000000 0.492116 0.000000
0.046005 0.492034 0.000000
0.096038 0.491934 0.000000
0.136498 0.491815 0.000000
0.173247 0.491676 0.000000
0.208084 0.491515 0.000000
0.241798 0.491332 0.000000
0.274797 0.491125 0.000000
0.307314 0.490893 0.000000
0.339491 0.490636 0.000000
0.371417 0.490352 0.000000
0.403150 0.490040 0.000000
0.434727 0.489701 0.000000
0.466171 0.489333 0.000000
0.497498 0.488935 0.000000
0.528714 0.488508 0.000000
0.559823 0.488050 0.000000
0.590824 0.487561 0.000000
0.621714 0.487041 0.000000
0.652488 0.486490 0.000000
0.683139 0.485907 0.000000
0.713658 0.485292 0.000000
0.744038 0.484645 0.000000
0.774267 0.483967 0.000000
0.805112 0.484029 0.000000
0.836437 0.484703 0.000000
0.867555 0.485321 0.000000
0.898455 0.485886 0.000000
0.929126 0.486401 0.000000
0.959557 0.486871 0.000000
0.000000 0.523547 0.000000
0.000000 0.523500 0.000000
0.000000 0.523450 0.000000
0.000000 0.523387 0.000000
0.030601 0.523309 0.000000
0.087626 0.523215 0.000000
0.130609 0.523103 0.000000
0.168708 0.522972 0.000000
0.204406 0.522821 0.000000
0.238723 0.522650 0.000000
0.272170 0.522456 0.000000
0.305033 0.522240 0.000000
0.337486 0.522000 0.000000
0.369637 0.521735 0.000000
0.401556 0.521445 0.000000
0.433290 0.521129 0.000000
0.464869 0.520787 0.000000
0.496311 0.520417 0.000000
0.527627 0.520020 0.000000
0.558824 0.519595 0.000000
0.589902 0.519142 0.000000
0.620861 0.518660 0.000000
0.651696 0.518149 0.000000
0.682401 0.517609 0.000000
0.712970 0.517039 0.000000
0.743394 0.516441 0.000000
0.773664 0.515813 0.000000
0.803770 0.515156 0.000000
0.833702 0.514471 0.000000
0.864657 0.514959 0.000000
0.895607 0.515606 0.000000
0.926325 0.516201 0.000000
0.956800 0.516748 0.000000
0.000000 0.554788 0.000000
0.000000 0.554743 0.000000
0.000000 0.554694 0.000000
0.000000 0.554634 0.000000
0.013626 0.554559 0.000000
0.077687 0.554470 0.000000
0.123940 0.554364 0.000000
0.163653 0.554240 0.000000
0.200345 0.554099 0.000000
0.235345 0.553937 0.000000
0.269293 0.553756 0.000000
0.302540 0.553553 0.000000
0.335297 0.553328 0.000000
0.367694 0.553080 0.000000
0.399818 0.552809 0.000000
0.431723 0.552514 0.000000
0.463447 0.552195 0.000000
0.495014 0.551850 0.000000
0.526439 0.551480 0.000000
0.557731 0.551084 0.000000
0.588893 0.550661 0.000000
0.619926 0.550212 0.000000
0.650827 0.549737 0.000000
0.681591 0.549234 0.000000
0.712213 0.548705 0.000000
0.742685 0.548148 0.000000
0.772999 0.547565 0.000000
0.803144 0.546955 0.000000
0.833112 0.546318 0.000000
0.862891 0.545655 0.000000
0.892679 0.545173 0.000000
0.923446 0.545847 0.000000
0.953966 0.546470 0.000000
0.000000 0.585990 0.000000
0.000000 0.585946 0.000000
0.000000 0.585899 0.000000
0.000000 0.585841 0.000000
0.000000 0.585770 0.000000
0.065689 0.585684 0.000000
0.116357 0.585584 0.000000
0.158027 0.585467 0.000000
0.195872 0.585333 0.000000
0.231645 0.585181 0.000000
0.266152 0.585010 0.000000
0.299824 0.584819 0.000000
0.332915 0.584608 0.000000
0.365583 0.584376 0.000000
0.397928 0.584121 0.000000
0.430019 0.583845 0.000000
0.461901 0.583546 0.000000
0.493604 0.583223 0.000000
0.525146 0.582876 0.000000
0.556541 0.582506 0.000000
0.587793 0.582111 0.000000
0.618906 0.581691 0.000000
0.649878 0.581247 0.000000
0.680706 0.580777 0.000000
0.711385 0.580283 0.000000
0.741909 0.579764 0.000000
0.772269 0.579219 0.000000
0.802457 0.578650 0.000000
0.832463 0.578057 0.000000
0.862278 0.577439 0.000000
0.891890 0.576796 0.000000
0.921289 0.576131 0.000000
0.951056 0.576032 0.000000
0.000000 0.617139 0.000000
0.000000 0.617096 0.000000
0.000000 0.617050 0.000000
0.000000 0.616994 0.000000
0.000000 0.616926 0.000000
0.050654 0.616844 0.000000
0.107680 0.616749 0.000000
0.151760 0.616638 0.000000
0.190951 0.616511 0.000000
0.227603 0.616367 0.000000
0.262735 0.616206 0.000000
0.296877 0.616026 0.000000
0.330335 0.615827 0.000000
0.363296 0.615608 0.000000
0.395884 0.615369 0.000000
0.428177 0.615109 0.000000
0.460229 0.614827 0.000000
0.492078 0.614524 0.000000
0.523747 0.614199 0.000000
0.555252 0.613851 0.000000
0.586601 0.613480 0.000000
0.617800 0.613087 0.000000
0.648848 0.612670 0.000000
0.679744 0.612231 0.000000
0.710485 0.611768 0.000000
0.741064 0.611281 0.000000
0.771474 0.610772 0.000000
0.801707 0.610239 0.000000
0.831755 0.609684 0.000000
0.861607 0.609105 0.000000
0.891253 0.608505 0.000000
0.920683 0.607882 0.000000
0.949886 0.607238 0.000000
0.000000 0.648218 0.000000
0.000000 0.648177 0.000000
0.000000 0.648132 0.000000
0.000000 0.648078 0.000000
0.000000 0.648013 0.000000
0.030913 0.647935 0.000000
0.097648 0.647844 0.000000
0.144766 0.647738 0.000000
0.185541 0.647618 0.000000
0.223194 0.647482 0.000000
0.259025 0.647329 0.000000
0.293687 0.647158 0.000000
0.327547 0.646970 0.000000
0.360830 0.646764 0.000000
0.393679 0.646538 0.000000
0.426190 0.646293 0.000000
0.458427 0.646028 0.000000
0.490434 0.645742 0.000000
0.522238 0.645436 0.000000
0.553862 0.645108 0.000000
0.585315 0.644760 0.000000
0.616605 0.644390 0.000000
0.647735 0.643998 0.000000
0.678704 0.643585 0.000000
0.709510 0.643150 0.000000
0.740148 0.642693 0.000000
0.770611 0.642214 0.000000
0.800893 0.641714 0.000000
0.830984 0.641193 0.000000
0.860877 0.640650 0.000000
0.890560 0.640087 0.000000
0.920024 0.639503 0.000000
0.949257 0.638899 0.000000
0.000000 0.679215 0.000000
0.000000 0.679174 0.000000
0.000000 0.679131 0.000000
0.000000 0.679079 0.000000
0.000000 0.679016 0.000000
0.008919 0.678941 0.000000
0.085862 0.678854 0.000000
0.136934 0.678754 0.000000
0.179594 0.678639 0.000000
0.218393 0.678510 0.000000
0.255008 0.678364 0.000000
0.290244 0.678203 0.000000
0.324544 0.678025 0.000000
0.358177 0.677829 0.000000
0.391310 0.677616 0.000000
0.424057 0.677384 0.000000
0.456492 0.677134 0.000000
0.488667 0.676864 0.000000
0.520618 0.676575 0.000000
0.552368 0.676266 0.000000
0.583932 0.675937 0.000000
0.615320 0.675588 0.000000
0.646537 0.675219 0.000000
0.677584 0.674830 0.000000
0.708460 0.674420 0.000000
0.739160 0.673989 0.000000
0.769680 0.673539 0.000000
0.800013 0.673068 0.000000
0.830151 0.672578 0.000000
0.860086 0.672067 0.000000
0.889808 0.671537 0.000000
0.919308 0.670988 0.000000
0.948574 0.670420 0.000000
0.000000 0.710112 0.000000
0.000000 0.710073 0.000000
0.000000 0.710031 0.000000
0.000000 0.709980 0.000000
0.000000 0.709920 0.000000
0.000000 0.709849 0.000000
0.071648 0.709765 0.000000
0.128114 0.709669 0.000000
0.173050 0.709560 0.000000
0.213169 0.709437 0.000000
0.250664 0.709299 0.000000
0.286535 0.709146 0.000000
0.321319 0.708977 0.000000
0.355331 0.708791 0.000000
0.388772 0.708589 0.000000
0.421773 0.708370 0.000000
0.454421 0.708132 0.000000
0.486777 0.707877 0.000000
0.518884 0.707604 0.000000
0.550769 0.707312 0.000000
0.582451 0.707001 0.000000
0.613944 0.706671 0.000000
0.645254 0.706322 0.000000
0.676383 0.705954 0.000000
0.707332 0.705567 0.000000
0.738099 0.705161 0.000000
0.768679 0.704736 0.000000
0.799067 0.704291 0.000000
0.829254 0.703828 0.000000
0.859234 0.703347 0.000000
0.888998 0.702847 0.000000
0.918535 0.702329 0.000000
0.947836 0.701794 0.000000
0.000000 0.740897 0.000000
0.000000 0.740858 0.000000
0.000000 0.740818 0.000000
0.000000 0.740769 0.000000
0.000000 0.740711 0.000000
0.000000 0.740642 0.000000
0.053696 0.740562 0.000000
0.118102 0.740471 0.000000
0.165837 0.740367 0.000000
0.207488 0.740249 0.000000
0.245975 0.740118 0.000000
0.282550 0.739972 0.000000
0.317862 0.739812 0.000000
0.352287 0.739635 0.000000
0.386061 0.739443 0.000000
0.419334 0.739235 0.000000
0.452211 0.739010 0.000000
0.484761 0.738768 0.000000
0.517034 0.738509 0.000000
0.549063 0.738232 0.000000
0.580871 0.737938 0.000000
0.612475 0.737625 0.000000
0.643883 0.737295 0.000000
0.675099 0.736947 0.000000
0.706127 0.736580 0.000000
0.736964 0.736196 0.000000
0.767608 0.735794 0.000000
0.798053 0.735374 0.000000
0.828293 0.734936 0.000000
0.858321 0.734481 0.000000
0.888128 0.734008 0.000000
0.917705 0.733519 0.000000
0.947043 0.733013 0.000000
0.000000 0.771553 0.000000
0.000000 0.771515 0.000000
0.000000 0.771476 0.000000
0.000000 0.771429 0.000000
0.000000 0.771373 0.000000
0.000000 0.771307 0.000000
0.029475 0.771231 0.000000
0.106598 0.771143 0.000000
0.157863 0.771044 0.000000
0.201308 0.770932 0.000000
0.240917 0.770807 0.000000
0.278273 0.770668 0.000000
0.314165 0.770515 0.000000
0.349039 0.770347 0.000000
0.383171 0.770165 0.000000
0.416738 0.769967 0.000000
0.449859 0.769753 0.000000
0.482616 0.769523 0.000000
0.515066 0.769277 0.000000
0.547248 0.769014 0.000000
0.579190 0.768735 0.000000
0.610911 0.768439 0.000000
0.642423 0.768125 0.000000
0.673733 0.767795 0.000000
0.704843 0.767448 0.000000
0.735755 0.767083 0.000000
0.766465 0.766702 0.000000
0.796971 0.766304 0.000000
0.827266 0.765889 0.000000
0.857344 0.765458 0.000000
0.887197 0.765011 0.000000
0.916816 0.764547 0.000000
0.946193 0.764068 0.000000
0.000000 0.802065 0.000000
0.000000 0.802029 0.000000
0.000000 0.801991 0.000000
0.000000 0.801946 0.000000
0.000000 0.801892 0.000000
0.000000 0.801829 0.000000
0.002411 0.801756 0.000000
0.093132 0.801672 0.000000
0.149010 0.801577 0.000000
0.194580 0.801470 0.000000
0.235467 0.801351 0.000000
0.273691 0.801218 0.000000
0.310218 0.801072 0.000000
0.345580 0.800913 0.000000
0.380099 0.800739 0.000000
0.413980 0.800551 0.000000
0.447363 0.800347 0.000000
0.480340 0.800129 0.000000
0.512979 0.799894 0.000000
0.545323 0.799645 0.000000
0.577407 0.799379 0.000000
0.609253 0.799098 0.000000
0.640874 0.798800 0.000000
0.672282 0.798486 0.000000
0.703479 0.798156 0.000000
0.734469 0.797810 0.000000
0.765251 0.797448 0.000000
