colorkit/colorkit/luts/golden_hour.cube
TITLE "golden_hour"
LUT_3D_SIZE 5
DOMAIN_MIN 0.0 0.0 0.0
DOMAIN_MAX 1.0 1.0 1.0
0.027264 0.016360 0.003556
0.291693 0.008279 0.000000
0.547517 0.000000 0.000000
0.799739 0.000000 0.000000
0.977798 0.000000 0.000000
0.000000 0.255292 0.000000
0.284469 0.253318 0.000000
0.547464 0.253659 0.000000
0.808785 0.255701 0.000000
0.989081 0.256035 0.000000
0.000000 0.491419 0.000000
0.271305 0.490794 0.000000
0.537664 0.488238 0.000000
0.792040 0.483362 0.000000
0.970682 0.486650 0.000000
0.000000 0.725383 0.000000
0.242377 0.725163 0.000000
0.527662 0.723738 0.000000
0.787170 0.720853 0.000000
0.956830 0.718015 0.000000
0.000000 0.953519 0.000000
0.186875 0.953054 0.000000
0.509762 0.951771 0.000000
0.777258 0.949498 0.000000
0.947380 0.947380 0.000000
0.022992 0.012708 0.224585
0.287538 0.000887 0.221709
0.541424 0.000000 0.213545
0.791512 0.000000 0.198212
0.967773 0.000000 0.181371
0.000000 0.255394 0.216223
0.297050 0.264719 0.222782
0.551954 0.258233 0.215928
0.804280 0.249502 0.203817
0.979006 0.241334 0.192269
0.000000 0.491330 0.188971
0.271298 0.490811 0.184409
0.542997 0.492889 0.175254
0.800805 0.492426 0.174309
0.980439 0.497391 0.180475
0.000000 0.725385 0.128294
0.242295 0.725160 0.121196
0.527808 0.723747 0.103469
0.789673 0.722979 0.065472
0.956743 0.717987 0.009025
0.000000 0.953435 0.000000
0.186653 0.952970 0.000000
0.509778 0.951686 0.000000
0.777538 0.949721 0.000000
0.949453 0.949453 0.000000
0.015285 0.004967 0.446542
0.286386 0.000000 0.445078
0.541020 0.000000 0.441272
0.791384 0.000000 0.434603
0.967499 0.000000 0.427845
0.000000 0.253530 0.441766
0.283325 0.251569 0.439749
0.541359 0.245252 0.435437
0.793042 0.233174 0.428275
0.966321 0.220421 0.421297
0.000000 0.490799 0.429253
0.276783 0.501115 0.436555
0.560572 0.509019 0.441639
0.811127 0.503026 0.436585
0.980530 0.497433 0.429169
0.000000 0.725118 0.407381
0.241170 0.724887 0.404862
0.535580 0.734223 0.406261
0.800760 0.732966 0.399210
0.962988 0.724011 0.392904
0.000000 0.953164 0.374480
0.185022 0.952699 0.372066
0.509356 0.951415 0.367088
0.783936 0.957458 0.362272
0.956959 0.956959 0.355261
0.000861 0.000000 0.668385
0.284128 0.000000 0.667327
0.540122 0.000000 0.664817
0.790957 0.000000 0.660581
0.966986 0.000000 0.656393
0.000000 0.250861 0.664748
0.281199 0.248892 0.663188
0.540587 0.242504 0.660253
0.792712 0.230268 0.655653
0.965810 0.217354 0.651316
0.000000 0.489694 0.656166
0.268090 0.489080 0.654354
0.548024 0.496733 0.664554
0.791878 0.481542 0.646479
0.962326 0.476603 0.642155
0.000000 0.724502 0.642311
0.241061 0.730596 0.646141
0.544746 0.746936 0.658873
0.820305 0.751166 0.661286
0.991533 0.752747 0.665505
0.000000 0.952651 0.623263
0.181520 0.952186 0.621723
0.513487 0.960037 0.625053
0.794898 0.970871 0.629421
0.970564 0.970564 0.626701
0.000000 0.000000 0.890188
0.280549 0.000000 0.889290
0.538643 0.000000 0.887355
0.790181 0.000000 0.884208
0.966195 0.000000 0.881157
0.000000 0.246639 0.887003
0.277734 0.244646 0.885638
0.539228 0.238138 0.883321
0.792026 0.225638 0.879865
0.965021 0.212441 0.876687
0.000000 0.487917 0.880169
0.264497 0.487303 0.878597
0.535515 0.484725 0.876148
0.791191 0.479726 0.872625
0.961536 0.474770 0.869500
0.000000 0.723479 0.869779
0.234533 0.723235 0.868256
0.534211 0.733734 0.880107
0.814607 0.745072 0.893698
0.978608 0.733839 0.880891
0.000000 0.951855 0.856274
0.176537 0.954980 0.858324
0.516674 0.967908 0.869209
0.806691 0.985486 0.884207
0.990143 0.990143 0.887774
