colorkit/colorkit/luts/golden_hour.cube
TITLE "golden_hour"
LUT_3D_SIZE 9
DOMAIN_MIN 0.0 0.0 0.0
DOMAIN_MAX 1.0 1.0 1.0
0.027264 0.016360 0.003556
0.161429 0.013980 0.001531
0.291693 0.008279 0.000000
0.420190 0.000000 0.000000
0.547517 0.000000 0.000000
0.673973 0.000000 0.000000
0.799739 0.000000 0.000000
0.924934 0.000000 0.000000
0.977798 0.000000 0.000000
0.016184 0.135830 0.000000
0.156437 0.134877 0.000000
0.290568 0.135361 0.000000
0.424083 0.136992 0.000000
0.555542 0.137566 0.000000
0.681961 0.131718 0.000000
0.807670 0.123770 0.000000
0.932852 0.113209 0.000000
0.984209 0.107916 0.000000
0.000000 0.255292 0.000000
0.149604 0.254756 0.000000
0.284469 0.253318 0.000000
0.414288 0.251013 0.000000
0.547464 0.253659 0.000000
0.678739 0.255033 0.000000
0.808785 0.255701 0.000000
0.937943 0.255979 0.000000
0.989081 0.256035 0.000000
0.000000 0.373695 0.000000
0.137330 0.373443 0.000000
0.279433 0.372614 0.000000
0.411538 0.371106 0.000000
0.540227 0.368830 0.000000
0.670079 0.368931 0.000000
0.801145 0.370997 0.000000
0.931033 0.372282 0.000000
0.980506 0.372640 0.000000
0.000000 0.491419 0.000000
0.116484 0.491314 0.000000
0.271305 0.490794 0.000000
0.407166 0.489788 0.000000
0.537664 0.488238 0.000000
0.665598 0.486091 0.000000
0.792040 0.483362 0.000000
0.922840 0.485900 0.000000
0.970682 0.486650 0.000000
0.000000 0.608623 0.000000
0.080136 0.608601 0.000000
0.259313 0.608256 0.000000
0.400594 0.607537 0.000000
0.533566 0.606402 0.000000
0.662897 0.604812 0.000000
0.790160 0.602732 0.000000
0.916058 0.600130 0.000000
0.960403 0.599098 0.000000
0.000000 0.725383 0.000000
0.000000 0.725405 0.000000
0.242377 0.725163 0.000000
0.391409 0.724619 0.000000
0.527662 0.723738 0.000000
0.658794 0.722492 0.000000
0.787170 0.720853 0.000000
0.913804 0.718798 0.000000
0.956830 0.718015 0.000000
0.000000 0.841737 0.000000
0.000000 0.841775 0.000000
0.218770 0.841591 0.000000
0.379106 0.841151 0.000000
0.519661 0.840430 0.000000
0.653069 0.839403 0.000000
0.782826 0.838050 0.000000
0.910361 0.836351 0.000000
0.952422 0.835721 0.000000
0.000000 0.953519 0.000000
0.000000 0.953375 0.000000
0.186875 0.953054 0.000000
0.363822 0.952527 0.000000
0.509762 0.951771 0.000000
0.645889 0.950767 0.000000
0.777258 0.949498 0.000000
0.905828 0.947949 0.000000
0.947380 0.947380 0.000000
0.024754 0.014483 0.113414
0.158383 0.010933 0.111725
0.287775 0.002652 0.107767
0.415232 0.000000 0.100882
0.541495 0.000000 0.090175
0.668179 0.000000 0.076959
0.794101 0.000000 0.057267
0.919411 0.000000 0.025618
0.972193 0.000000 0.009398
0.015862 0.137347 0.110064
0.163634 0.141393 0.112913
0.293676 0.138584 0.110454
0.421976 0.134278 0.104722
0.549404 0.128811 0.097180
0.676000 0.121368 0.086628
0.801904 0.111294 0.071626
0.927226 0.097654 0.049111
0.978478 0.090699 0.035917
0.000000 0.255196 0.096269
0.150629 0.256392 0.094746
0.288142 0.256550 0.090415
0.419009 0.255903 0.090606
0.553015 0.259604 0.095047
0.684478 0.261508 0.096658
0.811273 0.258626 0.087662
0.936260 0.253465 0.070849
0.985671 0.251202 0.062274
0.000000 0.373661 0.071811
0.137235 0.373411 0.068593
0.280453 0.373840 0.062089
0.413516 0.372804 0.049954
0.540645 0.369126 0.030318
0.674514 0.373568 0.041924
0.806084 0.376313 0.046898
0.936202 0.378066 0.048357
0.985541 0.378579 0.048251
0.000000 0.491418 0.019067
0.116397 0.491315 0.014072
0.271361 0.490795 0.004260
0.408109 0.490785 0.000000
0.538664 0.489045 0.000000
0.665730 0.486092 0.000000
0.795643 0.487080 0.000000
0.927044 0.490335 0.000000
0.974859 0.491280 0.000000
0.000000 0.608641 0.000000
0.080031 0.608619 0.000000
0.259377 0.608274 0.000000
0.400696 0.607555 0.000000
0.534415 0.607239 0.000000
0.663239 0.605024 0.000000
0.790290 0.602745 0.000000
0.916217 0.600172 0.000000
0.962660 0.601559 0.000000
0.000000 0.725410 0.000000
0.000000 0.725431 0.000000
0.242439 0.725189 0.000000
0.391503 0.724642 0.000000
0.527768 0.723759 0.000000
0.659529 0.723190 0.000000
0.787280 0.720869 0.000000
0.913909 0.718811 0.000000
0.956805 0.718028 0.000000
0.000000 0.841767 0.000000
0.000000 0.841803 0.000000
0.218817 0.841616 0.000000
0.379181 0.841174 0.000000
0.519744 0.840449 0.000000
0.653152 0.839418 0.000000
0.783426 0.838616 0.000000
0.910432 0.836357 0.000000
0.952398 0.835727 0.000000
0.000000 0.953495 0.000000
0.000000 0.953352 0.000000
0.186903 0.953031 0.000000
0.363871 0.952503 0.000000
0.509813 0.951747 0.000000
0.645936 0.950743 0.000000
0.777297 0.949474 0.000000
0.906300 0.948390 0.000000
0.947753 0.947753 0.000000
0.022992 0.012708 0.224585
0.157853 0.009164 0.223699
0.287538 0.000887 0.221709
0.415115 0.000000 0.218394
0.541424 0.000000 0.213545
0.666823 0.000000 0.206919
0.791512 0.000000 0.198212
0.915619 0.000000 0.187004
0.967773 0.000000 0.181371
0.013807 0.134944 0.221951
0.155467 0.133696 0.220884
0.286841 0.130614 0.218706
0.415138 0.125224 0.215188
0.541871 0.116946 0.210108
0.668702 0.107153 0.204590
0.795121 0.094424 0.197891
0.920783 0.076242 0.189242
0.971990 0.066502 0.185059
0.000000 0.255394 0.216223
0.154026 0.261963 0.221164
0.297050 0.264719 0.222782
0.425486 0.262606 0.221601
0.551954 0.258233 0.215928
0.678377 0.254180 0.210348
0.804280 0.249502 0.203817
0.929646 0.243857 0.195895
0.979006 0.241334 0.192269
0.000000 0.373504 0.205209
0.136977 0.373737 0.204074
0.284821 0.379442 0.205357
0.419420 0.378060 0.201282
0.546512 0.375154 0.200854
0.681165 0.380532 0.206771
0.812786 0.383503 0.209563
0.940315 0.382577 0.206421
0.987556 0.380939 0.202964
0.000000 0.491330 0.188971
0.115867 0.491228 0.187325
0.271298 0.490811 0.184409
0.411771 0.495026 0.182077
0.542997 0.492889 0.175254
0.666252 0.486478 0.165452
0.800805 0.492426 0.174309
0.932704 0.496303 0.179325
0.980439 0.497391 0.180475
0.000000 0.608592 0.164928
0.079306 0.608570 0.162969
0.259252 0.608225 0.159484
0.400685 0.607505 0.154088
0.537399 0.610496 0.147606
0.666574 0.607975 0.136602
0.790371 0.602690 0.121139
0.920375 0.604453 0.119579
0.966928 0.606139 0.123175
0.000000 0.725385 0.128294
0.000000 0.725405 0.125749
0.242295 0.725160 0.121196
0.391480 0.724612 0.114034
0.527808 0.723747 0.103469
0.661978 0.725769 0.088743
0.789673 0.722979 0.065472
0.913973 0.718768 0.026044
0.956743 0.717987 0.009025
0.000000 0.841753 0.061435
0.000000 0.841787 0.056644
0.218632 0.841597 0.047480
0.379134 0.841151 0.031491
0.519743 0.840423 0.008864
0.653240 0.839476 0.000000
0.785453 0.840713 0.000000
0.911969 0.837711 0.000000
0.952396 0.835740 0.000000
0.000000 0.953435 0.000000
0.000000 0.953291 0.000000
0.186653 0.952970 0.000000
0.363790 0.952443 0.000000
0.509778 0.951686 0.000000
0.645917 0.950682 0.000000
0.777538 0.949721 0.000000
0.908002 0.950122 0.000000
0.949453 0.949453 0.000000
0.019900 0.009600 0.335589
0.156897 0.006063 0.334981
0.287086 0.000000 0.333670
0.414862 0.000000 0.331532
0.541278 0.000000 0.328463
0.666745 0.000000 0.324361
0.791482 0.000000 0.319115
0.915624 0.000000 0.312601
0.967663 0.000000 0.309431
0.010769 0.133802 0.333715
0.154549 0.132548 0.332942
0.286434 0.129444 0.331472
0.414927 0.124009 0.329177
0.541764 0.115651 0.325949
0.667522 0.103460 0.321684
0.792478 0.085760 0.316268
0.916794 0.058553 0.309571
0.967315 0.042205 0.306410
0.000000 0.254362 0.329530
0.148666 0.254688 0.329675
0.293259 0.260842 0.337496
0.415444 0.250862 0.325791
0.541552 0.246103 0.321183
0.668402 0.241654 0.317391
0.795653 0.237586 0.314035
0.921820 0.231777 0.309326
0.971242 0.229055 0.307100
0.000000 0.373188 0.322642
0.137976 0.377834 0.325912
0.290088 0.386325 0.332336
0.429275 0.387179 0.332270
0.558445 0.387052 0.333552
0.681721 0.380921 0.326251
0.807098 0.376996 0.320939
0.932271 0.373053 0.315454
0.979571 0.371488 0.313190
0.000000 0.491130 0.312649
0.114756 0.491029 0.311511
0.274510 0.496583 0.313708
0.417634 0.501916 0.315166
0.550166 0.499308 0.310681
0.675249 0.495120 0.309558
0.808479 0.500407 0.315890
0.940323 0.504336 0.319712
0.987804 0.505389 0.320578
0.000000 0.608458 0.299035
0.077763 0.608436 0.297803
0.258881 0.608091 0.295818
0.404189 0.612693 0.295717
0.542385 0.616029 0.294078
0.672208 0.613021 0.288169
0.792136 0.604079 0.278977
0.926211 0.610487 0.288042
0.972830 0.612428 0.290364
0.000000 0.725291 0.281058
0.000000 0.725309 0.279740
0.241886 0.725063 0.277620
0.391306 0.724513 0.274526
0.531089 0.728135 0.272195
0.666139 0.730230 0.268056
0.794212 0.727055 0.260442
0.913984 0.718656 0.249295
0.956635 0.717875 0.245895
0.000000 0.841683 0.257555
0.000000 0.841714 0.256150
0.218148 0.841521 0.253864
0.378928 0.841072 0.250507
0.519634 0.840340 0.245908
0.656170 0.843167 0.241159
0.788944 0.844382 0.234295
0.915701 0.841084 0.224164
0.956047 0.838968 0.219992
0.000000 0.953327 0.227753
0.000000 0.953183 0.226300
0.186045 0.952862 0.223839
0.363542 0.952334 0.220144
0.509631 0.951578 0.215008
0.645815 0.950574 0.208192
0.780143 0.952854 0.200304
0.910982 0.953199 0.189568
0.952473 0.952473 0.185251
0.015285 0.004967 0.446542
0.155445 0.001436 0.446063
0.286386 0.000000 0.445078
0.414452 0.000000 0.443503
0.541020 0.000000 0.441272
0.666582 0.000000 0.438325
0.791384 0.000000 0.434603
0.915574 0.000000 0.430042
0.967499 0.000000 0.427845
0.006210 0.132068 0.445019
0.153126 0.130804 0.444382
0.285779 0.127662 0.443249
0.414559 0.122154 0.441534
0.541545 0.113669 0.439167
0.667394 0.101261 0.436088
0.792411 0.083159 0.432235
0.916771 0.055008 0.427545
0.967151 0.037822 0.425355
0.000000 0.253530 0.441766
0.146662 0.253006 0.441002
0.283325 0.251569 0.439749
0.413591 0.249039 0.437917
0.541359 0.245252 0.435437
0.667693 0.240031 0.432243
0.793042 0.233174 0.428275
0.917641 0.224421 0.423466
0.966321 0.220421 0.421297
0.000000 0.372690 0.436572
0.134352 0.372670 0.435963
0.285937 0.381315 0.445474
0.428956 0.386382 0.451079
0.549138 0.374234 0.437186
0.667208 0.364703 0.426558
0.795351 0.363304 0.424945
0.922302 0.360794 0.422334
0.969890 0.359532 0.421004
0.000000 0.490799 0.429253
0.113928 0.493835 0.431093
0.276783 0.501115 0.436555
0.424351 0.509875 0.443139
0.560572 0.509019 0.441639
0.690206 0.510221 0.444644
0.811127 0.503026 0.436585
0.935395 0.498798 0.431083
0.980530 0.497433 0.429169
0.000000 0.608225 0.419606
0.075235 0.608203 0.418619
0.260400 0.612454 0.420416
0.408498 0.619199 0.423641
0.549302 0.623764 0.424908
0.680167 0.620183 0.419982
0.805295 0.616240 0.419130
0.934837 0.619447 0.424421
0.981298 0.621409 0.426353
0.000000 0.725118 0.407381
0.000000 0.725135 0.406371
0.241170 0.724887 0.404862
0.393425 0.728644 0.405283
0.535580 0.734223 0.406261
0.672109 0.736678 0.404833
0.800760 0.732966 0.399210
0.920791 0.724148 0.390830
0.962988 0.724011 0.392904
0.000000 0.841547 0.392250
0.000000 0.841575 0.391245
0.217317 0.841380 0.389728
0.378541 0.840927 0.387590
0.521819 0.843959 0.386600
0.660343 0.848481 0.385681
0.794031 0.849764 0.382447
0.921156 0.846037 0.376008
0.961413 0.843693 0.373128
0.000000 0.953164 0.374480
0.000000 0.953020 0.373541
0.185022 0.952699 0.372066
0.363102 0.952171 0.369944
0.509356 0.951415 0.367088
0.648097 0.953969 0.364896
0.783936 0.957458 0.362272
0.915377 0.957765 0.357428
0.956959 0.956959 0.355261
0.008986 0.000000 0.557470
0.153429 0.000000 0.557061
0.285409 0.000000 0.556259
0.413867 0.000000 0.555004
0.540639 0.000000 0.553249
0.666325 0.000000 0.550951
0.791212 0.000000 0.548074
0.915463 0.000000 0.544577
0.967275 0.000000 0.542902
0.000000 0.129656 0.556134
0.151130 0.128374 0.555571
0.284845 0.125178 0.554629
0.414015 0.119564 0.553242
0.541202 0.110895 0.551362
0.667171 0.098169 0.548947
0.792269 0.079469 0.545957
0.916686 0.049861 0.542353
0.966928 0.031707 0.540680
0.000000 0.252374 0.553404
0.144618 0.251851 0.552722
0.282416 0.250411 0.551670
0.413076 0.247870 0.550180
0.541041 0.244063 0.548203
0.667493 0.238815 0.545696
0.792918 0.231918 0.542618
0.917571 0.223110 0.538930
0.966098 0.219098 0.537275
0.000000 0.371988 0.549160
0.132053 0.371748 0.548388
0.277462 0.370926 0.547254
0.412055 0.370722 0.547534
0.542277 0.368868 0.546099
0.667019 0.363991 0.541062
0.792924 0.359906 0.537918
0.917907 0.354787 0.534165
0.964685 0.352597 0.532542
0.000000 0.490325 0.543310
0.110382 0.490227 0.542478
0.273822 0.497239 0.549531
0.421748 0.506925 0.559603
0.562854 0.510541 0.563144
0.681331 0.496842 0.547898
0.793624 0.483872 0.533381
0.921940 0.483648 0.532699
0.967827 0.483157 0.531992
0.000000 0.607882 0.535766
0.071898 0.609781 0.536612
0.261178 0.615829 0.541074
0.411699 0.624264 0.547543
0.557133 0.632562 0.553751
0.690947 0.630336 0.551202
0.819951 0.631492 0.554456
0.939914 0.624641 0.547263
0.982686 0.622865 0.545025
0.000000 0.724857 0.526426
0.000000 0.724873 0.525562
0.241362 0.727930 0.526802
0.396350 0.734443 0.530397
0.540750 0.741312 0.533998
0.679784 0.745004 0.534962
0.809242 0.740641 0.529695
0.934303 0.736910 0.529200
0.976724 0.737040 0.530561
0.000000 0.841339 0.515170
0.000000 0.841365 0.514338
0.216099 0.841166 0.513153
0.379487 0.843884 0.513548
0.525480 0.850021 0.515784
0.665621 0.855250 0.517082
0.800740 0.856890 0.515727
0.928364 0.852596 0.510250
0.968490 0.849910 0.507522
0.000000 0.952940 0.502351
0.000000 0.952796 0.501605
0.183531 0.952475 0.500501
0.362448 0.951948 0.498965
0.510641 0.954226 0.498606
0.651914 0.959660 0.499558
0.788908 0.963527 0.499187
0.921254 0.963889 0.496410
0.962986 0.962986 0.494833
0.000861 0.000000 0.668385
0.150777 0.000000 0.668016
0.284128 0.000000 0.667327
0.413090 0.000000 0.666273
0.540122 0.000000 0.664817
0.665966 0.000000 0.662929
0.790957 0.000000 0.660581
0.915284 0.000000 0.657746
0.966986 0.000000 0.656393
0.000000 0.126471 0.667153
0.148490 0.125164 0.666635
0.283606 0.121892 0.665811
0.413280 0.116129 0.664630
0.540722 0.107203 0.663057
0.666845 0.094030 0.661060
0.792045 0.074470 0.658610
0.916534 0.042618 0.655681
0.966639 0.023771 0.654326
0.000000 0.250861 0.664748
0.141898 0.250340 0.664115
0.281199 0.248892 0.663188
0.412368 0.246336 0.661913
0.540587 0.242504 0.660253
0.667188 0.237218 0.658176
0.792712 0.230268 0.655653
0.917433 0.221387 0.652656
0.965810 0.217354 0.651316
0.000000 0.371065 0.661099
0.129104 0.370827 0.660383
0.276243 0.370005 0.659383
0.409928 0.368492 0.658042
0.539390 0.366202 0.656323
0.666724 0.363050 0.654194
0.792724 0.358953 0.651623
0.917772 0.353817 0.648585
0.964397 0.351628 0.647274
0.000000 0.489694 0.656166
0.106892 0.489597 0.655399
0.268090 0.489080 0.654354
0.408473 0.491469 0.657406
0.548024 0.496733 0.664554
0.676438 0.492752 0.660034
0.791878 0.481542 0.646479
0.917365 0.478028 0.643425
0.962326 0.476603 0.642155
0.000000 0.607421 0.649915
0.066402 0.607399 0.649126
0.258545 0.612590 0.653950
0.409362 0.621451 0.662729
0.556301 0.631671 0.673014
0.695011 0.633447 0.674423
0.812215 0.618749 0.658478
0.925198 0.606746 0.645118
0.964860 0.603633 0.641571
0.000000 0.724502 0.642311
0.000000 0.725524 0.642433
0.241061 0.730596 0.646141
0.397848 0.738030 0.651892
0.544746 0.746936 0.658873
0.688439 0.754421 0.664495
0.820305 0.751166 0.661286
0.948741 0.752280 0.664823
0.991533 0.752747 0.665505
0.000000 0.841052 0.633314
0.000000 0.841075 0.632580
0.215129 0.843123 0.633310
0.381307 0.849038 0.636873
0.529071 0.856135 0.641181
0.671482 0.862819 0.644991
0.808967 0.865649 0.645668
0.937204 0.860649 0.640192
0.977069 0.857432 0.637117
0.000000 0.952651 0.623263
0.000000 0.952507 0.622623
0.181520 0.952186 0.621723
0.362562 0.954077 0.622129
0.513487 0.960037 0.625053
0.656249 0.966198 0.627868
0.794898 0.970871 0.629421
0.928608 0.971567 0.628038
0.970564 0.970564 0.626701
0.000000 0.000000 0.779291
0.147411 0.000000 0.778944
0.282516 0.000000 0.778329
0.412108 0.000000 0.777410
0.539460 0.000000 0.776156
0.665496 0.000000 0.774545
0.790616 0.000000 0.772555
0.915034 0.000000 0.770167
0.966628 0.000000 0.769031
0.000000 0.122404 0.778119
0.145125 0.121061 0.777627
0.282037 0.117685 0.776881
0.412339 0.111721 0.775840
0.540097 0.102444 0.774475
0.666408 0.088649 0.772761
0.791732 0.067849 0.770677
0.916309 0.032742 0.768203
0.966281 0.013888 0.767062
0.000000 0.248961 0.775926
0.138416 0.248439 0.775325
0.279647 0.246982 0.774481
0.411452 0.244406 0.773352
0.539985 0.240541 0.771907
0.666772 0.235206 0.770121
0.792416 0.228187 0.767973
0.917221 0.219212 0.765442
0.965453 0.215149 0.764313
0.000000 0.369903 0.772678
0.125306 0.369667 0.772000
0.274682 0.368843 0.771089
0.409023 0.367326 0.769901
0.538800 0.365028 0.768406
0.666317 0.361865 0.766578
0.792434 0.357750 0.764395
0.917562 0.352593 0.761835
0.964040 0.350403 0.760733
0.000000 0.488895 0.768365
0.102349 0.488799 0.767641
0.266485 0.488281 0.766694
0.404681 0.487271 0.765478
0.536265 0.485709 0.763961
0.664814 0.483544 0.762119
0.791583 0.480726 0.759929
0.917147 0.477203 0.757369
0.961968 0.475779 0.756305
0.000000 0.606832 0.762984
0.059479 0.606810 0.762245
0.254250 0.606461 0.761292
0.400298 0.609016 0.764128
0.543416 0.617283 0.774233
0.682186 0.621459 0.779546
0.808828 0.615748 0.772935
0.922924 0.603035 0.757963
0.960402 0.598014 0.752005
0.000000 0.724044 0.756534
0.000000 0.724057 0.755814
0.238302 0.727739 0.758979
0.395644 0.735437 0.766375
0.543055 0.745065 0.775831
0.689486 0.755581 0.786268
0.825450 0.755238 0.785506
0.942799 0.741525 0.770812
0.981533 0.737749 0.766643
0.000000 0.840682 0.749018
0.000000 0.840975 0.748594
0.213764 0.845280 0.751766
0.381745 0.851755 0.756856
0.531092 0.859975 0.763471
0.676169 0.868978 0.770739
0.818207 0.875504 0.775742
0.948496 0.871515 0.772220
0.990883 0.871871 0.773844
0.000000 0.952290 0.740745
0.000000 0.952147 0.740174
0.179299 0.953390 0.740640
0.363437 0.958599 0.744150
0.515873 0.965264 0.748704
0.660400 0.972584 0.753656
0.801402 0.978884 0.757674
0.937351 0.980709 0.758036
0.979648 0.979648 0.756821
0.000000 0.000000 0.890188
0.143241 0.000000 0.889854
0.280549 0.000000 0.889290
0.410906 0.000000 0.888465
0.538643 0.000000 0.887355
0.664909 0.000000 0.885942
0.790181 0.000000 0.884208
0.914706 0.000000 0.882139
0.966195 0.000000 0.881157
0.000000 0.117316 0.889049
0.140942 0.115925 0.888574
0.280110 0.112408 0.887882
0.411177 0.106172 0.886940
0.539316 0.096415 0.885723
0.665853 0.081750 0.884212
0.791325 0.059122 0.882390
0.916006 0.020730 0.880241
0.965850 0.001942 0.879252
0.000000 0.246639 0.887003
0.134069 0.246115 0.886423
0.277734 0.244646 0.885638
0.410315 0.242045 0.884612
0.539228 0.238138 0.883321
0.666237 0.232743 0.881744
0.792026 0.225638 0.879865
0.916931 0.216544 0.877666
0.965021 0.212441 0.876687
0.000000 0.368485 0.884040
0.120533 0.368251 0.883386
0.272751 0.367425 0.882540
0.407895 0.365902 0.881461
0.538053 0.363594 0.880126
0.665791 0.360416 0.878514
0.792049 0.356281 0.876607
0.917274 0.351097 0.874389
0.963609 0.348904 0.873435
0.000000 0.487917 0.880169
0.096558 0.487822 0.879475
0.264497 0.487303 0.878597
0.403544 0.486290 0.877497
0.535515 0.484725 0.876148
0.664283 0.482553 0.874530
0.791191 0.479726 0.872625
0.916849 0.476192 0.870417
0.961536 0.474770 0.869500
0.000000 0.606107 0.875408
0.050165 0.606085 0.874706
0.252149 0.605735 0.873829
0.396880 0.605004 0.872737
0.531346 0.603852 0.871405
0.664217 0.604733 0.873322
0.795423 0.604911 0.874674
0.916554 0.598213 0.866786
0.958741 0.596476 0.864902
0.000000 0.723479 0.869779
0.000000 0.723491 0.869101
0.234533 0.723235 0.868256
0.388863 0.725111 0.870097
0.534211 0.733734 0.880107
0.676895 0.741918 0.889783
0.814607 0.745072 0.893698
0.939557 0.737895 0.885581
0.978608 0.733839 0.880891
0.000000 0.840222 0.863306
0.000000 0.840239 0.862685
0.210485 0.842657 0.864596
0.379483 0.849307 0.870902
0.529219 0.857916 0.879273
0.675110 0.867949 0.889165
0.821103 0.878618 0.899774
0.954214 0.876091 0.896966
0.993010 0.871508 0.892152
0.000000 0.951855 0.856274
0.000000 0.951711 0.855753
0.176537 0.954980 0.858324
0.363005 0.960556 0.862972
0.516674 0.967908 0.869209
0.662784 0.976550 0.876589
0.806691 0.985486 0.884207
0.947153 0.990973 0.888684
0.990143 0.990143 0.887774
