colorkit/colorkit/luts/golden_hour.cube
TITLE "golden_hour"
LUT_3D_SIZE 33
DOMAIN_MIN 0.0 0.0 0.0
DOMAIN_MAX 1.0 1.0 1.0
0.027264 0.016360 0.003556
0.061856 0.016412 0.003869
0.095255 0.015667 0.003206
0.128453 0.014895 0.002453
0.161429 0.013980 0.001531
0.194216 0.012879 0.000411
0.226841 0.011571 0.000000
0.259327 0.010042 0.000000
0.291693 0.008279 0.000000
0.323951 0.006274 0.000000
0.356115 0.004016 0.000000
0.388192 0.001499 0.000000
0.420190 0.000000 0.000000
0.452117 0.000000 0.000000
0.483977 0.000000 0.000000
0.515776 0.000000 0.000000
0.547517 0.000000 0.000000
0.579204 0.000000 0.000000
0.610840 0.000000 0.000000
0.642429 0.000000 0.000000
0.673973 0.000000 0.000000
0.705474 0.000000 0.000000
0.736934 0.000000 0.000000
0.768355 0.000000 0.000000
0.799739 0.000000 0.000000
0.831087 0.000000 0.000000
0.862402 0.000000 0.000000
0.893684 0.000000 0.000000
0.924934 0.000000 0.000000
0.956154 0.000000 0.000000
0.977798 0.000000 0.000000
0.977798 0.000000 0.000000
0.977798 0.000000 0.000000
0.024904 0.046186 0.001711
0.059543 0.045551 0.001147
0.093572 0.045262 0.001423
0.128697 0.046354 0.001915
0.163083 0.046946 0.002146
0.196444 0.046602 0.001668
0.228954 0.045337 0.000380
0.261365 0.043925 0.000000
0.293679 0.042318 0.000000
0.325902 0.040477 0.000000
0.358040 0.038358 0.000000
0.390099 0.036003 0.000000
0.422084 0.033402 0.000000
0.454002 0.030543 0.000000
0.485856 0.027418 0.000000
0.517650 0.024018 0.000000
0.549389 0.020337 0.000000
0.581075 0.016367 0.000000
0.612712 0.012103 0.000000
0.644302 0.007538 0.000000
0.675847 0.002667 0.000000
0.707350 0.000000 0.000000
0.738813 0.000000 0.000000
0.770237 0.000000 0.000000
0.801624 0.000000 0.000000
0.832976 0.000000 0.000000
0.864295 0.000000 0.000000
0.895580 0.000000 0.000000
0.926835 0.000000 0.000000
0.958059 0.000000 0.000000
0.979353 0.000000 0.000000
0.979353 0.000000 0.000000
0.979353 0.000000 0.000000
0.022204 0.075443 0.000000
0.057639 0.076190 0.000000
0.092007 0.075428 0.000000
0.124942 0.074275 0.000000
0.159976 0.075538 0.000000
0.194365 0.076345 0.000000
0.228341 0.076877 0.000000
0.262026 0.077240 0.000000
0.295494 0.077499 0.000000
0.328070 0.076772 0.000000
0.360156 0.075424 0.000000
0.392175 0.073940 0.000000
0.424130 0.072298 0.000000
0.456024 0.070476 0.000000
0.487859 0.068453 0.000000
0.519639 0.066206 0.000000
0.551367 0.063710 0.000000
0.583044 0.060935 0.000000
0.614674 0.057846 0.000000
0.646259 0.054402 0.000000
0.677801 0.050547 0.000000
0.709301 0.046213 0.000000
0.740762 0.041304 0.000000
0.772185 0.035775 0.000000
0.803572 0.029907 0.000000
0.834924 0.023717 0.000000
0.866243 0.017198 0.000000
0.897530 0.010346 0.000000
0.928785 0.003157 0.000000
0.960010 0.000000 0.000000
0.980937 0.000000 0.000000
0.980937 0.000000 0.000000
0.980937 0.000000 0.000000
0.019564 0.105690 0.000000
0.054641 0.105486 0.000000
0.090541 0.106028 0.000000
0.124283 0.105190 0.000000
0.157035 0.104055 0.000000
0.191200 0.104603 0.000000
0.225540 0.105535 0.000000
0.259498 0.106202 0.000000
0.293175 0.106684 0.000000
0.326635 0.107036 0.000000
0.359922 0.107297 0.000000
0.393067 0.107494 0.000000
0.426090 0.107644 0.000000
0.458185 0.106652 0.000000
0.489990 0.105247 0.000000
0.521746 0.103724 0.000000
0.553454 0.102069 0.000000
0.585115 0.100268 0.000000
0.616731 0.098309 0.000000
0.648305 0.096177 0.000000
0.679838 0.093856 0.000000
0.711331 0.091331 0.000000
0.742785 0.088580 0.000000
0.774204 0.085583 0.000000
0.805587 0.082313 0.000000
0.836936 0.078739 0.000000
0.868252 0.074823 0.000000
0.899536 0.070518 0.000000
0.930790 0.065763 0.000000
0.962014 0.060479 0.000000
0.982554 0.056684 0.000000
0.982554 0.056684 0.000000
0.982554 0.056684 0.000000
0.016184 0.135830 0.000000
0.051901 0.135659 0.000000
0.087970 0.135415 0.000000
0.123115 0.135769 0.000000
0.156437 0.134877 0.000000
0.189274 0.134000 0.000000
0.222374 0.133590 0.000000
0.256644 0.134595 0.000000
0.290568 0.135361 0.000000
0.324226 0.135944 0.000000
0.357673 0.136389 0.000000
0.390950 0.136730 0.000000
0.424083 0.136992 0.000000
0.457094 0.137193 0.000000
0.490000 0.137349 0.000000
0.522813 0.137470 0.000000
0.555542 0.137566 0.000000
0.587289 0.136366 0.000000
0.618886 0.134924 0.000000
0.650443 0.133377 0.000000
0.681961 0.131718 0.000000
0.713442 0.129937 0.000000
0.744886 0.128026 0.000000
0.776295 0.125973 0.000000
0.807670 0.123770 0.000000
0.839013 0.121405 0.000000
0.870323 0.118866 0.000000
0.901603 0.116139 0.000000
0.932852 0.113209 0.000000
0.964073 0.110058 0.000000
0.984209 0.107916 0.000000
0.984209 0.107916 0.000000
0.984209 0.107916 0.000000
0.011980 0.165836 0.000000
0.048364 0.165704 0.000000
0.085711 0.165502 0.000000
0.120873 0.165248 0.000000
0.155480 0.165434 0.000000
0.188491 0.164501 0.000000
0.221387 0.163825 0.000000
0.254110 0.163163 0.000000
0.287693 0.163561 0.000000
0.321573 0.164398 0.000000
0.355205 0.165063 0.000000
0.388635 0.165590 0.000000
0.421897 0.166008 0.000000
0.455019 0.166339 0.000000
0.488019 0.166601 0.000000
0.520914 0.166808 0.000000
0.553715 0.166970 0.000000
0.586432 0.167098 0.000000
0.619074 0.167198 0.000000
0.651647 0.167275 0.000000
0.684157 0.167336 0.000000
0.715635 0.165971 0.000000
0.747064 0.164503 0.000000
0.778460 0.162942 0.000000
0.809824 0.161283 0.000000
0.841156 0.159520 0.000000
0.872458 0.157645 0.000000
0.903730 0.155652 0.000000
0.934972 0.153533 0.000000
0.966186 0.151281 0.000000
0.985903 0.149802 0.000000
0.985903 0.149802 0.000000
0.985903 0.149802 0.000000
0.006904 0.195736 0.000000
0.043847 0.195634 0.000000
0.082915 0.195472 0.000000
0.118889 0.195242 0.000000
0.153499 0.194989 0.000000
0.187690 0.195032 0.000000
0.220496 0.194101 0.000000
0.253398 0.193556 0.000000
0.286030 0.192922 0.000000
0.318690 0.192451 0.000000
0.352525 0.193341 0.000000
0.386126 0.194072 0.000000
0.419534 0.194669 0.000000
0.452780 0.195157 0.000000
0.485889 0.195555 0.000000
0.518877 0.195877 0.000000
0.551761 0.196139 0.000000
0.584551 0.196350 0.000000
0.617258 0.196519 0.000000
0.649889 0.196654 0.000000
0.682450 0.196761 0.000000
0.714949 0.196844 0.000000
0.747388 0.196908 0.000000
0.779774 0.196957 0.000000
0.812047 0.196907 0.000000
0.843366 0.195496 0.000000
0.874656 0.194008 0.000000
0.905917 0.192438 0.000000
0.937149 0.190781 0.000000
0.968355 0.189033 0.000000
0.987639 0.187920 0.000000
0.987639 0.187920 0.000000
0.987639 0.187920 0.000000
0.000910 0.225551 0.000000
0.038105 0.225471 0.000000
0.079497 0.225340 0.000000
0.116517 0.225151 0.000000
0.151695 0.224900 0.000000
0.185925 0.224649 0.000000
0.219780 0.224572 0.000000
0.252526 0.223742 0.000000
0.285321 0.223209 0.000000
0.317872 0.222598 0.000000
0.350228 0.221905 0.000000
0.383428 0.222209 0.000000
0.416996 0.222992 0.000000
0.450380 0.223648 0.000000
0.483608 0.224198 0.000000
0.516702 0.224656 0.000000
0.549677 0.225037 0.000000
0.582549 0.225353 0.000000
0.615329 0.225614 0.000000
0.648025 0.225829 0.000000
0.680645 0.226004 0.000000
0.713196 0.226146 0.000000
0.745684 0.226260 0.000000
0.778113 0.226350 0.000000
0.810487 0.226420 0.000000
0.842810 0.226474 0.000000
0.875085 0.226513 0.000000
0.907314 0.226541 0.000000
0.939383 0.226385 0.000000
0.970577 0.224953 0.000000
0.989417 0.224072 0.000000
0.989417 0.224072 0.000000
0.989417 0.224072 0.000000
0.000000 0.255292 0.000000
0.031271 0.255230 0.000000
0.075360 0.255124 0.000000
0.113692 0.254967 0.000000
0.149604 0.254756 0.000000
0.184252 0.254489 0.000000
0.218194 0.254236 0.000000
0.251770 0.254059 0.000000
0.284469 0.253318 0.000000
0.317170 0.252795 0.000000
0.349647 0.252203 0.000000
0.381942 0.251538 0.000000
0.414288 0.251013 0.000000
0.447821 0.251838 0.000000
0.481180 0.252544 0.000000
0.514388 0.253146 0.000000
0.547464 0.253659 0.000000
0.580426 0.254094 0.000000
0.613286 0.254462 0.000000
0.646054 0.254772 0.000000
0.678739 0.255033 0.000000
0.711349 0.255251 0.000000
0.743890 0.255431 0.000000
0.776367 0.255580 0.000000
0.808785 0.255701 0.000000
0.841149 0.255798 0.000000
0.873461 0.255875 0.000000
0.905725 0.255935 0.000000
0.937943 0.255979 0.000000
0.970119 0.256010 0.000000
0.989081 0.256035 0.000000
0.989081 0.256035 0.000000
0.989081 0.256035 0.000000
0.000000 0.284971 0.000000
0.023451 0.284924 0.000000
0.070379 0.284836 0.000000
0.110362 0.284705 0.000000
0.147157 0.284527 0.000000
0.182362 0.284298 0.000000
0.216623 0.284017 0.000000
0.250334 0.283760 0.000000
0.283673 0.283498 0.000000
0.316335 0.282837 0.000000
0.348951 0.282323 0.000000
0.381361 0.281746 0.000000
0.413600 0.281104 0.000000
0.445696 0.280394 0.000000
0.478604 0.280621 0.000000
0.511935 0.281368 0.000000
0.545122 0.282017 0.000000
0.578181 0.282578 0.000000
0.611127 0.283062 0.000000
0.643974 0.283478 0.000000
0.676729 0.283835 0.000000
0.709403 0.284140 0.000000
0.742002 0.284400 0.000000
0.774532 0.284620 0.000000
0.806999 0.284805 0.000000
0.839407 0.284960 0.000000
0.871760 0.285087 0.000000
0.904061 0.285192 0.000000
0.936320 0.285282 0.000000
0.968533 0.285355 0.000000
0.987050 0.285405 0.000000
0.987050 0.285405 0.000000
0.987050 0.285405 0.000000
0.000000 0.314594 0.000000
0.014607 0.314559 0.000000
0.064380 0.314488 0.000000
0.106465 0.314378 0.000000
0.144321 0.314225 0.000000
0.180179 0.314028 0.000000
0.214886 0.313785 0.000000
0.248849 0.313493 0.000000
0.282366 0.313227 0.000000
0.315500 0.312893 0.000000
0.348132 0.312305 0.000000
0.380670 0.311799 0.000000
0.413017 0.311235 0.000000
0.445204 0.310612 0.000000
0.477255 0.309927 0.000000
0.509344 0.309348 0.000000
0.542649 0.310130 0.000000
0.575813 0.310819 0.000000
0.608853 0.311422 0.000000
0.641784 0.311950 0.000000
0.674615 0.312411 0.000000
0.707358 0.312812 0.000000
0.740020 0.313159 0.000000
0.772607 0.313460 0.000000
0.805127 0.313720 0.000000
0.837588 0.313948 0.000000
0.869991 0.314143 0.000000
0.902338 0.314309 0.000000
0.934635 0.314450 0.000000
0.966883 0.314568 0.000000
0.984946 0.314641 0.000000
0.984946 0.314641 0.000000
0.984946 0.314641 0.000000
0.000000 0.344167 0.000000
0.004707 0.344142 0.000000
0.057109 0.344085 0.000000
0.101924 0.343992 0.000000
0.141060 0.343861 0.000000
0.177681 0.343691 0.000000
0.212899 0.343478 0.000000
0.247231 0.343222 0.000000
0.280955 0.342921 0.000000
0.314303 0.342643 0.000000
0.347257 0.342247 0.000000
0.379865 0.341727 0.000000
0.412332 0.341228 0.000000
0.444620 0.340675 0.000000
0.476758 0.340068 0.000000
0.508765 0.339404 0.000000
0.540658 0.338683 0.000000
0.573321 0.338837 0.000000
0.606462 0.339560 0.000000
0.639482 0.340201 0.000000
0.672396 0.340768 0.000000
0.705214 0.341271 0.000000
0.737948 0.341718 0.000000
0.770602 0.342111 0.000000
0.803182 0.342456 0.000000
0.835695 0.342759 0.000000
0.868145 0.343023 0.000000
0.900537 0.343253 0.000000
0.932873 0.343452 0.000000
0.965159 0.343623 0.000000
0.982764 0.343722 0.000000
0.982764 0.343722 0.000000
0.982764 0.343722 0.000000
0.000000 0.373695 0.000000
0.000000 0.373679 0.000000
0.048162 0.373633 0.000000
0.096642 0.373555 0.000000
0.137330 0.373443 0.000000
0.174842 0.373294 0.000000
0.210647 0.373108 0.000000
0.245396 0.372882 0.000000
0.279433 0.372614 0.000000
0.312958 0.372305 0.000000
0.346155 0.372011 0.000000
0.378950 0.371562 0.000000
0.411538 0.371106 0.000000
0.443938 0.370612 0.000000
0.476171 0.370069 0.000000
0.508261 0.369475 0.000000
0.540227 0.368830 0.000000
0.572084 0.368131 0.000000
0.603953 0.367496 0.000000
0.637074 0.368252 0.000000
0.670079 0.368931 0.000000
0.702979 0.369539 0.000000
0.735785 0.370082 0.000000
0.768505 0.370566 0.000000
0.801145 0.370997 0.000000
0.833713 0.371380 0.000000
0.866214 0.371719 0.000000
0.898653 0.372018 0.000000
0.931033 0.372282 0.000000
0.963359 0.372513 0.000000
0.980506 0.372640 0.000000
0.980506 0.372640 0.000000
0.980506 0.372640 0.000000
0.000000 0.403182 0.000000
0.000000 0.403173 0.000000
0.036860 0.403137 0.000000
0.090489 0.403071 0.000000
0.133079 0.402974 0.000000
0.171635 0.402845 0.000000
0.208110 0.402680 0.000000
0.243330 0.402480 0.000000
0.277718 0.402242 0.000000
0.311514 0.401965 0.000000
0.344870 0.401648 0.000000
0.377929 0.401336 0.000000
0.410630 0.400889 0.000000
0.443153 0.400445 0.000000
0.475491 0.399956 0.000000
0.507671 0.399421 0.000000
0.539716 0.398839 0.000000
0.571642 0.398209 0.000000
0.603462 0.397529 0.000000
0.635189 0.396800 0.000000
0.667653 0.396904 0.000000
0.700638 0.397613 0.000000
0.733521 0.398253 0.000000
0.766310 0.398830 0.000000
0.799015 0.399349 0.000000
0.831642 0.399815 0.000000
0.864197 0.400232 0.000000
0.896685 0.400605 0.000000
0.929112 0.400938 0.000000
0.961480 0.401234 0.000000
0.978168 0.401391 0.000000
0.978168 0.401391 0.000000
0.978168 0.401391 0.000000
0.000000 0.432629 0.000000
0.000000 0.432627 0.000000
0.023834 0.432599 0.000000
0.083284 0.432545 0.000000
0.128244 0.432461 0.000000
0.168026 0.432348 0.000000
0.205269 0.432202 0.000000
0.241021 0.432023 0.000000
0.275799 0.431810 0.000000
0.309895 0.431561 0.000000
0.343489 0.431276 0.000000
0.376698 0.430953 0.000000
0.409632 0.430621 0.000000
0.442260 0.430188 0.000000
0.474712 0.429745 0.000000
0.506991 0.429260 0.000000
0.539121 0.428732 0.000000
0.571122 0.428160 0.000000
0.603009 0.427544 0.000000
0.634794 0.426881 0.000000
0.666489 0.426171 0.000000
0.698188 0.425508 0.000000
0.731152 0.426243 0.000000
0.764016 0.426912 0.000000
0.796789 0.427520 0.000000
0.829478 0.428070 0.000000
0.862091 0.428568 0.000000
0.894632 0.429018 0.000000
0.927107 0.429423 0.000000
0.959521 0.429788 0.000000
0.975752 0.429974 0.000000
0.975752 0.429974 0.000000
0.975752 0.429974 0.000000
0.000000 0.462041 0.000000
0.000000 0.462044 0.000000
0.009635 0.462024 0.000000
0.074768 0.461979 0.000000
0.122746 0.461907 0.000000
0.163979 0.461807 0.000000
0.202102 0.461678 0.000000
0.238452 0.461518 0.000000
0.273666 0.461326 0.000000
0.308094 0.461101 0.000000
0.341950 0.460843 0.000000
0.375371 0.460550 0.000000
0.408450 0.460221 0.000000
0.441271 0.459873 0.000000
0.473830 0.459451 0.000000
0.506216 0.459009 0.000000
0.538439 0.458528 0.000000
0.570521 0.458006 0.000000
0.602479 0.457442 0.000000
0.634328 0.456837 0.000000
0.666079 0.456189 0.000000
0.697741 0.455497 0.000000
0.729324 0.454760 0.000000
0.761620 0.454825 0.000000
0.794465 0.455520 0.000000
0.827220 0.456155 0.000000
0.859893 0.456734 0.000000
0.892490 0.457262 0.000000
0.925017 0.457742 0.000000
0.957479 0.458177 0.000000
0.973257 0.458392 0.000000
0.973257 0.458392 0.000000
0.973257 0.458392 0.000000
0.000000 0.491419 0.000000
0.000000 0.491427 0.000000
0.000000 0.491413 0.000000
0.064532 0.491376 0.000000
0.116484 0.491314 0.000000
0.159448 0.491226 0.000000
0.198582 0.491111 0.000000
0.235607 0.490967 0.000000
0.271305 0.490794 0.000000
0.306100 0.490590 0.000000
0.340244 0.490355 0.000000
0.373896 0.490088 0.000000
0.407166 0.489788 0.000000
0.440128 0.489453 0.000000
0.472842 0.489086 0.000000
0.505341 0.488679 0.000000
0.537664 0.488238 0.000000
0.569834 0.487759 0.000000
0.601869 0.487242 0.000000
0.633786 0.486686 0.000000
0.665598 0.486091 0.000000
0.697315 0.485455 0.000000
0.728946 0.484778 0.000000
0.760499 0.484060 0.000000
0.792040 0.483362 0.000000
0.824865 0.484080 0.000000
0.857603 0.484740 0.000000
0.890259 0.485345 0.000000
0.922840 0.485900 0.000000
0.955352 0.486407 0.000000
0.970682 0.486650 0.000000
0.970682 0.486650 0.000000
0.970682 0.486650 0.000000
0.000000 0.520765 0.000000
0.000000 0.520777 0.000000
0.000000 0.520769 0.000000
0.051870 0.520739 0.000000
0.109323 0.520685 0.000000
0.154379 0.520608 0.000000
0.194682 0.520505 0.000000
0.232466 0.520375 0.000000
0.268705 0.520218 0.000000
0.303904 0.520033 0.000000
0.338363 0.519818 0.000000
0.372268 0.519574 0.000000
0.405744 0.519298 0.000000
0.438879 0.518991 0.000000
0.471737 0.518652 0.000000
0.504363 0.518279 0.000000
0.536794 0.517873 0.000000
0.569058 0.517432 0.000000
0.601176 0.516955 0.000000
0.633166 0.516443 0.000000
0.665043 0.515893 0.000000
0.696818 0.515307 0.000000
0.728501 0.514682 0.000000
0.760101 0.514018 0.000000
0.791625 0.513315 0.000000
0.823079 0.512572 0.000000
0.855216 0.512594 0.000000
0.887934 0.513276 0.000000
0.920573 0.513905 0.000000
0.953138 0.514484 0.000000
0.968027 0.514753 0.000000
0.968027 0.514753 0.000000
0.968027 0.514753 0.000000
0.000000 0.550080 0.000000
0.000000 0.550096 0.000000
0.000000 0.550092 0.000000
0.035441 0.550068 0.000000
0.101079 0.550022 0.000000
0.148709 0.549954 0.000000
0.190367 0.549861 0.000000
0.229011 0.549744 0.000000
0.265850 0.549602 0.000000
0.301495 0.549432 0.000000
0.336299 0.549236 0.000000
0.370479 0.549011 0.000000
0.404179 0.548758 0.000000
0.437501 0.548475 0.000000
0.470516 0.548161 0.000000
0.503277 0.547817 0.000000
0.535824 0.547441 0.000000
0.568188 0.547033 0.000000
0.600395 0.546592 0.000000
0.632463 0.546117 0.000000
0.664410 0.545608 0.000000
0.696247 0.545064 0.000000
0.727986 0.544485 0.000000
0.759636 0.543870 0.000000
0.791205 0.543217 0.000000
0.822700 0.542528 0.000000
0.854126 0.541801 0.000000
0.885515 0.541063 0.000000
0.918214 0.541765 0.000000
0.950834 0.542416 0.000000
0.965291 0.542709 0.000000
0.965291 0.542709 0.000000
0.965291 0.542709 0.000000
0.000000 0.579366 0.000000
0.000000 0.579384 0.000000
0.000000 0.579385 0.000000
0.016548 0.579366 0.000000
0.091486 0.579327 0.000000
0.142354 0.579266 0.000000
0.185598 0.579183 0.000000
0.225217 0.579077 0.000000
0.262725 0.578947 0.000000
0.298862 0.578792 0.000000
0.334042 0.578611 0.000000
0.368521 0.578404 0.000000
0.402465 0.578169 0.000000
0.435988 0.577908 0.000000
0.469172 0.577617 0.000000
0.502078 0.577298 0.000000
0.534749 0.576949 0.000000
0.567222 0.576570 0.000000
0.599523 0.576160 0.000000
0.631675 0.575718 0.000000
0.663696 0.575245 0.000000
0.695599 0.574739 0.000000
0.727397 0.574200 0.000000
0.759101 0.573627 0.000000
0.790718 0.573019 0.000000
0.822256 0.572377 0.000000
0.853721 0.571700 0.000000
0.885119 0.570986 0.000000
0.916455 0.570236 0.000000
0.948439 0.570210 0.000000
0.962473 0.570524 0.000000
0.962473 0.570524 0.000000
0.962473 0.570524 0.000000
0.000000 0.608623 0.000000
0.000000 0.608644 0.000000
0.000000 0.608648 0.000000
0.000000 0.608634 0.000000
0.080136 0.608601 0.000000
0.135210 0.608547 0.000000
0.180330 0.608472 0.000000
0.221059 0.608375 0.000000
0.259313 0.608256 0.000000
0.295991 0.608113 0.000000
0.331584 0.607946 0.000000
0.366388 0.607755 0.000000
0.400594 0.607537 0.000000
0.434335 0.607294 0.000000
0.467701 0.607024 0.000000
0.500761 0.606727 0.000000
0.533566 0.606402 0.000000
0.566154 0.606048 0.000000
0.598557 0.605666 0.000000
0.630798 0.605254 0.000000
0.662897 0.604812 0.000000
0.694871 0.604339 0.000000
0.726732 0.603835 0.000000
0.758492 0.603300 0.000000
0.790160 0.602732 0.000000
0.821744 0.602132 0.000000
0.853252 0.601499 0.000000
0.884688 0.600832 0.000000
0.916058 0.600130 0.000000
0.947367 0.599394 0.000000
0.960403 0.599098 0.000000
0.960403 0.599098 0.000000
0.960403 0.599098 0.000000
0.000000 0.637852 0.000000
0.000000 0.637876 0.000000
0.000000 0.637883 0.000000
0.000000 0.637873 0.000000
0.066331 0.637844 0.000000
0.127139 0.637797 0.000000
0.174507 0.637729 0.000000
0.216506 0.637641 0.000000
0.255595 0.637531 0.000000
0.292870 0.637399 0.000000
0.328913 0.637245 0.000000
0.364070 0.637066 0.000000
0.398561 0.636864 0.000000
0.432535 0.636638 0.000000
0.466097 0.636386 0.000000
0.499323 0.636108 0.000000
0.532270 0.635804 0.000000
0.564982 0.635473 0.000000
0.597492 0.635115 0.000000
0.629828 0.634729 0.000000
0.662011 0.634315 0.000000
0.694060 0.633872 0.000000
0.725988 0.633400 0.000000
0.757808 0.632898 0.000000
0.789530 0.632365 0.000000
0.821162 0.631802 0.000000
0.852714 0.631208 0.000000
0.884190 0.630582 0.000000
0.915597 0.629924 0.000000
0.946939 0.629233 0.000000
0.959585 0.628966 0.000000
0.959585 0.628966 0.000000
0.959585 0.628966 0.000000
0.000000 0.667055 0.000000
0.000000 0.667080 0.000000
0.000000 0.667090 0.000000
0.000000 0.667083 0.000000
0.048697 0.667059 0.000000
0.117951 0.667017 0.000000
0.168061 0.666955 0.000000
0.211524 0.666874 0.000000
0.251550 0.666773 0.000000
0.289484 0.666651 0.000000
0.326020 0.666507 0.000000
0.361559 0.666341 0.000000
0.396357 0.666152 0.000000
0.430583 0.665940 0.000000
0.464354 0.665704 0.000000
0.497758 0.665444 0.000000
0.530857 0.665159 0.000000
0.563700 0.664848 0.000000
0.596325 0.664512 0.000000
0.628762 0.664149 0.000000
0.661035 0.663760 0.000000
0.693162 0.663343 0.000000
0.725161 0.662899 0.000000
0.757044 0.662427 0.000000
0.788823 0.661926 0.000000
0.820507 0.661396 0.000000
0.852105 0.660837 0.000000
0.883624 0.660248 0.000000
0.915069 0.659628 0.000000
0.946446 0.658978 0.000000
0.958718 0.658735 0.000000
0.958718 0.658735 0.000000
0.958718 0.658735 0.000000
0.000000 0.696232 0.000000
0.000000 0.696258 0.000000
0.000000 0.696270 0.000000
0.000000 0.696266 0.000000
0.025373 0.696246 0.000000
0.107377 0.696208 0.000000
0.160906 0.696152 0.000000
0.206072 0.696077 0.000000
0.247153 0.695984 0.000000
0.285817 0.695870 0.000000
0.322891 0.695736 0.000000
0.358847 0.695580 0.000000
0.393976 0.695403 0.000000
0.428472 0.695204 0.000000
0.462468 0.694983 0.000000
0.496061 0.694738 0.000000
0.529323 0.694469 0.000000
0.562306 0.694177 0.000000
0.595053 0.693860 0.000000
0.627596 0.693518 0.000000
0.659963 0.693151 0.000000
0.692175 0.692758 0.000000
0.724248 0.692339 0.000000
0.756198 0.691893 0.000000
0.788038 0.691420 0.000000
0.819776 0.690920 0.000000
0.851423 0.690392 0.000000
0.882987 0.689835 0.000000
0.914472 0.689250 0.000000
0.945886 0.688636 0.000000
0.957799 0.688416 0.000000
0.957799 0.688416 0.000000
0.957799 0.688416 0.000000
0.000000 0.725383 0.000000
0.000000 0.725410 0.000000
0.000000 0.725424 0.000000
0.000000 0.725422 0.000000
0.000000 0.725405 0.000000
0.095003 0.725371 0.000000
0.152934 0.725320 0.000000
0.200101 0.725251 0.000000
0.242377 0.725163 0.000000
0.281851 0.725057 0.000000
0.319515 0.724931 0.000000
0.355922 0.724785 0.000000
0.391409 0.724619 0.000000
0.426195 0.724431 0.000000
0.460432 0.724222 0.000000
0.494228 0.723991 0.000000
0.527662 0.723738 0.000000
0.560794 0.723462 0.000000
0.593670 0.723162 0.000000
0.626327 0.722839 0.000000
0.658794 0.722492 0.000000
0.691094 0.722120 0.000000
0.723247 0.721723 0.000000
0.755268 0.721301 0.000000
0.787170 0.720853 0.000000
0.818967 0.720380 0.000000
0.850665 0.719879 0.000000
0.882275 0.719353 0.000000
0.913804 0.718798 0.000000
0.945256 0.718217 0.000000
0.956830 0.718015 0.000000
0.956830 0.718015 0.000000
0.956830 0.718015 0.000000
0.000000 0.754509 0.000000
0.000000 0.754537 0.000000
0.000000 0.754551 0.000000
0.000000 0.754552 0.000000
0.000000 0.754537 0.000000
0.080137 0.754506 0.000000
0.144002 0.754459 0.000000
0.193554 0.754395 0.000000
0.237191 0.754313 0.000000
0.277565 0.754214 0.000000
0.315877 0.754095 0.000000
0.352775 0.753958 0.000000
0.388647 0.753801 0.000000
0.423746 0.753623 0.000000
0.458241 0.753426 0.000000
0.492253 0.753207 0.000000
0.525870 0.752967 0.000000
0.559160 0.752705 0.000000
0.592174 0.752421 0.000000
0.624951 0.752114 0.000000
0.657524 0.751785 0.000000
0.689917 0.751432 0.000000
0.722153 0.751055 0.000000
0.754249 0.750655 0.000000
0.786219 0.750230 0.000000
0.818075 0.749780 0.000000
0.849829 0.749305 0.000000
0.881488 0.748804 0.000000
0.913061 0.748278 0.000000
0.944554 0.747725 0.000000
0.955808 0.747540 0.000000
0.955808 0.747540 0.000000
0.955808 0.747540 0.000000
0.000000 0.783609 0.000000
0.000000 0.783638 0.000000
0.000000 0.783653 0.000000
0.000000 0.783655 0.000000
0.000000 0.783642 0.000000
0.061449 0.783614 0.000000
0.133914 0.783571 0.000000
0.186358 0.783511 0.000000
0.231558 0.783434 0.000000
0.272938 0.783340 0.000000
0.311962 0.783228 0.000000
0.349393 0.783098 0.000000
0.385683 0.782949 0.000000
0.421117 0.782781 0.000000
0.455887 0.782593 0.000000
0.490130 0.782386 0.000000
0.523943 0.782157 0.000000
0.557401 0.781908 0.000000
0.590560 0.781638 0.000000
0.623464 0.781347 0.000000
0.656148 0.781033 0.000000
0.688641 0.780697 0.000000
0.720965 0.780339 0.000000
0.753139 0.779957 0.000000
0.785179 0.779552 0.000000
0.817099 0.779124 0.000000
0.848910 0.778672 0.000000
