colorkit/colorkit/luts/kodak_2383_style.cube
TITLE "kodak_2383_style"
LUT_3D_SIZE 5
DOMAIN_MIN 0.0 0.0 0.0
DOMAIN_MAX 1.0 1.0 1.0
0.012007 0.010057 0.023819
0.270427 0.000000 0.008581
0.524782 0.000000 0.000000
0.771467 0.000000 0.000000
0.985043 0.000000 0.000000
0.000000 0.250710 0.000000
0.262202 0.248046 0.000000
0.524620 0.244803 0.000000
0.777487 0.244979 0.000000
0.994441 0.243130 0.000000
0.000000 0.494863 0.000000
0.232122 0.493574 0.000000
0.510801 0.489189 0.000000
0.763977 0.481059 0.000000
0.980988 0.481144 0.000000
0.000000 0.734822 0.000000
0.158550 0.734126 0.000000
0.488722 0.731552 0.000000
0.752347 0.726758 0.000000
0.964716 0.720727 0.000000
0.000000 0.959358 0.000000
0.000000 0.958680 0.000000
0.452170 0.956689 0.000000
0.732642 0.953166 0.000000
0.948876 0.948876 0.000000
0.006341 0.004501 0.248306
0.268530 0.000000 0.244608
0.522256 0.000000 0.233295
0.768018 0.000000 0.211596
0.980721 0.000000 0.179654
0.000000 0.249825 0.235827
0.276027 0.261250 0.245509
0.525749 0.246388 0.229614
0.773755 0.232563 0.213074
0.987442 0.213840 0.190696
0.000000 0.494534 0.193090
0.231537 0.493247 0.186730
0.517488 0.495305 0.172406
0.769648 0.489409 0.166743
0.987697 0.494446 0.179103
0.000000 0.734661 0.065493
0.157671 0.733962 0.045836
0.488666 0.731381 0.000000
0.756097 0.730148 0.000000
0.964553 0.720548 0.000000
0.000000 0.959196 0.000000
0.000000 0.958517 0.000000
0.451980 0.956526 0.000000
0.732561 0.953002 0.000000
0.951250 0.951250 0.000000
0.000000 0.000000 0.488873
0.265889 0.000000 0.487034
0.521222 0.000000 0.481870
0.767516 0.000000 0.472736
0.980462 0.000000 0.460854
0.000000 0.246883 0.482384
0.258438 0.243583 0.479899
0.519762 0.232850 0.474101
0.768098 0.211964 0.464317
0.980999 0.181310 0.451876
0.000000 0.493319 0.463739
0.233635 0.501437 0.469669
0.536323 0.513115 0.478608
0.774976 0.497067 0.463041
0.984628 0.488333 0.452233
0.000000 0.733972 0.429645
0.153432 0.733270 0.426415
0.495444 0.741849 0.426252
0.768346 0.741711 0.417492
0.972936 0.729547 0.409170
0.000000 0.958661 0.377679
0.000000 0.957982 0.374337
0.450802 0.955990 0.366763
0.738806 0.961257 0.357488
0.959706 0.959706 0.342580
0.000000 0.000000 0.732203
0.260703 0.000000 0.730905
0.519103 0.000000 0.727571
0.766364 0.000000 0.721889
0.979736 0.000000 0.714709
0.000000 0.241137 0.727436
0.253280 0.237761 0.725560
0.517786 0.226722 0.721716
0.767062 0.205137 0.715586
0.979987 0.173234 0.708100
0.000000 0.490925 0.715102
0.222936 0.489635 0.712917
0.509702 0.486873 0.711164
0.763115 0.477242 0.702811
0.974031 0.466385 0.694905
0.000000 0.732579 0.694441
0.145576 0.736801 0.696906
0.500961 0.751564 0.709220
0.789161 0.761565 0.716921
0.992508 0.751879 0.709095
0.000000 0.957632 0.666315
0.000000 0.956953 0.664371
0.453334 0.965089 0.667676
0.749560 0.975733 0.671464
0.975126 0.975126 0.666729
0.000000 0.000000 0.967635
0.252710 0.000000 0.966547
0.515842 0.000000 0.964003
0.764527 0.000000 0.959813
0.978515 0.000000 0.954625
0.000000 0.232266 0.963548
0.245211 0.228757 0.961924
0.514654 0.217210 0.958928
0.765332 0.194453 0.954366
0.978477 0.160334 0.948949
0.000000 0.487292 0.953918
0.213683 0.485995 0.952047
0.504802 0.481524 0.948875
0.760983 0.473219 0.944204
0.972516 0.462531 0.938835
0.000000 0.730452 0.938707
0.129127 0.729739 0.936885
0.483959 0.729700 0.937085
0.768023 0.740671 0.952635
0.982194 0.731908 0.944183
0.000000 0.956090 0.919116
0.000000 0.957584 0.919737
0.452086 0.969034 0.930009
0.756270 0.985523 0.945180
0.996245 0.996245 0.954945
