colorkit/colorkit/luts/kodak_2383_style.cube
TITLE "kodak_2383_style"
LUT_3D_SIZE 33
DOMAIN_MIN 0.0 0.0 0.0
DOMAIN_MAX 1.0 1.0 1.0
0.012007 0.010057 0.023819
0.044634 0.008726 0.021720
0.076947 0.007594 0.020399
0.109620 0.006598 0.019399
0.141989 0.005225 0.018008
0.174201 0.003480 0.016238
0.206327 0.001357 0.014085
0.238398 0.000000 0.011537
0.270427 0.000000 0.008581
0.302419 0.000000 0.005205
0.334372 0.000000 0.001396
0.366280 0.000000 0.000000
0.398133 0.000000 0.000000
0.429923 0.000000 0.000000
0.461636 0.000000 0.000000
0.493260 0.000000 0.000000
0.524782 0.000000 0.000000
0.556186 0.000000 0.000000
0.587459 0.000000 0.000000
0.618584 0.000000 0.000000
0.649548 0.000000 0.000000
0.680334 0.000000 0.000000
0.710926 0.000000 0.000000
0.741309 0.000000 0.000000
0.771467 0.000000 0.000000
0.801383 0.000000 0.000000
0.831042 0.000000 0.000000
0.860428 0.000000 0.000000
0.889524 0.000000 0.000000
0.918314 0.000000 0.000000
0.946783 0.000000 0.000000
0.974913 0.000000 0.000000
0.985043 0.000000 0.000000
0.009373 0.040857 0.020975
0.045359 0.041063 0.020646
0.078557 0.040516 0.021311
0.110953 0.040026 0.021025
0.143042 0.038405 0.019390
0.175146 0.036669 0.017624
0.207227 0.034682 0.015596
0.239281 0.032379 0.013246
0.271306 0.029723 0.010537
0.303301 0.026687 0.007442
0.335260 0.023250 0.003942
0.367177 0.019395 0.000020
0.399040 0.015109 0.000000
0.430840 0.010381 0.000000
0.462563 0.005201 0.000000
0.494198 0.000000 0.000000
0.525730 0.000000 0.000000
0.557145 0.000000 0.000000
0.588427 0.000000 0.000000
0.619563 0.000000 0.000000
0.650536 0.000000 0.000000
0.681331 0.000000 0.000000
0.711932 0.000000 0.000000
0.742324 0.000000 0.000000
0.772490 0.000000 0.000000
0.802415 0.000000 0.000000
0.832082 0.000000 0.000000
0.861476 0.000000 0.000000
0.890579 0.000000 0.000000
0.919377 0.000000 0.000000
0.947853 0.000000 0.000000
0.975990 0.000000 0.000000
0.986122 0.000000 0.000000
0.005919 0.069691 0.016841
0.040755 0.070772 0.016522
0.076341 0.070251 0.015466
0.108589 0.068257 0.014545
0.141911 0.068949 0.016119
0.175289 0.069742 0.017077
0.208251 0.070222 0.017627
0.240543 0.069419 0.016367
0.272477 0.067598 0.013678
0.304416 0.065540 0.010695
0.336340 0.063193 0.007372
0.368234 0.060505 0.003675
0.400084 0.057423 0.000000
0.431876 0.053883 0.000000
0.463596 0.049810 0.000000
0.495230 0.045102 0.000000
0.526763 0.039610 0.000000
0.558180 0.033425 0.000000
0.589466 0.026784 0.000000
0.620606 0.019685 0.000000
0.651584 0.012127 0.000000
0.682384 0.004113 0.000000
0.712991 0.000000 0.000000
0.743388 0.000000 0.000000
0.773560 0.000000 0.000000
0.803490 0.000000 0.000000
0.833163 0.000000 0.000000
0.862562 0.000000 0.000000
0.891671 0.000000 0.000000
0.920474 0.000000 0.000000
0.948955 0.000000 0.000000
0.977097 0.000000 0.000000
0.987231 0.000000 0.000000
0.001622 0.099132 0.012131
0.035170 0.099552 0.011452
0.072546 0.100192 0.010549
0.107193 0.099515 0.009027
0.138993 0.097093 0.006882
0.172298 0.097228 0.007697
0.205950 0.098116 0.009054
0.239141 0.098695 0.009894
0.272061 0.099079 0.010401
0.304806 0.099337 0.010692
0.337425 0.099514 0.010845
0.369475 0.098284 0.008316
0.401282 0.096285 0.004351
0.433044 0.094065 0.000024
0.464743 0.091596 0.000000
0.496362 0.088847 0.000000
0.527885 0.085788 0.000000
0.559296 0.082383 0.000000
0.590578 0.078590 0.000000
0.621715 0.074359 0.000000
0.652693 0.069627 0.000000
0.683493 0.064312 0.000000
0.714102 0.058302 0.000000
0.744501 0.051441 0.000000
0.774675 0.043491 0.000000
0.804609 0.034257 0.000000
0.834285 0.024485 0.000000
0.863687 0.014308 0.000000
0.892800 0.003738 0.000000
0.921606 0.000000 0.000000
0.950091 0.000000 0.000000
0.978237 0.000000 0.000000
0.988372 0.000000 0.000000
0.000000 0.129356 0.006277
0.029229 0.129066 0.005444
0.067658 0.129259 0.004387
0.103925 0.129702 0.002917
0.138075 0.128941 0.000936
0.169946 0.126728 0.000000
0.202726 0.125804 0.000000
0.236568 0.126702 0.000000
0.269944 0.127335 0.000000
0.303016 0.127776 0.000098
0.335876 0.128077 0.000512
0.368575 0.128279 0.000712
0.401139 0.128411 0.000761
0.433580 0.128492 0.000703
0.465902 0.128539 0.000573
0.497625 0.127012 0.000000
0.529123 0.124896 0.000000
0.560514 0.122588 0.000000
0.591782 0.120070 0.000000
0.622909 0.117326 0.000000
0.653879 0.114336 0.000000
0.684674 0.111081 0.000000
0.715278 0.107538 0.000000
0.745675 0.103681 0.000000
0.775848 0.099479 0.000000
0.805780 0.094895 0.000000
0.835457 0.089884 0.000000
0.864859 0.084388 0.000000
0.893973 0.078334 0.000000
0.922781 0.071622 0.000000
0.951267 0.064113 0.000000
0.979415 0.055600 0.000000
0.989551 0.052202 0.000000
0.000000 0.159612 0.000000
0.022280 0.159382 0.000000
0.062390 0.159071 0.000000
0.099582 0.159071 0.000000
0.135166 0.159344 0.000000
0.169021 0.158526 0.000000
0.200968 0.156462 0.000000
0.233718 0.155340 0.000000
0.267168 0.155470 0.000000
0.300689 0.156129 0.000000
0.333886 0.156611 0.000000
0.366844 0.156954 0.000000
0.399609 0.157192 0.000000
0.432211 0.157348 0.000000
0.464663 0.157443 0.000000
0.496970 0.157490 0.000000
0.529130 0.157503 0.000000
0.561139 0.157490 0.000000
0.592988 0.157459 0.000000
0.624205 0.155805 0.000000
0.655158 0.153632 0.000000
0.685939 0.151298 0.000000
0.716532 0.148793 0.000000
0.746921 0.146107 0.000000
0.777087 0.143230 0.000000
0.807014 0.140151 0.000000
0.836687 0.136858 0.000000
0.866086 0.133340 0.000000
0.895198 0.129581 0.000000
0.924004 0.125565 0.000000
0.952489 0.121275 0.000000
0.980636 0.116688 0.000000
0.990772 0.114944 0.000000
0.000000 0.189919 0.000000
0.013784 0.189733 0.000000
0.055997 0.189479 0.000000
0.095068 0.189117 0.000000
0.131217 0.188983 0.000000
0.166365 0.189112 0.000000
0.200030 0.188252 0.000000
0.232178 0.186409 0.000000
0.265009 0.185372 0.000000
0.297751 0.184388 0.000000
0.331384 0.185058 0.000000
0.364680 0.185568 0.000000
0.397713 0.185947 0.000000
0.430529 0.186221 0.000000
0.463154 0.186408 0.000000
0.495602 0.186528 0.000000
0.527881 0.186593 0.000000
0.559989 0.186615 0.000000
0.591922 0.186603 0.000000
0.623673 0.186565 0.000000
0.655233 0.186507 0.000000
0.686591 0.186434 0.000000
0.717734 0.186351 0.000000
0.748251 0.184805 0.000000
0.778404 0.182630 0.000000
0.808320 0.180325 0.000000
0.837983 0.177885 0.000000
0.867376 0.175305 0.000000
0.896481 0.172579 0.000000
0.925282 0.169704 0.000000
0.953763 0.166674 0.000000
0.981906 0.163485 0.000000
0.992041 0.162287 0.000000
0.000000 0.220286 0.000000
0.003644 0.220132 0.000000
0.047608 0.219920 0.000000
0.089820 0.219617 0.000000
0.127185 0.219215 0.000000
0.162718 0.218983 0.000000
0.197561 0.218991 0.000000
0.231094 0.218098 0.000000
0.263447 0.216467 0.000000
0.296294 0.215460 0.000000
0.328914 0.214311 0.000000
0.362030 0.214102 0.000000
0.395398 0.214633 0.000000
0.428484 0.215041 0.000000
0.461329 0.215346 0.000000
0.493959 0.215566 0.000000
0.526389 0.215715 0.000000
0.558624 0.215805 0.000000
0.590665 0.215846 0.000000
0.622509 0.215849 0.000000
0.654148 0.215819 0.000000
0.685575 0.215764 0.000000
0.716778 0.215688 0.000000
0.747746 0.215597 0.000000
0.778467 0.215493 0.000000
0.808926 0.215380 0.000000
0.839111 0.215261 0.000000
0.868736 0.214120 0.000000
0.897830 0.211994 0.000000
0.926621 0.209767 0.000000
0.955094 0.207437 0.000000
0.983230 0.205004 0.000000
0.993363 0.204094 0.000000
0.000000 0.250710 0.000000
0.000000 0.250581 0.000000
0.036407 0.250402 0.000000
0.083298 0.250144 0.000000
0.122608 0.249800 0.000000
0.159023 0.249365 0.000000
0.194154 0.249059 0.000000
0.228769 0.248965 0.000000
0.262202 0.248046 0.000000
0.294716 0.246586 0.000000
0.327568 0.245603 0.000000
0.360193 0.244496 0.000000
0.392627 0.243258 0.000000
0.426034 0.243789 0.000000
0.459149 0.244220 0.000000
0.492004 0.244553 0.000000
0.524620 0.244803 0.000000
0.557013 0.244981 0.000000
0.589188 0.245099 0.000000
0.621146 0.245165 0.000000
0.652884 0.245189 0.000000
0.684397 0.245176 0.000000
0.715675 0.245134 0.000000
0.746709 0.245066 0.000000
0.777487 0.244979 0.000000
0.807998 0.244875 0.000000
0.838228 0.244759 0.000000
0.868164 0.244632 0.000000
0.897791 0.244498 0.000000
0.927095 0.244358 0.000000
0.956062 0.244215 0.000000
0.984614 0.243837 0.000000
0.994441 0.243130 0.000000
0.000000 0.281183 0.000000
0.000000 0.281075 0.000000
0.022892 0.280922 0.000000
0.075180 0.280699 0.000000
0.117096 0.280402 0.000000
0.154893 0.280025 0.000000
0.190711 0.279562 0.000000
0.225558 0.279198 0.000000
0.259990 0.279017 0.000000
0.293339 0.278076 0.000000
0.325976 0.276758 0.000000
0.358821 0.275797 0.000000
0.391436 0.274723 0.000000
0.423851 0.273533 0.000000
0.456578 0.273020 0.000000
0.489701 0.273469 0.000000
0.522542 0.273827 0.000000
0.555125 0.274104 0.000000
0.587462 0.274310 0.000000
0.619559 0.274455 0.000000
0.651418 0.274548 0.000000
0.683034 0.274595 0.000000
0.714403 0.274604 0.000000
0.745516 0.274580 0.000000
0.776365 0.274529 0.000000
0.806938 0.274454 0.000000
0.837223 0.274359 0.000000
0.867208 0.274249 0.000000
0.896880 0.274125 0.000000
0.926224 0.273990 0.000000
0.955226 0.273848 0.000000
0.983872 0.273699 0.000000
0.993401 0.273648 0.000000
0.000000 0.311697 0.000000
0.000000 0.311605 0.000000
0.007495 0.311473 0.000000
0.064957 0.311279 0.000000
0.110482 0.311020 0.000000
0.150025 0.310689 0.000000
0.186903 0.310283 0.000000
0.222310 0.309797 0.000000
0.256941 0.309385 0.000000
0.291218 0.309129 0.000000
0.324490 0.308172 0.000000
0.357218 0.306973 0.000000
0.390040 0.306030 0.000000
0.422629 0.304985 0.000000
0.455009 0.303836 0.000000
0.487193 0.302581 0.000000
0.520126 0.302774 0.000000
0.552933 0.303152 0.000000
0.585462 0.303452 0.000000
0.617724 0.303684 0.000000
0.649724 0.303856 0.000000
0.681464 0.303975 0.000000
0.712941 0.304047 0.000000
0.744150 0.304080 0.000000
0.775082 0.304077 0.000000
0.805729 0.304045 0.000000
0.836081 0.303987 0.000000
0.866125 0.303908 0.000000
0.895849 0.303809 0.000000
0.925240 0.303695 0.000000
0.954285 0.303569 0.000000
0.982969 0.303431 0.000000
0.992026 0.303386 0.000000
0.000000 0.342239 0.000000
0.000000 0.342160 0.000000
0.000000 0.342045 0.000000
0.051725 0.341876 0.000000
0.102539 0.341647 0.000000
0.144319 0.341355 0.000000
0.182487 0.340995 0.000000
0.218747 0.340563 0.000000
0.253852 0.340057 0.000000
0.288306 0.339606 0.000000
0.322443 0.339286 0.000000
0.355640 0.338315 0.000000
0.388427 0.337219 0.000000
0.421213 0.336291 0.000000
0.453758 0.335272 0.000000
0.486084 0.334158 0.000000
0.518202 0.332948 0.000000
0.550411 0.332117 0.000000
0.583162 0.332512 0.000000
0.615616 0.332833 0.000000
0.647783 0.333089 0.000000
0.679667 0.333285 0.000000
0.711271 0.333429 0.000000
0.742591 0.333526 0.000000
0.773621 0.333583 0.000000
0.804355 0.333603 0.000000
0.834784 0.333593 0.000000
0.864897 0.333555 0.000000
0.894683 0.333493 0.000000
0.924129 0.333411 0.000000
0.953224 0.333311 0.000000
0.981953 0.333197 0.000000
0.990534 0.333161 0.000000
0.000000 0.372795 0.000000
0.000000 0.372728 0.000000
0.000000 0.372627 0.000000
0.033750 0.372478 0.000000
0.092934 0.372275 0.000000
0.137645 0.372014 0.000000
0.177394 0.371693 0.000000
0.214666 0.371307 0.000000
0.250481 0.370854 0.000000
0.285347 0.370330 0.000000
0.319649 0.369845 0.000000
0.353654 0.369470 0.000000
0.386770 0.368488 0.000000
0.419591 0.367481 0.000000
0.452322 0.366568 0.000000
0.484807 0.365571 0.000000
0.517061 0.364488 0.000000
0.549094 0.363318 0.000000
0.580908 0.362060 0.000000
0.613215 0.361892 0.000000
0.645572 0.362232 0.000000
0.677624 0.362508 0.000000
0.709373 0.362727 0.000000
0.740822 0.362894 0.000000
0.771966 0.363015 0.000000
0.802800 0.363095 0.000000
0.833318 0.363139 0.000000
0.863511 0.363151 0.000000
0.893369 0.363134 0.000000
0.922879 0.363092 0.000000
0.952032 0.363028 0.000000
0.980813 0.362946 0.000000
0.988915 0.362921 0.000000
0.000000 0.403351 0.000000
0.000000 0.403294 0.000000
0.000000 0.403206 0.000000
0.012555 0.403073 0.000000
0.081143 0.402891 0.000000
0.129836 0.402657 0.000000
0.171544 0.402368 0.000000
0.210020 0.402021 0.000000
0.246661 0.401613 0.000000
0.282133 0.401141 0.000000
0.316800 0.400602 0.000000
0.350960 0.400087 0.000000
0.384834 0.399664 0.000000
0.417863 0.398674 0.000000
0.450691 0.397744 0.000000
0.483352 0.396844 0.000000
0.515759 0.395867 0.000000
0.547923 0.394812 0.000000
0.579852 0.393678 0.000000
0.611548 0.392464 0.000000
0.643075 0.391276 0.000000
0.675315 0.391631 0.000000
0.707231 0.391926 0.000000
0.738826 0.392165 0.000000
0.770099 0.392354 0.000000
0.801049 0.392497 0.000000
0.831670 0.392600 0.000000
0.861954 0.392666 0.000000
0.891893 0.392700 0.000000
0.921478 0.392705 0.000000
0.950696 0.392684 0.000000
0.979538 0.392640 0.000000
0.987160 0.392627 0.000000
0.000000 0.433892 0.000000
0.000000 0.433843 0.000000
0.000000 0.433765 0.000000
0.000000 0.433646 0.000000
0.066244 0.433483 0.000000
0.120658 0.433273 0.000000
0.164835 0.433011 0.000000
0.204753 0.432697 0.000000
0.242356 0.432326 0.000000
0.278521 0.431898 0.000000
0.313714 0.431409 0.000000
0.348205 0.430857 0.000000
0.382227 0.430316 0.000000
0.415969 0.429850 0.000000
0.448900 0.428854 0.000000
0.481712 0.427993 0.000000
0.514286 0.427106 0.000000
0.546595 0.426147 0.000000
0.578651 0.425117 0.000000
0.610458 0.424015 0.000000
0.642017 0.422840 0.000000
0.673325 0.421592 0.000000
0.704828 0.421015 0.000000
0.736588 0.421326 0.000000
0.768008 0.421583 0.000000
0.799087 0.421792 0.000000
0.829824 0.421957 0.000000
0.860212 0.422081 0.000000
0.890244 0.422169 0.000000
0.919912 0.422224 0.000000
0.949206 0.422250 0.000000
0.978115 0.422249 0.000000
0.985259 0.422248 0.000000
0.000000 0.464401 0.000000
0.000000 0.464360 0.000000
0.000000 0.464291 0.000000
0.000000 0.464184 0.000000
0.046279 0.464037 0.000000
0.109776 0.463846 0.000000
0.157141 0.463609 0.000000
0.198798 0.463322 0.000000
0.237525 0.462984 0.000000
0.274485 0.462593 0.000000
0.310273 0.462146 0.000000
0.345227 0.461642 0.000000
0.379554 0.461079 0.000000
0.413437 0.460514 0.000000
0.447041 0.460011 0.000000
0.479878 0.459024 0.000000
0.512635 0.458212 0.000000
0.545104 0.457336 0.000000
0.577298 0.456394 0.000000
0.609227 0.455387 0.000000
0.640894 0.454314 0.000000
0.672298 0.453174 0.000000
0.703435 0.451969 0.000000
0.734299 0.450697 0.000000
0.765678 0.450693 0.000000
0.796902 0.450966 0.000000
0.827768 0.451193 0.000000
0.858272 0.451376 0.000000
0.888409 0.451520 0.000000
0.918170 0.451628 0.000000
0.947549 0.451704 0.000000
0.976534 0.451751 0.000000
0.983205 0.451760 0.000000
0.000000 0.494863 0.000000
0.000000 0.494828 0.000000
0.000000 0.494767 0.000000
0.000000 0.494671 0.000000
0.019259 0.494538 0.000000
0.096664 0.494364 0.000000
0.148292 0.494146 0.000000
0.192077 0.493884 0.000000
0.232122 0.493574 0.000000
0.269994 0.493215 0.000000
0.306455 0.492805 0.000000
0.341927 0.492342 0.000000
0.376667 0.491825 0.000000
0.410834 0.491252 0.000000
0.444575 0.490665 0.000000
0.478032 0.490129 0.000000
0.510801 0.489189 0.000000
0.543442 0.488384 0.000000
0.575788 0.487519 0.000000
0.607850 0.486593 0.000000
0.639633 0.485607 0.000000
0.671141 0.484560 0.000000
0.702371 0.483453 0.000000
0.733318 0.482286 0.000000
0.763977 0.481059 0.000000
0.794482 0.480009 0.000000
0.825492 0.480297 0.000000
0.856125 0.480539 0.000000
0.886377 0.480740 0.000000
0.916243 0.480902 0.000000
0.945716 0.481030 0.000000
0.974787 0.481125 0.000000
0.980988 0.481144 0.000000
0.000000 0.525261 0.000000
0.000000 0.525231 0.000000
0.000000 0.525177 0.000000
0.000000 0.525091 0.000000
0.000000 0.524969 0.000000
0.080406 0.524810 0.000000
0.138057 0.524611 0.000000
0.184490 0.524369 0.000000
0.226095 0.524084 0.000000
0.265015 0.523753 0.000000
0.302237 0.523375 0.000000
0.338289 0.522948 0.000000
0.373486 0.522470 0.000000
0.408025 0.521941 0.000000
0.442033 0.521360 0.000000
0.475622 0.520752 0.000000
0.508924 0.520187 0.000000
0.541605 0.519291 0.000000
0.574115 0.518492 0.000000
0.606320 0.517637 0.000000
0.638230 0.516726 0.000000
0.669850 0.515760 0.000000
0.701180 0.514738 0.000000
0.732217 0.513661 0.000000
0.762956 0.512529 0.000000
0.793390 0.511343 0.000000
0.823512 0.510103 0.000000
0.853759 0.509558 0.000000
0.884140 0.509815 0.000000
0.914121 0.510031 0.000000
0.943698 0.510211 0.000000
0.972863 0.510355 0.000000
0.978603 0.510384 0.000000
0.000000 0.555579 0.000000
0.000000 0.555553 0.000000
0.000000 0.555505 0.000000
0.000000 0.555427 0.000000
0.000000 0.555315 0.000000
0.059117 0.555169 0.000000
0.126105 0.554985 0.000000
0.175912 0.554763 0.000000
0.219379 0.554499 0.000000
0.259511 0.554193 0.000000
0.297594 0.553842 0.000000
0.334295 0.553446 0.000000
0.369999 0.553003 0.000000
0.404946 0.552513 0.000000
0.439290 0.551973 0.000000
0.473135 0.551384 0.000000
0.506563 0.550757 0.000000
0.539698 0.550168 0.000000
0.572274 0.549312 0.000000
0.604634 0.548519 0.000000
0.636680 0.547674 0.000000
0.668421 0.546777 0.000000
0.699858 0.545829 0.000000
0.730992 0.544831 0.000000
0.761817 0.543781 0.000000
0.792330 0.542682 0.000000
0.822522 0.541534 0.000000
0.852385 0.540338 0.000000
0.881908 0.539094 0.000000
0.911794 0.539003 0.000000
0.941485 0.539234 0.000000
0.970754 0.539428 0.000000
0.976042 0.539464 0.000000
0.000000 0.585798 0.000000
0.000000 0.585777 0.000000
0.000000 0.585734 0.000000
0.000000 0.585662 0.000000
0.000000 0.585560 0.000000
0.028319 0.585425 0.000000
0.111921 0.585255 0.000000
0.166180 0.585049 0.000000
0.211899 0.584804 0.000000
0.253437 0.584519 0.000000
0.292499 0.584193 0.000000
0.329925 0.583825 0.000000
0.366191 0.583412 0.000000
0.401587 0.582956 0.000000
0.436298 0.582453 0.000000
0.470449 0.581904 0.000000
0.504124 0.581308 0.000000
0.537380 0.580665 0.000000
0.570336 0.580052 0.000000
0.602786 0.579234 0.000000
0.634980 0.578447 0.000000
0.666850 0.577612 0.000000
0.698403 0.576729 0.000000
0.729639 0.575799 0.000000
0.760557 0.574822 0.000000
0.791153 0.573799 0.000000
0.821421 0.572730 0.000000
0.851352 0.571617 0.000000
0.880937 0.570461 0.000000
0.910168 0.569262 0.000000
0.939071 0.568087 0.000000
0.968452 0.568331 0.000000
0.973299 0.568371 0.000000
0.000000 0.615902 0.000000
0.000000 0.615884 0.000000
0.000000 0.615846 0.000000
0.000000 0.615781 0.000000
0.000000 0.615686 0.000000
0.000000 0.615561 0.000000
0.094627 0.615404 0.000000
0.155069 0.615212 0.000000
0.203559 0.614983 0.000000
0.246745 0.614718 0.000000
0.286920 0.614414 0.000000
0.325159 0.614069 0.000000
0.362047 0.613684 0.000000
0.397936 0.613257 0.000000
0.433048 0.612787 0.000000
0.467531 0.612274 0.000000
0.501486 0.611717 0.000000
0.534982 0.611115 0.000000
0.568067 0.610469 0.000000
0.600818 0.609823 0.000000
0.633124 0.609041 0.000000
0.665134 0.608260 0.000000
0.696810 0.607435 0.000000
0.728156 0.606565 0.000000
0.759173 0.605651 0.000000
0.789858 0.604695 0.000000
0.820205 0.603696 0.000000
0.850209 0.602657 0.000000
0.879861 0.601576 0.000000
0.909151 0.600457 0.000000
0.938070 0.599300 0.000000
0.966607 0.598108 0.000000
0.970885 0.597930 0.000000
0.000000 0.645874 0.000000
0.000000 0.645859 0.000000
0.000000 0.645825 0.000000
0.000000 0.645765 0.000000
0.000000 0.645678 0.000000
0.000000 0.645562 0.000000
0.072473 0.645415 0.000000
0.142261 0.645235 0.000000
0.194240 0.645022 0.000000
0.239373 0.644773 0.000000
0.280824 0.644488 0.000000
0.319975 0.644166 0.000000
0.357552 0.643805 0.000000
0.393982 0.643404 0.000000
0.429531 0.642963 0.000000
0.464375 0.642482 0.000000
0.498633 0.641959 0.000000
0.532386 0.641394 0.000000
0.565692 0.640787 0.000000
0.598591 0.640138 0.000000
0.631125 0.639462 0.000000
0.663268 0.638714 0.000000
0.695076 0.637940 0.000000
0.726540 0.637124 0.000000
0.757662 0.636267 0.000000
0.788441 0.635369 0.000000
0.818874 0.634433 0.000000
0.848955 0.633458 0.000000
0.878677 0.632445 0.000000
0.908031 0.631396 0.000000
0.937008 0.630312 0.000000
0.965598 0.629194 0.000000
0.969466 0.629044 0.000000
0.000000 0.675696 0.000000
0.000000 0.675684 0.000000
0.000000 0.675653 0.000000
0.000000 0.675598 0.000000
0.000000 0.675517 0.000000
0.000000 0.675408 0.000000
0.040740 0.675271 0.000000
0.127268 0.675103 0.000000
0.183788 0.674903 0.000000
0.231252 0.674669 0.000000
0.274170 0.674401 0.000000
0.314347 0.674098 0.000000
0.352689 0.673758 0.000000
0.389713 0.673381 0.000000
0.425739 0.672967 0.000000
0.460974 0.672513 0.000000
0.495558 0.672021 0.000000
0.529588 0.671489 0.000000
0.563132 0.670918 0.000000
0.596236 0.670307 0.000000
0.628936 0.669656 0.000000
0.661252 0.668966 0.000000
0.693200 0.668237 0.000000
0.724788 0.667469 0.000000
0.756022 0.666662 0.000000
0.786901 0.665817 0.000000
0.817424 0.664936 0.000000
0.847587 0.664018 0.000000
0.877383 0.663065 0.000000
0.906805 0.662078 0.000000
0.935843 0.661059 0.000000
0.964489 0.660008 0.000000
0.967965 0.659883 0.000000
0.000000 0.705351 0.000000
0.000000 0.705341 0.000000
0.000000 0.705313 0.000000
0.000000 0.705262 0.000000
0.000000 0.705187 0.000000
0.000000 0.705085 0.000000
0.000000 0.704956 0.000000
0.109278 0.704798 0.000000
0.171990 0.704610 0.000000
0.222292 0.704390 0.000000
0.266914 0.704137 0.000000
0.308250 0.703851 0.000000
0.347441 0.703531 0.000000
0.385117 0.703175 0.000000
0.421662 0.702783 0.000000
0.457320 0.702355 0.000000
0.492256 0.701890 0.000000
0.526583 0.701388 0.000000
0.560381 0.700848 0.000000
0.593706 0.700271 0.000000
0.626597 0.699657 0.000000
0.659081 0.699005 0.000000
0.691178 0.698316 0.000000
0.722899 0.697591 0.000000
0.754250 0.696829 0.000000
0.785236 0.696032 0.000000
0.815855 0.695199 0.000000
0.846104 0.694333 0.000000
0.875978 0.693434 0.000000
0.905471 0.692503 0.000000
0.934574 0.691540 0.000000
0.963279 0.690549 0.000000
0.966381 0.690445 0.000000
0.000000 0.734822 0.000000
0.000000 0.734813 0.000000
0.000000 0.734788 0.000000
0.000000 0.734741 0.000000
0.000000 0.734670 0.000000
0.000000 0.734575 0.000000
0.000000 0.734453 0.000000
0.086737 0.734304 0.000000
0.158550 0.734126 0.000000
0.212382 0.733918 0.000000
0.258999 0.733679 0.000000
0.301651 0.733409 0.000000
0.341787 0.733105 0.000000
0.380181 0.732768 0.000000
0.417291 0.732398 0.000000
0.453407 0.731992 0.000000
0.488722 0.731552 0.000000
0.523368 0.731076 0.000000
0.557438 0.730565 0.000000
0.590997 0.730019 0.000000
0.624091 0.729437 0.000000
0.656754 0.728819 0.000000
0.689009 0.728167 0.000000
0.720870 0.727480 0.000000
0.752347 0.726758 0.000000
0.783444 0.726003 0.000000
0.814164 0.725215 0.000000
0.844504 0.724395 0.000000
0.874460 0.723544 0.000000
0.904028 0.722662 0.000000
0.933199 0.721752 0.000000
0.961966 0.720814 0.000000
0.964716 0.720727 0.000000
0.000000 0.764090 0.000000
0.000000 0.764083 0.000000
0.000000 0.764060 0.000000
0.000000 0.764016 0.000000
0.000000 0.763950 0.000000
0.000000 0.763860 0.000000
0.000000 0.763745 0.000000
0.055801 0.763604 0.000000
0.143025 0.763435 0.000000
0.201381 0.763238 0.000000
0.250361 0.763012 0.000000
0.294515 0.762755 0.000000
0.335707 0.762467 0.000000
0.374891 0.762147 0.000000
0.412617 0.761795 0.000000
0.449229 0.761410 0.000000
0.484952 0.760992 0.000000
0.519939 0.760540 0.000000
0.554299 0.760055 0.000000
0.588107 0.759535 0.000000
0.621418 0.758983 0.000000
0.654270 0.758396 0.000000
0.686691 0.757777 0.000000
0.718700 0.757124 0.000000
0.750309 0.756439 0.000000
0.781524 0.755722 0.000000
0.812350 0.754974 0.000000
0.842786 0.754196 0.000000
0.872829 0.753388 0.000000
0.902475 0.752551 0.000000
0.931718 0.751687 0.000000
0.960551 0.750797 0.000000
0.962971 0.750725 0.000000
0.000000 0.793139 0.000000
0.000000 0.793134 0.000000
0.000000 0.793112 0.000000
0.000000 0.793071 0.000000
0.000000 0.793008 0.000000
0.000000 0.792923 0.000000
0.000000 0.792814 0.000000
0.009069 0.792680 0.000000
0.124692 0.792520 0.000000
0.189096 0.792332 0.000000
0.240922 0.792117 0.000000
0.286802 0.791873 0.000000
0.329178 0.791598 0.000000
0.369233 0.791294 0.000000
0.407631 0.790959 0.000000
0.444778 0.790592 0.000000
0.480939 0.790194 0.000000
0.516292 0.789764 0.000000
0.550961 0.789302 0.000000
0.585034 0.788808 0.000000
0.618574 0.788281 0.000000
0.651627 0.787723 0.000000
0.684224 0.787133 0.000000
0.716389 0.786512 0.000000
0.748137 0.785860 0.000000
0.779477 0.785177 0.000000
0.810414 0.784465 0.000000
