colorkit/colorkit/luts/kodak_2383_style.cube
TITLE "kodak_2383_style"
LUT_3D_SIZE 9
DOMAIN_MIN 0.0 0.0 0.0
DOMAIN_MAX 1.0 1.0 1.0
0.012007 0.010057 0.023819
0.141989 0.005225 0.018008
0.270427 0.000000 0.008581
0.398133 0.000000 0.000000
0.524782 0.000000 0.000000
0.649548 0.000000 0.000000
0.771467 0.000000 0.000000
0.889524 0.000000 0.000000
0.985043 0.000000 0.000000
0.000000 0.129356 0.006277
0.138075 0.128941 0.000936
0.269944 0.127335 0.000000
0.401139 0.128411 0.000761
0.529123 0.124896 0.000000
0.653879 0.114336 0.000000
0.775848 0.099479 0.000000
0.893973 0.078334 0.000000
0.989551 0.052202 0.000000
0.000000 0.250710 0.000000
0.122608 0.249800 0.000000
0.262202 0.248046 0.000000
0.392627 0.243258 0.000000
0.524620 0.244803 0.000000
0.652884 0.245189 0.000000
0.777487 0.244979 0.000000
0.897791 0.244498 0.000000
0.994441 0.243130 0.000000
0.000000 0.372795 0.000000
0.092934 0.372275 0.000000
0.250481 0.370854 0.000000
0.386770 0.368488 0.000000
0.517061 0.364488 0.000000
0.645572 0.362232 0.000000
0.771966 0.363015 0.000000
0.893369 0.363134 0.000000
0.988915 0.362921 0.000000
0.000000 0.494863 0.000000
0.019259 0.494538 0.000000
0.232122 0.493574 0.000000
0.376667 0.491825 0.000000
0.510801 0.489189 0.000000
0.639633 0.485607 0.000000
0.763977 0.481059 0.000000
0.886377 0.480740 0.000000
0.980988 0.481144 0.000000
0.000000 0.615902 0.000000
0.000000 0.615686 0.000000
0.203559 0.614983 0.000000
0.362047 0.613684 0.000000
0.501486 0.611717 0.000000
0.633124 0.609041 0.000000
0.759173 0.605651 0.000000
0.879861 0.601576 0.000000
0.970885 0.597930 0.000000
0.000000 0.734822 0.000000
0.000000 0.734670 0.000000
0.158550 0.734126 0.000000
0.341787 0.733105 0.000000
0.488722 0.731552 0.000000
0.624091 0.729437 0.000000
0.752347 0.726758 0.000000
0.874460 0.723544 0.000000
0.964716 0.720727 0.000000
0.000000 0.850509 0.000000
0.000000 0.850393 0.000000
0.072680 0.849948 0.000000
0.314661 0.849108 0.000000
0.472171 0.847825 0.000000
0.612373 0.846078 0.000000
0.743388 0.843867 0.000000
0.867253 0.841216 0.000000
0.957262 0.838929 0.000000
0.000000 0.959358 0.000000
0.000000 0.959156 0.000000
0.000000 0.958680 0.000000
0.279868 0.957870 0.000000
0.452170 0.956689 0.000000
0.598358 0.955121 0.000000
0.732642 0.953166 0.000000
0.858534 0.950848 0.000000
0.948876 0.948876 0.000000
0.009787 0.007960 0.132500
0.141022 0.002903 0.130465
0.269091 0.000000 0.125408
0.396315 0.000000 0.116201
0.522445 0.000000 0.101292
0.646682 0.000000 0.077630
0.768632 0.000000 0.042600
0.886766 0.000000 0.000000
0.982335 0.000000 0.000000
0.000000 0.129725 0.126833
0.145582 0.136631 0.133448
0.269820 0.126883 0.123195
0.398346 0.120580 0.116215
0.525497 0.110830 0.105505
0.650612 0.096418 0.089610
0.772791 0.075138 0.065622
0.891052 0.040806 0.025212
0.986711 0.000000 0.000000
0.000000 0.250462 0.108179
0.123298 0.251501 0.106266
0.266571 0.252088 0.100987
0.396335 0.248735 0.100530
0.528459 0.252103 0.106993
0.656369 0.253284 0.108504
0.778150 0.246463 0.090164
0.896230 0.238459 0.064343
0.991345 0.230717 0.030553
0.000000 0.372658 0.068278
0.092412 0.372139 0.063611
0.251183 0.371836 0.052963
0.389616 0.371075 0.031199
0.517118 0.364350 0.000000
0.648716 0.367373 0.013949
0.775246 0.369355 0.024083
0.896640 0.370413 0.027965
0.991975 0.370890 0.028514
0.000000 0.494782 0.000000
0.018345 0.494457 0.000000
0.232034 0.493494 0.000000
0.377230 0.492433 0.000000
0.512777 0.490944 0.000000
0.639725 0.485524 0.000000
0.765698 0.483512 0.000000
0.889272 0.485686 0.000000
0.983813 0.486792 0.000000
0.000000 0.615853 0.000000
0.000000 0.615637 0.000000
0.203465 0.614934 0.000000
0.362069 0.613634 0.000000
0.501944 0.612136 0.000000
0.634453 0.610187 0.000000
0.759271 0.605596 0.000000
0.879964 0.601519 0.000000
0.972689 0.600871 0.000000
0.000000 0.734791 0.000000
0.000000 0.734638 0.000000
0.158419 0.734093 0.000000
0.341800 0.733071 0.000000
0.488775 0.731516 0.000000
0.624466 0.729751 0.000000
0.753238 0.727507 0.000000
0.874540 0.723502 0.000000
0.964669 0.720688 0.000000
0.000000 0.850488 0.000000
0.000000 0.850370 0.000000
0.072353 0.849925 0.000000
0.314649 0.849082 0.000000
0.472200 0.847797 0.000000
0.612416 0.846047 0.000000
0.743684 0.844113 0.000000
0.867828 0.841694 0.000000
0.957215 0.838894 0.000000
0.000000 0.959312 0.000000
0.000000 0.959110 0.000000
0.000000 0.958634 0.000000
0.279820 0.957823 0.000000
0.452167 0.956643 0.000000
0.598366 0.955074 0.000000
0.732652 0.953119 0.000000
0.858789 0.951076 0.000000
0.949380 0.949380 0.000000
0.006341 0.004501 0.248306
0.139811 0.000000 0.247214
0.268530 0.000000 0.244608
0.395999 0.000000 0.240082
0.522256 0.000000 0.233295
0.646572 0.000000 0.223918
0.768018 0.000000 0.211596
0.885598 0.000000 0.195898
0.980721 0.000000 0.179654
0.000000 0.127468 0.244725
0.134818 0.125490 0.243424
0.266627 0.120432 0.240587
0.395277 0.111110 0.235792
0.522178 0.095856 0.228681
0.646911 0.071254 0.218902
0.768951 0.030418 0.207057
0.887482 0.000000 0.194045
0.983297 0.000000 0.180888
0.000000 0.249825 0.235827
0.124634 0.255387 0.240465
0.276027 0.261250 0.245509
0.399144 0.252089 0.236343
0.525749 0.246388 0.229614
0.651255 0.240247 0.222242
0.773755 0.232563 0.213074
0.892263 0.223131 0.201832
0.987442 0.213840 0.190696
0.000000 0.372280 0.219591
0.091033 0.372401 0.218213
0.255176 0.377695 0.218935
0.396098 0.377109 0.214308
0.522535 0.371103 0.212356
0.653877 0.375853 0.220321
0.780026 0.378555 0.224022
0.898773 0.374921 0.216440
0.991613 0.369958 0.206260
0.000000 0.494534 0.193090
0.015459 0.494210 0.190921
0.231537 0.493247 0.186730
0.380834 0.497012 0.182254
0.517488 0.495305 0.172406
0.639967 0.485474 0.155574
0.769648 0.489409 0.166743
0.893372 0.492715 0.175190
0.987697 0.494446 0.179103
0.000000 0.615678 0.150086
0.000000 0.615462 0.147172
0.202899 0.614759 0.141549
0.361854 0.613458 0.132219
0.504955 0.615673 0.118995
0.638056 0.613508 0.097452
0.759279 0.605414 0.061984
0.881393 0.603380 0.027962
0.975942 0.606119 0.056393
0.000000 0.734661 0.065493
0.000000 0.734508 0.059176
0.157671 0.733962 0.045836
0.341558 0.732938 0.020975
0.488666 0.731381 0.000000
0.626973 0.732563 0.000000
0.756097 0.730148 0.000000
0.874545 0.723360 0.000000
0.964553 0.720548 0.000000
0.000000 0.850386 0.000000
0.000000 0.850267 0.000000
0.070747 0.849819 0.000000
0.314355 0.848975 0.000000
0.472058 0.847687 0.000000
0.612337 0.845935 0.000000
0.745786 0.846418 0.000000
0.870155 0.843868 0.000000
0.957736 0.839339 0.000000
0.000000 0.959196 0.000000
0.000000 0.958994 0.000000
0.000000 0.958517 0.000000
0.279446 0.957707 0.000000
0.451980 0.956526 0.000000
0.598245 0.954957 0.000000
0.732561 0.953002 0.000000
0.860576 0.953012 0.000000
0.951250 0.951250 0.000000
0.000214 0.000000 0.367569
0.137611 0.000000 0.366827
0.267494 0.000000 0.365122
0.395388 0.000000 0.362223
0.521862 0.000000 0.357968
0.646308 0.000000 0.352242
0.767840 0.000000 0.344978
0.885482 0.000000 0.336155
0.980644 0.000000 0.327553
0.000000 0.125027 0.365074
0.132598 0.123016 0.364144
0.265636 0.117859 0.362253
0.394713 0.108331 0.359161
0.521828 0.092667 0.354704
0.646687 0.067129 0.348764
0.768512 0.020345 0.341269
0.886374 0.000000 0.332194
0.981683 0.000000 0.323361
0.000000 0.248667 0.359144
0.118475 0.247758 0.358047
0.263362 0.248598 0.360368
0.393954 0.242562 0.354615
0.520328 0.234745 0.348006
0.646002 0.225824 0.341809
0.768363 0.214067 0.334019
0.887306 0.202121 0.326397
0.982713 0.190983 0.319580
0.000000 0.371581 0.348859
0.089007 0.374904 0.351236
0.258222 0.382642 0.357612
0.406495 0.387051 0.360919
0.531277 0.380538 0.355050
0.651712 0.371837 0.345363
0.774334 0.366685 0.338982
0.893047 0.360982 0.331954
0.986271 0.355797 0.325589
0.000000 0.494060 0.333321
0.009931 0.493737 0.331921
0.233622 0.498797 0.333696
0.386380 0.504220 0.334891
0.525400 0.502711 0.330285
0.651098 0.496695 0.328006
0.776165 0.499203 0.335026
0.899369 0.502995 0.339961
0.992296 0.503373 0.339830
0.000000 0.615334 0.311426
0.000000 0.615118 0.309870
0.201688 0.614414 0.307177
0.364550 0.618305 0.305830
0.509971 0.621700 0.302837
0.644233 0.619293 0.295240
0.765092 0.609866 0.282416
0.886141 0.610052 0.290076
0.980702 0.613724 0.297396
0.000000 0.734396 0.281563
0.000000 0.734243 0.279820
0.156074 0.733696 0.276801
0.340965 0.732671 0.272158
0.491277 0.735371 0.267354
0.631261 0.737486 0.260316
0.761064 0.734816 0.249164
0.879029 0.726919 0.233656
0.964342 0.720269 0.219747
0.000000 0.850173 0.240861
0.000000 0.850053 0.238845
0.067307 0.849603 0.235300
0.313672 0.848756 0.229788
0.471679 0.847466 0.221930
0.614752 0.849309 0.212405
0.749444 0.850511 0.199552
0.874248 0.847750 0.181875
0.961822 0.842903 0.164691
0.000000 0.958985 0.184232
0.000000 0.958783 0.181746
0.000000 0.958306 0.177174
0.278621 0.957496 0.169849
0.451542 0.956315 0.159065
0.597947 0.954745 0.143885
0.734911 0.956091 0.123354
0.863742 0.956494 0.093343
0.954621 0.954621 0.058269
0.000000 0.000000 0.488873
0.134188 0.000000 0.488298
0.265889 0.000000 0.487034
0.394426 0.000000 0.484924
0.521222 0.000000 0.481870
0.645858 0.000000 0.477813
0.767516 0.000000 0.472736
0.885245 0.000000 0.466669
0.980462 0.000000 0.460854
0.000000 0.121225 0.486893
0.129109 0.119157 0.486139
0.264073 0.113838 0.484704
0.393798 0.103970 0.482427
0.521232 0.087620 0.479208
0.646277 0.060450 0.474986
0.768224 0.011116 0.469746
0.886169 0.000000 0.463515
0.981530 0.000000 0.457563
0.000000 0.246883 0.482384
0.114635 0.245970 0.481481
0.258438 0.243583 0.479899
0.390956 0.239322 0.477473
0.519762 0.232850 0.474101
0.645620 0.223844 0.469722
0.768098 0.211964 0.464317
0.886414 0.196805 0.457915
0.980999 0.181310 0.451876
0.000000 0.370498 0.474805
0.082695 0.369982 0.473780
0.249731 0.371943 0.476287
0.396834 0.377336 0.483637
0.526687 0.369825 0.475583
0.643384 0.356890 0.461452
0.766719 0.350164 0.455872
0.885614 0.341953 0.449277
0.979610 0.337062 0.445285
0.000000 0.493319 0.463739
0.001275 0.495200 0.464698
0.233635 0.501437 0.469669
0.390668 0.510050 0.476721
0.536323 0.513115 0.478608
0.660982 0.508750 0.475585
0.774976 0.497067 0.463041
0.893466 0.492170 0.457002
0.984628 0.488333 0.452233
0.000000 0.614788 0.448807
0.000000 0.614573 0.447613
0.201452 0.618488 0.449164
0.367937 0.624707 0.451958
0.516673 0.629858 0.453389
0.653115 0.627664 0.448768
0.776720 0.621666 0.446282
0.894632 0.621630 0.451729
0.987970 0.625213 0.456498
0.000000 0.733972 0.429645
0.000000 0.733818 0.428403
0.153432 0.733270 0.426415
0.342155 0.736636 0.426161
0.495444 0.741849 0.426252
0.637401 0.744615 0.424007
0.768346 0.741711 0.417492
0.886230 0.732693 0.406540
0.972936 0.729547 0.409170
0.000000 0.849828 0.405858
0.000000 0.849706 0.404590
0.061423 0.849255 0.402531
0.312520 0.848405 0.399479
0.473261 0.850961 0.397220
0.618883 0.855144 0.394740
0.754815 0.856579 0.389809
0.880328 0.853555 0.381628
0.967910 0.848198 0.373243
0.000000 0.958661 0.377679
0.000000 0.958459 0.376436
0.000000 0.957982 0.374337
0.277254 0.957171 0.371163
0.450802 0.955990 0.366763
0.599801 0.958079 0.362543
0.738806 0.961257 0.357488
0.868464 0.961726 0.350022
0.959706 0.959706 0.342580
0.000000 0.000000 0.610862
0.129316 0.000000 0.610376
0.263641 0.000000 0.609361
0.393071 0.000000 0.607700
0.520307 0.000000 0.605324
0.645202 0.000000 0.602198
0.767026 0.000000 0.598321
0.884872 0.000000 0.593728
0.980162 0.000000 0.589363
0.000000 0.115788 0.609159
0.124112 0.113632 0.608501
0.261862 0.108062 0.607323
0.392489 0.097665 0.605507
0.520361 0.080220 0.602982
0.645660 0.050238 0.599714
0.767771 0.000000 0.595701
0.885829 0.000000 0.590978
0.981259 0.000000 0.586509
0.000000 0.244392 0.605446
0.109074 0.243472 0.604649
0.256216 0.241060 0.603340
0.389672 0.236749 0.601396
0.518920 0.230196 0.598748
0.645030 0.221069 0.595359
0.767668 0.209013 0.591228
0.886093 0.193599 0.586391
0.980557 0.177836 0.581883
0.000000 0.368986 0.599373
0.075207 0.368470 0.598468
0.245011 0.367039 0.597055
0.383703 0.364469 0.595010
0.515343 0.360598 0.592260
0.642806 0.355315 0.588769
0.766299 0.348552 0.584536
0.885300 0.340293 0.579595
0.978174 0.332505 0.575092
0.000000 0.492279 0.590709
0.000000 0.491958 0.589730
0.227237 0.492884 0.590472
0.382792 0.500692 0.599622
0.528984 0.505667 0.605790
0.656966 0.497228 0.596541
0.767735 0.481262 0.578796
0.883144 0.472851 0.570359
0.974607 0.467827 0.565873
0.000000 0.614017 0.579307
0.000000 0.614858 0.579284
0.199373 0.619931 0.583215
0.368756 0.627492 0.589406
0.521890 0.636370 0.596729
0.664316 0.638339 0.597594
0.787266 0.635654 0.596924
0.898849 0.624345 0.584719
0.982915 0.617203 0.576998
0.000000 0.733369 0.565087
0.000000 0.733215 0.564056
0.150489 0.736205 0.565282
0.343661 0.742031 0.568441
0.499674 0.748691 0.571910
0.644938 0.753437 0.573514
0.777877 0.750767 0.568991
0.898109 0.744837 0.566425
0.986061 0.744779 0.570888
0.000000 0.849336 0.548045
0.000000 0.849213 0.547039
0.052232 0.848759 0.545504
0.312359 0.851655 0.545790
0.476241 0.857265 0.547400
0.623906 0.862353 0.548145
0.761817 0.864538 0.546449
0.888423 0.861309 0.540714
0.975943 0.855169 0.533649
0.000000 0.958212 0.528727
0.000000 0.958010 0.527797
0.000000 0.957533 0.526323
0.275272 0.956722 0.524167
0.451598 0.959295 0.523384
0.603347 0.964281 0.523356
0.743834 0.967986 0.521954
0.874764 0.968736 0.518255
0.966571 0.966571 0.513546
0.000000 0.000000 0.732203
0.122764 0.000000 0.731768
0.260703 0.000000 0.730905
0.391300 0.000000 0.729524
0.519103 0.000000 0.727571
0.644327 0.000000 0.725025
0.766364 0.000000 0.721889
0.884355 0.000000 0.718197
0.979736 0.000000 0.714709
0.000000 0.108416 0.730658
0.117353 0.106128 0.730055
0.258956 0.100180 0.729036
0.390763 0.088973 0.727508
0.519199 0.069771 0.725417
0.644824 0.034752 0.722740
0.767143 0.000000 0.719483
0.885343 0.000000 0.715679
0.980862 0.000000 0.712104
0.000000 0.241137 0.727436
0.101456 0.240207 0.726701
0.253280 0.237761 0.725560
0.387968 0.233383 0.723916
0.517786 0.226722 0.721716
0.644219 0.217432 0.718938
0.767062 0.205137 0.715586
0.885626 0.189376 0.711695
0.979987 0.173234 0.708100
0.000000 0.367019 0.722294
0.064484 0.366503 0.721461
0.241954 0.365064 0.720229
0.381991 0.362478 0.718501
0.514218 0.358582 0.716222
0.642006 0.353263 0.713369
0.765702 0.346452 0.709948
0.884839 0.338130 0.705991
0.977604 0.330298 0.702416
0.000000 0.490925 0.715102
0.000000 0.490604 0.714207
0.222936 0.489635 0.712917
0.372008 0.487870 0.711135
0.509702 0.486873 0.711164
0.643688 0.486162 0.712401
0.763115 0.477242 0.702811
0.882675 0.471427 0.698444
0.974031 0.466385 0.694905
0.000000 0.613010 0.705809
0.000000 0.612795 0.704887
0.193090 0.612561 0.704113
0.362775 0.619843 0.712076
0.514610 0.628040 0.721299
0.658738 0.632633 0.726674
0.783756 0.623653 0.716882
0.892666 0.608204 0.699980
0.970128 0.595533 0.686208
0.000000 0.732579 0.694441
0.000000 0.732584 0.693679
0.145576 0.736801 0.696906
0.342678 0.743312 0.702265
0.500961 0.751564 0.709220
0.650792 0.760403 0.716672
0.789161 0.761565 0.716921
0.908922 0.760093 0.718044
0.992508 0.751879 0.709095
0.000000 0.848689 0.681097
0.000000 0.848564 0.680229
0.038438 0.850827 0.681181
0.312147 0.856069 0.684378
0.478438 0.862673 0.688475
0.628721 0.869463 0.692499
0.769914 0.873789 0.694304
0.898347 0.870829 0.690029
0.986442 0.865067 0.685534
0.000000 0.957632 0.666315
0.000000 0.957430 0.665539
0.000000 0.956953 0.664371
0.273761 0.959627 0.665186
0.453334 0.965089 0.667676
0.607009 0.970933 0.670108
0.749560 0.975733 0.671464
0.882455 0.977322 0.670236
0.975126 0.975126 0.666729
0.000000 0.000000 0.851570
0.114278 0.000000 0.851164
0.257054 0.000000 0.850400
0.389111 0.000000 0.849203
0.517609 0.000000 0.847532
0.643233 0.000000 0.845372
0.765527 0.000000 0.842728
0.883695 0.000000 0.839634
0.979185 0.000000 0.836722
0.000000 0.098741 0.850116
0.108548 0.096253 0.849547
0.255333 0.089733 0.848632
0.388617 0.077257 0.847294
0.517747 0.055074 0.845493
0.643769 0.014772 0.843211
0.766340 0.000000 0.840456
0.884713 0.000000 0.837260
0.980337 0.000000 0.834272
0.000000 0.237092 0.847214
0.091351 0.236149 0.846519
0.249608 0.233657 0.845488
0.385838 0.229193 0.844043
0.516359 0.222392 0.842143
0.643188 0.212892 0.839771
0.766280 0.200288 0.836935
0.885013 0.184072 0.833667
0.979290 0.167418 0.830669
0.000000 0.364594 0.842690
0.049137 0.364077 0.841904
0.238117 0.362628 0.840791
0.379845 0.360022 0.839273
0.512797 0.356095 0.837307
0.640984 0.350730 0.834876
0.764927 0.343858 0.831989
0.884230 0.335459 0.828676
0.976907 0.327567 0.825703
0.000000 0.489257 0.836473
0.000000 0.488936 0.835632
0.218743 0.487964 0.834473
0.369803 0.486191 0.832915
0.506527 0.483516 0.830916
0.636746 0.479877 0.828458
0.761935 0.475254 0.825550
0.882057 0.469673 0.822222
0.973333 0.464617 0.819297
0.000000 0.611768 0.828564
0.000000 0.611553 0.827706
0.187986 0.610843 0.826536
0.354843 0.609529 0.824973
0.499455 0.610389 0.826753
0.640774 0.615077 0.834119
0.771882 0.613412 0.833593
0.888254 0.604271 0.823632
0.969328 0.594179 0.812179
0.000000 0.731603 0.819033
0.000000 0.731447 0.818195
0.137560 0.730893 0.817050
0.337289 0.736586 0.822980
0.495265 0.744589 0.831635
0.644031 0.752882 0.840790
0.784823 0.757114 0.845637
0.905849 0.747943 0.835812
0.987837 0.736767 0.823769
0.000000 0.847888 0.808016
0.000000 0.847762 0.807234
0.019392 0.850739 0.809429
0.309745 0.856370 0.814147
0.477868 0.863771 0.820541
0.630256 0.872324 0.828019
0.776110 0.880962 0.835566
0.909546 0.881620 0.835591
0.998229 0.882309 0.839365
0.000000 0.956921 0.796003
0.000000 0.956720 0.795322
0.000000 0.958382 0.796137
0.271751 0.963024 0.799351
0.453903 0.969167 0.803702
0.609596 0.976195 0.808662
0.754764 0.982938 0.813246
0.890950 0.986839 0.815324
0.985134 0.985134 0.812933
0.000000 0.000000 0.967635
0.103549 0.000000 0.967245
0.252710 0.000000 0.966547
0.386522 0.000000 0.965477
0.515842 0.000000 0.964003
0.641935 0.000000 0.962113
0.764527 0.000000 0.959813
0.882899 0.000000 0.957135
0.978515 0.000000 0.954625
0.000000 0.086246 0.966232
0.097327 0.083447 0.965685
0.251008 0.076019 0.964840
0.386069 0.061417 0.963635
0.516020 0.033623 0.962036
0.642507 0.000000 0.960030
0.765372 0.000000 0.957627
0.883945 0.000000 0.954855
0.979692 0.000000 0.952275
0.000000 0.232266 0.963548
0.078117 0.231305 0.962878
0.245211 0.228757 0.961924
0.383302 0.224185 0.960618
0.514654 0.217210 0.958928
0.641948 0.207445 0.956841
0.765332 0.194453 0.954366
0.884261 0.177658 0.951531
0.978477 0.160334 0.948949
0.000000 0.361732 0.959454
0.027020 0.361213 0.958699
0.233507 0.359752 0.957670
0.377284 0.357122 0.956298
0.511095 0.353156 0.954550
0.639750 0.347737 0.952415
0.763985 0.340792 0.949900
0.883481 0.332299 0.947034
0.976093 0.324331 0.944479
0.000000 0.487292 0.953918
0.000000 0.486971 0.953115
0.213683 0.485995 0.952047
0.367167 0.484214 0.950644
0.504802 0.481524 0.948875
0.635501 0.477866 0.946725
0.760983 0.473219 0.944204
0.881298 0.467606 0.941338
0.972516 0.462531 0.938835
0.000000 0.610305 0.946971
0.000000 0.610090 0.946158
0.181989 0.609377 0.945087
0.352069 0.608059 0.943691
0.495305 0.606061 0.941935
0.628861 0.603344 0.939806
0.756047 0.599902 0.937312
0.877465 0.595765 0.934480
0.967652 0.592116 0.932050
0.000000 0.730452 0.938707
0.000000 0.730295 0.937921
0.129127 0.729739 0.936885
0.330949 0.728699 0.935531
0.483959 0.729700 0.937085
0.629634 0.736609 0.946469
0.768023 0.740671 0.952635
0.895033 0.738393 0.951144
0.982194 0.731908 0.944183
0.000000 0.846944 0.929274
0.000000 0.846816 0.928553
0.000000 0.846355 0.927587
0.304286 0.850257 0.931502
0.472810 0.857538 0.939236
0.624782 0.865866 0.948261
0.769751 0.874052 0.957289
0.905941 0.877950 0.961808
0.995659 0.871941 0.955547
0.000000 0.956090 0.919116
0.000000 0.955888 0.918500
0.000000 0.957584 0.919737
0.267827 0.962455 0.924045
0.452086 0.969034 0.930009
0.609092 0.976920 0.937243
0.756270 0.985523 0.945180
0.897200 0.993928 0.952943
0.996245 0.996245 0.954945
