colorkit/colorkit/luts/moody_blue.cube
TITLE "moody_blue"
LUT_3D_SIZE 33
DOMAIN_MIN 0.0 0.0 0.0
DOMAIN_MAX 1.0 1.0 1.0
0.000046 0.000046 0.015406
0.014799 0.000176 0.015535
0.043370 0.000427 0.015784
0.072183 0.000680 0.016034
0.101221 0.000935 0.016284
0.130467 0.001191 0.016534
0.159905 0.001450 0.016785
0.189518 0.001710 0.017036
0.219290 0.001971 0.017288
0.249204 0.002234 0.017539
0.279242 0.002497 0.017789
0.309389 0.002762 0.018040
0.339628 0.003028 0.018289
0.369941 0.003294 0.018538
0.400313 0.003560 0.018787
0.430726 0.003827 0.019034
0.461163 0.004095 0.019280
0.491609 0.004362 0.019525
0.522046 0.004629 0.019769
0.552457 0.004896 0.020012
0.582825 0.005163 0.020253
0.613135 0.005429 0.020492
0.643369 0.005694 0.020730
0.673510 0.005959 0.020966
0.703541 0.006222 0.021200
0.733446 0.006485 0.021432
0.763208 0.006746 0.021662
0.792811 0.007006 0.021889
0.822236 0.007264 0.022115
0.851468 0.007521 0.022338
0.880490 0.007775 0.022558
0.909285 0.008028 0.022776
0.937836 0.008279 0.022992
0.000843 0.027565 0.016195
0.015620 0.027699 0.016319
0.044200 0.027954 0.016564
0.073022 0.028212 0.016810
0.102069 0.028474 0.017056
0.131324 0.028738 0.017302
0.160771 0.029004 0.017549
0.190393 0.029273 0.017796
0.220174 0.029545 0.018043
0.250096 0.029818 0.018291
0.280144 0.030094 0.018538
0.310299 0.030371 0.018784
0.340546 0.030651 0.019030
0.370868 0.030931 0.019276
0.401248 0.031213 0.019521
0.431669 0.031496 0.019765
0.462115 0.031781 0.020008
0.492569 0.032066 0.020250
0.523014 0.032351 0.020490
0.553433 0.032638 0.020730
0.583809 0.032924 0.020968
0.614126 0.033211 0.021204
0.644367 0.033498 0.021439
0.674516 0.033785 0.021673
0.704554 0.034071 0.021904
0.734467 0.034356 0.022134
0.764236 0.034641 0.022361
0.793845 0.034925 0.022587
0.823277 0.035208 0.022810
0.852516 0.035490 0.023031
0.881544 0.035770 0.023249
0.910345 0.036049 0.023465
0.938902 0.036325 0.023679
0.001704 0.057344 0.017033
0.016537 0.057480 0.017154
0.045126 0.057739 0.017395
0.073956 0.058000 0.017636
0.103012 0.058264 0.017878
0.132276 0.058531 0.018121
0.161731 0.058801 0.018364
0.191362 0.059073 0.018607
0.221151 0.059347 0.018850
0.251081 0.059624 0.019093
0.281137 0.059902 0.019336
0.311300 0.060182 0.019579
0.341555 0.060464 0.019821
0.371885 0.060747 0.020063
0.402273 0.061032 0.020304
0.432701 0.061318 0.020545
0.463155 0.061605 0.020784
0.493616 0.061892 0.021023
0.524067 0.062180 0.021260
0.554493 0.062469 0.021496
0.584877 0.062758 0.021731
0.615201 0.063047 0.021965
0.645448 0.063336 0.022196
0.675603 0.063625 0.022427
0.705648 0.063913 0.022655
0.735566 0.064201 0.022882
0.765341 0.064488 0.023106
0.794956 0.064774 0.023329
0.824394 0.065059 0.023550
0.853638 0.065343 0.023768
0.882672 0.065625 0.023984
0.911478 0.065905 0.024198
0.940039 0.066183 0.024409
0.002573 0.087386 0.017864
0.017492 0.087526 0.017982
0.046089 0.087787 0.018219
0.074927 0.088052 0.018456
0.103991 0.088319 0.018694
0.133263 0.088589 0.018933
0.162727 0.088861 0.019172
0.192366 0.089136 0.019411
0.222162 0.089413 0.019651
0.252101 0.089692 0.019890
0.282164 0.089973 0.020129
0.312335 0.090256 0.020369
0.342598 0.090540 0.020607
0.372935 0.090826 0.020846
0.403330 0.091113 0.021083
0.433766 0.091401 0.021320
0.464226 0.091691 0.021557
0.494694 0.091981 0.021792
0.525153 0.092271 0.022026
0.555585 0.092562 0.022259
0.585975 0.092853 0.022491
0.616305 0.093145 0.022721
0.646559 0.093436 0.022950
0.676720 0.093727 0.023177
0.706771 0.094017 0.023403
0.736695 0.094307 0.023627
0.766475 0.094596 0.023849
0.796096 0.094884 0.024069
0.825539 0.095170 0.024287
0.854788 0.095456 0.024503
0.883826 0.095739 0.024717
0.912637 0.096021 0.024928
0.941203 0.096301 0.025137
0.003450 0.117673 0.018688
0.018483 0.117817 0.018803
0.047088 0.118081 0.019035
0.075934 0.118348 0.019269
0.105006 0.118618 0.019503
0.134286 0.118891 0.019738
0.163757 0.119166 0.019974
0.193404 0.119443 0.020209
0.223208 0.119723 0.020445
0.253154 0.120004 0.020681
0.283224 0.120288 0.020917
0.313403 0.120573 0.021153
0.343673 0.120860 0.021388
0.374017 0.121149 0.021623
0.404419 0.121438 0.021858
0.434861 0.121729 0.022091
0.465328 0.122020 0.022324
0.495803 0.122312 0.022557
0.526268 0.122605 0.022788
0.556706 0.122898 0.023018
0.587102 0.123192 0.023247
0.617439 0.123485 0.023474
0.647698 0.123778 0.023700
0.677865 0.124071 0.023925
0.707921 0.124363 0.024148
0.737850 0.124655 0.024370
0.767636 0.124945 0.024589
0.797261 0.125235 0.024807
0.826709 0.125523 0.025023
0.855963 0.125810 0.025236
0.885006 0.126095 0.025448
0.913821 0.126379 0.025657
0.942392 0.126660 0.025864
0.004333 0.148188 0.019504
0.019509 0.148336 0.019616
0.048121 0.148602 0.019845
0.076975 0.148872 0.020075
0.106054 0.149144 0.020306
0.135342 0.149419 0.020537
0.164820 0.149697 0.020769
0.194474 0.149977 0.021001
0.224286 0.150259 0.021234
0.254239 0.150543 0.021467
0.284316 0.150829 0.021699
0.314502 0.151117 0.021932
0.344778 0.151406 0.022164
0.375129 0.151696 0.022396
0.405537 0.151988 0.022627
0.435986 0.152281 0.022858
0.466459 0.152575 0.023088
0.496940 0.152869 0.023317
0.527411 0.153164 0.023545
0.557855 0.153459 0.023773
0.588257 0.153754 0.023999
0.618599 0.154050 0.024224
0.648864 0.154345 0.024447
0.679035 0.154639 0.024670
0.709097 0.154933 0.024890
0.739031 0.155226 0.025109
0.768821 0.155519 0.025327
0.798451 0.155810 0.025542
0.827904 0.156100 0.025756
0.857162 0.156388 0.025968
0.886209 0.156675 0.026177
0.915028 0.156960 0.026385
0.943603 0.157242 0.026590
0.005221 0.178911 0.020312
0.020567 0.179062 0.020422
0.049187 0.179332 0.020648
0.078049 0.179604 0.020874
0.107135 0.179878 0.021102
0.136429 0.180156 0.021330
0.165915 0.180436 0.021558
0.195575 0.180718 0.021787
0.225394 0.181003 0.022017
0.255353 0.181289 0.022246
0.285438 0.181577 0.022476
0.315629 0.181867 0.022705
0.345912 0.182159 0.022934
0.376269 0.182451 0.023163
0.406684 0.182745 0.023392
0.437139 0.183040 0.023619
0.467618 0.183336 0.023847
0.498104 0.183632 0.024073
0.528580 0.183929 0.024299
0.559030 0.184226 0.024524
0.589437 0.184523 0.024747
0.619784 0.184820 0.024970
0.650054 0.185117 0.025191
0.680230 0.185413 0.025411
0.710296 0.185709 0.025630
0.740235 0.186003 0.025846
0.770030 0.186297 0.026062
0.799664 0.186590 0.026275
0.829120 0.186881 0.026487
0.858382 0.187171 0.026697
0.887433 0.187459 0.026905
0.916256 0.187745 0.027110
0.944834 0.188029 0.027314
0.006116 0.209824 0.021112
0.021658 0.209979 0.021221
0.050285 0.210251 0.021443
0.079153 0.210525 0.021667
0.108246 0.210802 0.021891
0.137547 0.211082 0.022116
0.167039 0.211364 0.022341
0.196706 0.211649 0.022567
0.226531 0.211936 0.022793
0.256497 0.212224 0.023020
0.286587 0.212515 0.023246
0.316785 0.212807 0.023473
0.347074 0.213100 0.023699
0.377436 0.213395 0.023926
0.407856 0.213691 0.024151
0.438317 0.213987 0.024377
0.468801 0.214285 0.024601
0.499293 0.214583 0.024825
0.529774 0.214881 0.025049
0.560229 0.215180 0.025271
0.590641 0.215479 0.025492
0.620993 0.215777 0.025713
0.651267 0.216076 0.025932
0.681448 0.216374 0.026150
0.711518 0.216671 0.026366
0.741461 0.216967 0.026581
0.771260 0.217262 0.026795
0.800897 0.217556 0.027006
0.830357 0.217848 0.027216
0.859623 0.218139 0.027425
0.888677 0.218428 0.027631
0.917503 0.218715 0.027835
0.946084 0.219000 0.028037
0.007015 0.240908 0.021905
0.022778 0.241068 0.022013
0.051412 0.241342 0.022232
0.080286 0.241618 0.022452
0.109385 0.241898 0.022673
0.138693 0.242180 0.022895
0.168191 0.242464 0.023118
0.197864 0.242750 0.023341
0.227695 0.243039 0.023564
0.257666 0.243330 0.023788
0.287762 0.243622 0.024012
0.317966 0.243916 0.024236
0.348260 0.244211 0.024460
0.378628 0.244508 0.024683
0.409053 0.244806 0.024907
0.439519 0.245104 0.025129
0.470008 0.245403 0.025352
0.500505 0.245703 0.025574
0.530991 0.246003 0.025795
0.561450 0.246303 0.026015
0.591866 0.246604 0.026234
0.622222 0.246904 0.026452
0.652501 0.247203 0.026670
0.682685 0.247502 0.026886
0.712759 0.247801 0.027100
0.742706 0.248098 0.027314
0.772508 0.248395 0.027525
0.802149 0.248690 0.027736
0.831612 0.248983 0.027944
0.860881 0.249275 0.028151
0.889938 0.249565 0.028356
0.918766 0.249853 0.028559
0.947350 0.250139 0.028760
0.007918 0.272145 0.022690
0.023927 0.272309 0.022797
0.052566 0.272585 0.023014
0.081446 0.272864 0.023231
0.110552 0.273145 0.023449
0.139865 0.273429 0.023669
0.169369 0.273715 0.023888
0.199047 0.274004 0.024109
0.228884 0.274295 0.024330
0.258861 0.274587 0.024551
0.288962 0.274881 0.024772
0.319170 0.275177 0.024994
0.349470 0.275474 0.025215
0.379843 0.275772 0.025436
0.410273 0.276071 0.025657
0.440743 0.276372 0.025878
0.471237 0.276672 0.026098
0.501737 0.276974 0.026318
0.532228 0.277275 0.026537
0.562691 0.277577 0.026755
0.593111 0.277878 0.026973
0.623471 0.278180 0.027189
0.653753 0.278481 0.027405
0.683941 0.278781 0.027619
0.714019 0.279081 0.027832
0.743968 0.279379 0.028044
0.773773 0.279677 0.028254
0.803417 0.279973 0.028463
0.832883 0.280267 0.028670
0.862154 0.280560 0.028876
0.891214 0.280851 0.029080
0.920045 0.281140 0.029282
0.948630 0.281426 0.029481
0.008826 0.303517 0.023468
0.025101 0.303685 0.023575
0.053746 0.303963 0.023788
0.082632 0.304244 0.024003
0.111742 0.304527 0.024219
0.141061 0.304813 0.024436
0.170570 0.305101 0.024653
0.200254 0.305391 0.024871
0.230095 0.305683 0.025090
0.260077 0.305978 0.025308
0.290183 0.306273 0.025527
0.320397 0.306571 0.025747
0.350700 0.306869 0.025966
0.381078 0.307169 0.026185
0.411512 0.307470 0.026404
0.441987 0.307771 0.026623
0.472485 0.308074 0.026841
0.502989 0.308376 0.027059
0.533483 0.308679 0.027276
0.563950 0.308982 0.027493
0.594374 0.309285 0.027709
0.624737 0.309587 0.027924
0.655022 0.309889 0.028138
0.685213 0.310191 0.028350
0.715293 0.310491 0.028562
0.745246 0.310791 0.028773
0.775053 0.311089 0.028982
0.804700 0.311386 0.029190
0.834168 0.311681 0.029396
0.863441 0.311975 0.029600
0.892502 0.312266 0.029803
0.921335 0.312556 0.030004
0.949923 0.312843 0.030203
0.009737 0.335004 0.024239
0.026299 0.335177 0.024346
0.054949 0.335456 0.024557
0.083840 0.335739 0.024769
0.112956 0.336024 0.024983
0.142279 0.336311 0.025197
0.171793 0.336601 0.025412
0.201482 0.336893 0.025628
0.231328 0.337187 0.025844
0.261314 0.337483 0.026061
0.291424 0.337780 0.026278
0.321642 0.338079 0.026495
0.351950 0.338379 0.026712
0.382331 0.338680 0.026930
0.412770 0.338982 0.027147
0.443248 0.339285 0.027364
0.473749 0.339588 0.027580
0.504257 0.339892 0.027797
0.534755 0.340196 0.028012
0.565225 0.340500 0.028228
0.595651 0.340804 0.028442
0.626017 0.341107 0.028656
0.656305 0.341410 0.028868
0.686499 0.341712 0.029080
0.716581 0.342014 0.029291
0.746536 0.342314 0.029500
0.776346 0.342613 0.029708
0.805994 0.342911 0.029915
0.835464 0.343206 0.030120
0.864739 0.343501 0.030324
0.893802 0.343793 0.030526
0.922636 0.344083 0.030726
0.951224 0.344370 0.030925
0.010650 0.366589 0.025004
0.027519 0.366766 0.025110
0.056174 0.367047 0.025319
0.085069 0.367331 0.025529
0.114190 0.367617 0.025741
0.143517 0.367906 0.025953
0.173036 0.368198 0.026166
0.202729 0.368491 0.026380
0.232578 0.368786 0.026594
0.262569 0.369083 0.026809
0.292683 0.369382 0.027024
0.322905 0.369682 0.027239
0.353216 0.369983 0.027455
0.383601 0.370286 0.027671
0.414043 0.370589 0.027886
0.444524 0.370893 0.028102
0.475029 0.371197 0.028317
0.505539 0.371502 0.028532
0.536040 0.371807 0.028746
0.566513 0.372112 0.028960
0.596942 0.372417 0.029173
0.627310 0.372721 0.029385
0.657600 0.373025 0.029597
0.687796 0.373328 0.029808
0.717880 0.373630 0.030018
0.747837 0.373931 0.030226
0.777648 0.374230 0.030433
0.807298 0.374528 0.030640
0.836769 0.374825 0.030844
0.866045 0.375119 0.031047
0.895109 0.375412 0.031249
0.923944 0.375702 0.031449
0.952534 0.375990 0.031647
0.011566 0.398252 0.025761
0.028758 0.398433 0.025869
0.057417 0.398715 0.026076
0.086317 0.399001 0.026284
0.115441 0.399289 0.026493
0.144773 0.399579 0.026703
0.174296 0.399872 0.026915
0.203992 0.400166 0.027127
0.233846 0.400463 0.027339
0.263840 0.400761 0.027552
0.293957 0.401061 0.027766
0.324182 0.401362 0.027980
0.354497 0.401665 0.028194
0.384885 0.401968 0.028408
0.415329 0.402272 0.028622
0.445813 0.402577 0.028836
0.476320 0.402883 0.029050
0.506834 0.403188 0.029264
0.537336 0.403494 0.029477
0.567811 0.403800 0.029690
0.598242 0.404105 0.029902
0.628612 0.404410 0.030114
0.658904 0.404714 0.030325
0.689102 0.405018 0.030534
0.719188 0.405320 0.030743
0.749145 0.405622 0.030951
0.778958 0.405922 0.031158
0.808609 0.406220 0.031364
0.838081 0.406517 0.031568
0.867358 0.406812 0.031771
0.896422 0.407104 0.031972
0.925258 0.407395 0.032172
0.953848 0.407683 0.032370
0.012483 0.429974 0.026513
0.030015 0.430160 0.026621
0.058677 0.430444 0.026826
0.087581 0.430730 0.027033
0.116709 0.431019 0.027240
0.146044 0.431311 0.027449
0.175570 0.431605 0.027659
0.205270 0.431901 0.027869
0.235127 0.432198 0.028080
0.265124 0.432498 0.028292
0.295245 0.432799 0.028504
0.325472 0.433101 0.028716
0.355789 0.433404 0.028929
0.386180 0.433708 0.029142
0.416627 0.434013 0.029355
0.447113 0.434319 0.029568
0.477622 0.434625 0.029781
0.508138 0.434931 0.029994
0.538642 0.435238 0.030206
0.569119 0.435544 0.030418
0.599551 0.435850 0.030630
0.629923 0.436155 0.030841
0.660216 0.436460 0.031051
0.690414 0.436764 0.031260
0.720501 0.437067 0.031469
0.750460 0.437369 0.031676
0.780273 0.437669 0.031883
0.809925 0.437967 0.032088
0.839397 0.438264 0.032292
0.868674 0.438559 0.032495
0.897739 0.438852 0.032696
0.926574 0.439142 0.032896
0.955164 0.439430 0.033094
0.013402 0.461738 0.027258
0.031286 0.461927 0.027368
0.059952 0.462213 0.027572
0.088859 0.462500 0.027777
0.117990 0.462791 0.027983
0.147329 0.463083 0.028190
0.176857 0.463378 0.028398
0.206560 0.463675 0.028607
0.236419 0.463974 0.028817
0.266419 0.464274 0.029027
0.296542 0.464575 0.029238
0.326772 0.464878 0.029450
0.357092 0.465183 0.029661
0.387484 0.465488 0.029873
0.417933 0.465793 0.030086
0.448421 0.466100 0.030298
0.478932 0.466406 0.030510
0.509449 0.466713 0.030722
0.539955 0.467020 0.030934
0.570433 0.467326 0.031145
0.600866 0.467633 0.031356
0.631238 0.467939 0.031567
0.661532 0.468244 0.031776
0.691731 0.468548 0.031986
0.721819 0.468851 0.032194
0.751778 0.469152 0.032401
0.781591 0.469453 0.032608
0.811243 0.469751 0.032813
0.840715 0.470048 0.033017
0.869992 0.470343 0.033220
0.899056 0.470635 0.033421
0.927892 0.470926 0.033621
0.956481 0.471213 0.033819
0.014321 0.493523 0.027998
0.032570 0.493717 0.028110
0.061239 0.494004 0.028312
0.090149 0.494292 0.028516
0.119282 0.494584 0.028721
0.148623 0.494877 0.028927
0.178155 0.495173 0.029134
0.207860 0.495470 0.029341
0.237721 0.495770 0.029550
0.267723 0.496071 0.029760
0.297848 0.496373 0.029970
0.328080 0.496677 0.030180
0.358401 0.496981 0.030391
0.388795 0.497287 0.030602
0.419245 0.497593 0.030814
0.449735 0.497900 0.031025
0.480247 0.498207 0.031237
0.510765 0.498514 0.031449
0.541271 0.498821 0.031660
0.571750 0.499128 0.031871
0.602184 0.499435 0.032082
0.632557 0.499740 0.032292
0.662851 0.500046 0.032502
0.693050 0.500350 0.032711
0.723138 0.500653 0.032919
0.753096 0.500954 0.033127
0.782910 0.501255 0.033333
0.812561 0.501553 0.033539
0.842033 0.501850 0.033743
0.871309 0.502144 0.033946
0.900372 0.502437 0.034148
0.929207 0.502727 0.034348
0.957795 0.503014 0.034547
0.015241 0.525313 0.028734
0.033863 0.525511 0.028847
0.062535 0.525798 0.029048
0.091447 0.526087 0.029251
0.120583 0.526379 0.029454
0.149926 0.526674 0.029659
0.179460 0.526970 0.029865
0.209166 0.527268 0.030072
0.239030 0.527568 0.030280
0.269033 0.527870 0.030489
0.299160 0.528173 0.030698
0.329393 0.528477 0.030908
0.359715 0.528782 0.031118
0.390110 0.529088 0.031329
0.420562 0.529394 0.031540
0.451052 0.529701 0.031751
0.481565 0.530009 0.031963
0.512083 0.530316 0.032174
0.542590 0.530623 0.032385
0.573069 0.530930 0.032596
0.603503 0.531237 0.032807
0.633875 0.531543 0.033017
0.664170 0.531848 0.033227
0.694369 0.532152 0.033436
0.724455 0.532454 0.033645
0.754414 0.532756 0.033853
0.784226 0.533056 0.034060
0.813876 0.533354 0.034265
0.843347 0.533650 0.034470
0.872622 0.533944 0.034674
0.901685 0.534236 0.034876
0.930517 0.534526 0.035077
0.959104 0.534813 0.035277
0.016160 0.557087 0.029464
0.035165 0.557289 0.029580
0.063838 0.557577 0.029780
0.092752 0.557867 0.029982
0.121890 0.558160 0.030184
0.151235 0.558454 0.030389
0.180770 0.558751 0.030594
0.210478 0.559050 0.030800
0.240343 0.559350 0.031007
0.270347 0.559652 0.031216
0.300475 0.559956 0.031424
0.330709 0.560260 0.031634
0.361032 0.560565 0.031844
0.391428 0.560871 0.032054
0.421879 0.561178 0.032265
0.452370 0.561485 0.032476
0.482883 0.561792 0.032688
0.513401 0.562100 0.032899
0.543908 0.562407 0.033110
0.574386 0.562714 0.033321
0.604820 0.563020 0.033532
0.635192 0.563326 0.033743
0.665486 0.563631 0.033953
0.695684 0.563934 0.034163
0.725770 0.564237 0.034372
0.755727 0.564538 0.034580
0.785538 0.564838 0.034787
0.815187 0.565135 0.034994
0.844656 0.565431 0.035199
0.873930 0.565725 0.035404
0.902990 0.566016 0.035607
0.931821 0.566305 0.035809
0.960406 0.566591 0.036009
0.017078 0.588827 0.030190
0.036471 0.589033 0.030309
0.065147 0.589321 0.030508
0.094062 0.589612 0.030709
0.123201 0.589905 0.030911
0.152547 0.590200 0.031115
0.182083 0.590498 0.031320
0.211792 0.590797 0.031525
0.241658 0.591097 0.031732
0.271663 0.591399 0.031940
0.301791 0.591703 0.032149
0.332025 0.592007 0.032358
0.362348 0.592313 0.032568
0.392744 0.592619 0.032778
0.423196 0.592926 0.032989
0.453686 0.593233 0.033200
0.484199 0.593540 0.033412
0.514716 0.593847 0.033623
0.545223 0.594154 0.033835
0.575701 0.594461 0.034046
0.606133 0.594767 0.034258
0.636504 0.595072 0.034469
0.666797 0.595376 0.034680
0.696993 0.595680 0.034890
0.727078 0.595982 0.035100
0.757033 0.596282 0.035309
0.786843 0.596581 0.035517
0.816490 0.596878 0.035724
0.845957 0.597173 0.035931
0.875229 0.597466 0.036136
0.904287 0.597757 0.036340
0.933116 0.598045 0.036543
0.961698 0.598330 0.036745
0.017994 0.620514 0.030912
0.037781 0.620724 0.031034
0.066457 0.621013 0.031233
0.095373 0.621304 0.031433
0.124513 0.621597 0.031635
0.153860 0.621893 0.031838
0.183396 0.622190 0.032043
0.213106 0.622489 0.032248
0.242972 0.622790 0.032455
0.272977 0.623092 0.032663
0.303105 0.623396 0.032872
0.333339 0.623700 0.033081
0.363662 0.624006 0.033291
0.394058 0.624312 0.033502
0.424509 0.624618 0.033713
0.454999 0.624925 0.033924
0.485510 0.625232 0.034136
0.516027 0.625539 0.034348
0.546532 0.625845 0.034560
0.577009 0.626152 0.034772
0.607440 0.626457 0.034984
0.637810 0.626762 0.035196
0.668100 0.627066 0.035407
0.698295 0.627368 0.035619
0.728378 0.627670 0.035829
0.758331 0.627970 0.036039
0.788138 0.628268 0.036248
0.817783 0.628564 0.036457
0.847248 0.628858 0.036665
0.876517 0.629150 0.036871
0.905573 0.629440 0.037077
0.934399 0.629727 0.037281
0.962978 0.630011 0.037484
0.018908 0.652130 0.031631
0.039090 0.652344 0.031756
0.067767 0.652633 0.031954
0.096684 0.652924 0.032154
0.125824 0.653218 0.032356
0.155171 0.653513 0.032559
0.184708 0.653811 0.032764
0.214417 0.654110 0.032970
0.244283 0.654410 0.033176
0.274288 0.654713 0.033384
0.304415 0.655016 0.033593
0.334649 0.655320 0.033803
0.364971 0.655625 0.034013
0.395366 0.655931 0.034224
0.425816 0.656237 0.034436
0.456304 0.656543 0.034648
0.486815 0.656850 0.034860
0.517330 0.657156 0.035073
0.547834 0.657462 0.035286
0.578309 0.657768 0.035499
0.608738 0.658073 0.035712
0.639106 0.658377 0.035924
0.669394 0.658680 0.036137
0.699587 0.658982 0.036349
0.729667 0.659282 0.036561
0.759618 0.659581 0.036772
0.789422 0.659879 0.036983
0.819064 0.660174 0.037192
0.848526 0.660467 0.037401
0.877792 0.660758 0.037609
0.906845 0.661047 0.037816
0.935667 0.661333 0.038022
0.964243 0.661616 0.038227
0.019820 0.683656 0.032347
0.040398 0.683873 0.032475
0.069075 0.684162 0.032673
0.097991 0.684453 0.032873
0.127132 0.684747 0.033075
0.156478 0.685042 0.033279
0.186014 0.685340 0.033483
0.215723 0.685639 0.033689
0.245588 0.685939 0.033896
0.275593 0.686241 0.034105
0.305719 0.686544 0.034314
0.335952 0.686848 0.034524
0.366273 0.687153 0.034735
0.396666 0.687458 0.034947
0.427115 0.687763 0.035159
0.457602 0.688069 0.035372
0.488110 0.688375 0.035585
0.518624 0.688681 0.035799
0.549125 0.688986 0.036012
0.579598 0.689291 0.036226
0.610025 0.689595 0.036440
0.640390 0.689898 0.036654
0.670676 0.690200 0.036868
0.700866 0.690501 0.037082
0.730943 0.690801 0.037295
0.760891 0.691099 0.037507
0.790692 0.691395 0.037719
0.820331 0.691689 0.037931
0.849790 0.691981 0.038141
0.879052 0.692271 0.038351
0.908101 0.692558 0.038560
0.936920 0.692843 0.038767
0.965492 0.693125 0.038974
0.020729 0.715073 0.033060
0.041700 0.715294 0.033191
0.070377 0.715582 0.033390
0.099294 0.715873 0.033590
0.128433 0.716167 0.033792
0.157779 0.716462 0.033996
0.187314 0.716759 0.034201
0.217022 0.717058 0.034408
0.246886 0.717358 0.034615
0.276889 0.717659 0.034824
0.307015 0.717962 0.035034
0.337245 0.718265 0.035245
0.367565 0.718569 0.035457
0.397956 0.718874 0.035669
0.428403 0.719179 0.035882
0.458888 0.719484 0.036096
0.489394 0.719789 0.036311
0.519905 0.720094 0.036525
0.550404 0.720398 0.036740
0.580874 0.720702 0.036956
0.611298 0.721005 0.037171
0.641660 0.721307 0.037386
0.671943 0.721608 0.037602
0.702130 0.721908 0.037817
0.732204 0.722207 0.038031
0.762148 0.722503 0.038246
0.791946 0.722798 0.038459
0.821581 0.723091 0.038673
0.851036 0.723382 0.038885
0.880294 0.723670 0.039096
0.909339 0.723956 0.039307
0.938154 0.724239 0.039517
0.966722 0.724520 0.039725
0.021633 0.746362 0.033771
0.042996 0.746586 0.033906
0.071672 0.746874 0.034105
0.100588 0.747165 0.034306
0.129726 0.747458 0.034508
0.159071 0.747753 0.034712
0.188605 0.748050 0.034918
0.218312 0.748348 0.035125
0.248174 0.748647 0.035334
0.278175 0.748948 0.035543
0.308299 0.749250 0.035754
0.338528 0.749553 0.035966
0.368845 0.749856 0.036179
0.399234 0.750160 0.036392
0.429678 0.750464 0.036607
0.460160 0.750768 0.036822
0.490664 0.751072 0.037037
0.521172 0.751376 0.037254
0.551668 0.751679 0.037470
0.582135 0.751982 0.037687
0.612556 0.752284 0.037904
0.642914 0.752585 0.038121
0.673194 0.752885 0.038338
0.703377 0.753184 0.038554
0.733447 0.753481 0.038771
0.763387 0.753776 0.038987
0.793181 0.754070 0.039203
0.822812 0.754361 0.039418
0.852263 0.754650 0.039632
0.881517 0.754937 0.039846
0.910557 0.755222 0.040059
0.939367 0.755503 0.040270
0.967931 0.755782 0.040481
0.022534 0.777505 0.034480
0.044283 0.777732 0.034619
0.072957 0.778020 0.034818
0.101872 0.778310 0.035020
0.131009 0.778602 0.035223
0.160352 0.778897 0.035428
0.189884 0.779193 0.035634
0.219589 0.779490 0.035842
0.249449 0.779789 0.036052
0.279448 0.780089 0.036262
0.309570 0.780390 0.036474
0.339796 0.780692 0.036687
0.370111 0.780994 0.036901
0.400497 0.781297 0.037116
0.430938 0.781600 0.037332
0.461417 0.781904 0.037549
0.491918 0.782207 0.037766
0.522422 0.782509 0.037983
0.552915 0.782812 0.038202
0.583378 0.783113 0.038420
0.613796 0.783414 0.038639
0.644150 0.783714 0.038858
0.674425 0.784012 0.039076
0.704604 0.784309 0.039295
0.734670 0.784605 0.039514
0.764606 0.784899 0.039732
0.794396 0.785191 0.039950
0.824022 0.785480 0.040167
0.853468 0.785768 0.040384
0.882717 0.786053 0.040600
0.911753 0.786336 0.040815
0.940558 0.786616 0.041029
0.969116 0.786893 0.041241
0.023430 0.808482 0.035187
0.045558 0.808712 0.035330
0.074231 0.809000 0.035530
0.103143 0.809289 0.035733
0.132279 0.809581 0.035937
0.161620 0.809875 0.036143
0.191150 0.810170 0.036350
0.220852 0.810467 0.036559
0.250710 0.810765 0.036770
0.280706 0.811064 0.036982
0.310825 0.811364 0.037195
0.341048 0.811665 0.037409
0.371360 0.811966 0.037625
0.401743 0.812268 0.037841
0.432181 0.812570 0.038059
0.462656 0.812872 0.038277
0.493153 0.813173 0.038496
0.523654 0.813475 0.038715
0.554143 0.813776 0.038935
0.584602 0.814076 0.039156
0.615015 0.814375 0.039376
0.645365 0.814673 0.039597
0.675636 0.814970 0.039818
0.705810 0.815266 0.040039
0.735872 0.815560 0.040260
0.765803 0.815852 0.040480
0.795587 0.816142 0.040700
