colorkit/colorkit/luts/moody_blue.cube
TITLE "moody_blue"
LUT_3D_SIZE 9
DOMAIN_MIN 0.0 0.0 0.0
DOMAIN_MAX 1.0 1.0 1.0
0.000046 0.000046 0.015406
0.101221 0.000935 0.016284
0.219290 0.001971 0.017288
0.339628 0.003028 0.018289
0.461163 0.004095 0.019280
0.582825 0.005163 0.020253
0.703541 0.006222 0.021200
0.822236 0.007264 0.022115
0.937836 0.008279 0.022992
0.003450 0.117673 0.018688
0.105006 0.118618 0.019503
0.223208 0.119723 0.020445
0.343673 0.120860 0.021388
0.465328 0.122020 0.022324
0.587102 0.123192 0.023247
0.707921 0.124363 0.024148
0.826709 0.125523 0.025023
0.942392 0.126660 0.025864
0.007015 0.240908 0.021905
0.109385 0.241898 0.022673
0.227695 0.243039 0.023564
0.348260 0.244211 0.024460
0.470008 0.245403 0.025352
0.591866 0.246604 0.026234
0.712759 0.247801 0.027100
0.831612 0.248983 0.027944
0.947350 0.250139 0.028760
0.010650 0.366589 0.025004
0.114190 0.367617 0.025741
0.232578 0.368786 0.026594
0.353216 0.369983 0.027455
0.475029 0.371197 0.028317
0.596942 0.372417 0.029173
0.717880 0.373630 0.030018
0.836769 0.374825 0.030844
0.952534 0.375990 0.031647
0.014321 0.493523 0.027998
0.119282 0.494584 0.028721
0.237721 0.495770 0.029550
0.358401 0.496981 0.030391
0.480247 0.498207 0.031237
0.602184 0.499435 0.032082
0.723138 0.500653 0.032919
0.842033 0.501850 0.033743
0.957795 0.503014 0.034547
0.017994 0.620514 0.030912
0.124513 0.621597 0.031635
0.242972 0.622790 0.032455
0.363662 0.624006 0.033291
0.485510 0.625232 0.034136
0.607440 0.626457 0.034984
0.728378 0.627670 0.035829
0.847248 0.628858 0.036665
0.962978 0.630011 0.037484
0.021633 0.746362 0.033771
0.129726 0.747458 0.034508
0.248174 0.748647 0.035334
0.368845 0.749856 0.036179
0.490664 0.751072 0.037037
0.612556 0.752284 0.037904
0.733447 0.753481 0.038771
0.852263 0.754650 0.039632
0.967931 0.755782 0.040481
0.025205 0.869868 0.036598
0.134771 0.870967 0.037363
0.253179 0.872142 0.038207
0.373801 0.873334 0.039075
0.495561 0.874530 0.039962
0.617386 0.875719 0.040860
0.738201 0.876889 0.041763
0.856934 0.878031 0.042664
0.972514 0.879132 0.043554
0.028640 0.988640 0.039376
0.139471 0.989613 0.040176
0.257810 0.990652 0.041048
0.378353 0.991709 0.041950
0.500025 0.992777 0.042874
0.621754 0.993846 0.043814
0.742465 0.994905 0.044763
0.861088 0.995947 0.045713
0.976553 0.996960 0.046656
0.000413 0.000413 0.137735
0.101606 0.001302 0.138605
0.219691 0.002338 0.139602
0.340043 0.003395 0.140596
0.461592 0.004462 0.141580
0.583267 0.005530 0.142547
0.703995 0.006590 0.143488
0.822701 0.007632 0.144398
0.938310 0.008646 0.145270
0.003817 0.118058 0.140993
0.105439 0.119008 0.141802
0.223654 0.120117 0.142738
0.344130 0.121258 0.143676
0.465797 0.122422 0.144607
0.587581 0.123597 0.145524
0.708408 0.124772 0.146422
0.827204 0.125935 0.147292
0.942894 0.127074 0.148130
0.007383 0.241307 0.144190
0.109857 0.242301 0.144954
0.228176 0.243446 0.145840
0.348750 0.244621 0.146732
0.470507 0.245815 0.147620
0.592372 0.247018 0.148499
0.713271 0.248217 0.149362
0.832128 0.249402 0.150204
0.947870 0.250559 0.151017
0.011018 0.366998 0.147273
0.114691 0.368031 0.148007
0.233086 0.369202 0.148858
0.353729 0.370401 0.149716
0.475547 0.371616 0.150575
0.597463 0.372837 0.151430
0.718405 0.374051 0.152273
0.837296 0.375247 0.153099
0.953061 0.376412 0.153901
0.014690 0.493940 0.150257
0.119802 0.495003 0.150978
0.238245 0.496191 0.151806
0.358927 0.497403 0.152646
0.480774 0.498629 0.153491
0.602712 0.499857 0.154336
0.723666 0.501075 0.155173
0.842560 0.502272 0.155998
0.958320 0.503435 0.156802
0.018362 0.620935 0.153165
0.125041 0.622020 0.153889
0.243500 0.623213 0.154709
0.364190 0.624428 0.155545
0.486036 0.625654 0.156391
0.607964 0.626878 0.157240
0.728898 0.628089 0.158087
0.847764 0.629276 0.158924
0.963489 0.630428 0.159746
0.022002 0.746783 0.156024
0.130251 0.747879 0.156764
0.248696 0.749068 0.157590
0.369363 0.750275 0.158437
0.491178 0.751490 0.159298
0.613064 0.752700 0.160167
0.733949 0.753894 0.161037
0.852757 0.755061 0.161902
0.968418 0.756191 0.162754
0.025573 0.870285 0.158856
0.135283 0.871384 0.159624
0.253685 0.872557 0.160471
0.374300 0.873747 0.161343
0.496053 0.874940 0.162233
0.617869 0.876126 0.163135
0.738675 0.877293 0.164043
0.857398 0.878431 0.164948
0.972966 0.879528 0.165844
0.029007 0.989007 0.161642
0.139959 0.989981 0.162447
0.258289 0.991019 0.163324
0.378823 0.992077 0.164230
0.500485 0.993145 0.165159
0.622202 0.994213 0.166104
0.742901 0.995273 0.167060
0.861511 0.996314 0.168016
0.976962 0.997328 0.168965
0.000791 0.000791 0.263731
0.102008 0.001680 0.264594
0.220108 0.002717 0.265583
0.340475 0.003773 0.266570
0.462038 0.004840 0.267547
0.583726 0.005908 0.268507
0.704466 0.006968 0.269443
0.823183 0.008010 0.270347
0.938802 0.009025 0.271214
0.004195 0.118456 0.266964
0.105890 0.119411 0.267768
0.224117 0.120524 0.268698
0.344605 0.121670 0.269630
0.466283 0.122837 0.270556
0.588077 0.124015 0.271469
0.708913 0.125193 0.272362
0.827717 0.126359 0.273229
0.943414 0.127501 0.274064
0.007761 0.241719 0.270141
0.110347 0.242717 0.270901
0.228675 0.243865 0.271783
0.349258 0.245043 0.272670
0.471022 0.246241 0.273555
0.592894 0.247446 0.274431
0.713799 0.248647 0.275291
0.832662 0.249833 0.276131
0.948407 0.250992 0.276942
0.011397 0.367421 0.273208
0.115210 0.368457 0.273941
0.233611 0.369630 0.274788
0.354260 0.370831 0.275644
0.476082 0.372048 0.276501
0.598002 0.373270 0.277354
0.718946 0.374485 0.278196
0.837839 0.375681 0.279021
0.953605 0.376847 0.279823
0.015069 0.494370 0.276182
0.120339 0.495436 0.276903
0.238785 0.496624 0.277730
0.359469 0.497838 0.278569
0.481318 0.499064 0.279413
0.603256 0.500292 0.280257
0.724209 0.501510 0.281095
0.843102 0.502706 0.281920
0.958859 0.503869 0.282726
0.018741 0.621368 0.279086
0.125585 0.622455 0.279811
0.244044 0.623648 0.280631
0.364733 0.624863 0.281467
0.486577 0.626088 0.282314
0.608502 0.627311 0.283165
0.729432 0.628521 0.284013
0.848294 0.629707 0.284853
0.964013 0.630856 0.285677
0.022381 0.747216 0.281945
0.130791 0.748313 0.282687
0.249233 0.749500 0.283515
0.369896 0.750706 0.284364
0.491705 0.751919 0.285228
0.613586 0.753127 0.286099
0.734463 0.754319 0.286973
0.853264 0.755484 0.287841
0.968916 0.756610 0.288697
0.025953 0.870714 0.284782
0.135808 0.871812 0.285555
0.254204 0.872984 0.286405
0.374812 0.874171 0.287280
0.496556 0.875361 0.288174
0.618363 0.876544 0.289080
0.739159 0.877708 0.289993
0.857871 0.878842 0.290903
0.973428 0.879935 0.291804
0.029385 0.989385 0.287578
0.140459 0.990360 0.288388
0.258780 0.991398 0.289269
0.379303 0.992456 0.290180
0.500954 0.993524 0.291114
0.622659 0.994592 0.292066
0.743345 0.995651 0.293028
0.861941 0.996692 0.293991
0.977379 0.997706 0.294947
0.001176 0.001176 0.392088
0.102424 0.002065 0.392942
0.220540 0.003102 0.393924
0.340921 0.004159 0.394904
0.462498 0.005226 0.395875
0.584199 0.006294 0.396829
0.704950 0.007354 0.397758
0.823677 0.008396 0.398657
0.939306 0.009411 0.399520
0.004581 0.118864 0.395296
0.106354 0.119823 0.396095
0.224593 0.120941 0.397019
0.345093 0.122090 0.397945
0.466781 0.123261 0.398866
0.588585 0.124443 0.399774
0.709431 0.125624 0.400663
0.828243 0.126792 0.401526
0.943946 0.127936 0.402358
0.008147 0.242140 0.398453
0.110850 0.243143 0.399209
0.229187 0.244294 0.400087
0.349778 0.245475 0.400970
0.471550 0.246675 0.401851
0.593429 0.247882 0.402724
0.714339 0.249086 0.403582
0.833206 0.250273 0.404419
0.948955 0.251433 0.405229
0.011783 0.367853 0.401505
0.115741 0.368892 0.402236
0.234148 0.370068 0.403080
0.354802 0.371270 0.403933
0.476628 0.372489 0.404789
0.598552 0.373712 0.405640
0.719499 0.374928 0.406481
0.838393 0.376125 0.407305
0.954160 0.377291 0.408106
0.015455 0.494809 0.404469
0.120887 0.495877 0.405190
0.239336 0.497067 0.406015
0.360022 0.498281 0.406853
0.481872 0.499507 0.407697
0.603810 0.500735 0.408541
0.724762 0.501953 0.409379
0.843653 0.503149 0.410205
0.959408 0.504310 0.411012
0.019128 0.621810 0.407369
0.126139 0.622898 0.408094
0.244597 0.624091 0.408915
0.365285 0.625305 0.409752
0.487127 0.626530 0.410600
0.609049 0.627752 0.411452
0.729975 0.628961 0.412302
0.848832 0.630144 0.413144
0.964545 0.631292 0.413971
0.022767 0.747657 0.410229
0.131340 0.748755 0.410974
0.249778 0.749941 0.411803
0.370437 0.751145 0.412654
0.492240 0.752356 0.413520
0.614114 0.753562 0.414395
0.734984 0.754751 0.415272
0.853777 0.755913 0.416145
0.969420 0.757036 0.417005
0.026339 0.871151 0.413072
0.136341 0.872248 0.413849
0.254730 0.873417 0.414702
0.375330 0.874602 0.415581
0.497066 0.875789 0.416479
0.618863 0.876969 0.417390
0.739649 0.878129 0.418307
0.858349 0.879259 0.419223
0.973895 0.880348 0.420130
0.029770 0.989770 0.415878
0.140965 0.990745 0.416693
0.259276 0.991784 0.417579
0.379789 0.992842 0.418495
0.501428 0.993909 0.419435
0.623120 0.994977 0.420393
0.743793 0.996037 0.421361
0.862375 0.997078 0.422331
0.977797 0.998091 0.423295
0.001564 0.001564 0.521498
0.102850 0.002453 0.522346
0.220980 0.003490 0.523320
0.341376 0.004547 0.524293
0.462966 0.005615 0.525257
0.584680 0.006683 0.526205
0.705442 0.007743 0.527129
0.824180 0.008785 0.528023
0.939818 0.009800 0.528881
0.004970 0.119276 0.524683
0.106827 0.120240 0.525476
0.225078 0.121362 0.526395
0.345589 0.122516 0.527316
0.467288 0.123690 0.528231
0.589101 0.124875 0.529135
0.709955 0.126059 0.530020
0.828775 0.127230 0.530879
0.944484 0.128376 0.531708
0.008536 0.242566 0.527820
0.111360 0.243573 0.528573
0.229707 0.244727 0.529447
0.350306 0.245911 0.530326
0.472085 0.247114 0.531203
0.593970 0.248323 0.532073
0.714886 0.249528 0.532928
0.833757 0.250717 0.533763
0.949510 0.251878 0.534572
0.012173 0.368289 0.530857
0.116278 0.369332 0.531586
0.234692 0.370509 0.532428
0.355350 0.371714 0.533279
0.477181 0.372934 0.534132
0.599107 0.374158 0.534982
0.720056 0.375374 0.535822
0.838951 0.376572 0.536646
0.954718 0.377737 0.537447
0.015845 0.495252 0.533812
0.121441 0.496322 0.534533
0.239892 0.497513 0.535357
0.360580 0.498727 0.536194
0.482431 0.499954 0.537038
0.604369 0.501182 0.537882
0.725319 0.502399 0.538721
0.844208 0.503594 0.539548
0.959960 0.504755 0.540356
0.019517 0.622255 0.536708
0.126698 0.623345 0.537435
0.245155 0.624538 0.538256
0.365842 0.625752 0.539094
0.487681 0.626975 0.539943
0.609599 0.628196 0.540797
0.730521 0.629403 0.541649
0.849372 0.630585 0.542494
0.965079 0.631730 0.543323
0.023157 0.748101 0.539569
0.131892 0.749199 0.540317
0.250327 0.750384 0.541149
0.370980 0.751587 0.542002
0.492778 0.752796 0.542871
0.614645 0.753999 0.543749
0.735507 0.755186 0.544630
0.854291 0.756344 0.545506
0.969925 0.757464 0.546371
0.026728 0.871590 0.542420
0.136876 0.872687 0.543201
0.255258 0.873854 0.544057
0.375850 0.875035 0.544940
0.497577 0.876219 0.545842
0.619364 0.877395 0.546758
0.740138 0.878552 0.547681
0.858827 0.879678 0.548602
0.974360 0.880763 0.549515
0.030158 0.990158 0.545236
0.141472 0.991134 0.546057
0.259773 0.992173 0.546947
0.380274 0.993230 0.547869
0.501901 0.994298 0.548815
0.623580 0.995366 0.549779
0.744238 0.996425 0.550754
0.862806 0.997466 0.551732
0.978213 0.998479 0.552703
0.001952 0.001952 0.650657
0.103280 0.002841 0.651498
0.221425 0.003878 0.652465
0.341834 0.004935 0.653431
0.463438 0.006003 0.654389
0.585164 0.007071 0.655330
0.705938 0.008131 0.656249
0.824686 0.009173 0.657138
0.940332 0.010188 0.657992
0.005358 0.119689 0.653819
0.107303 0.120659 0.654607
0.225566 0.121784 0.655520
0.346088 0.122941 0.656435
0.467797 0.124120 0.657346
0.589620 0.125308 0.658245
0.710482 0.126495 0.659126
0.829308 0.127668 0.659983
0.945024 0.128816 0.660808
0.008925 0.242993 0.656936
0.111873 0.244004 0.657686
0.230228 0.245161 0.658556
0.350835 0.246348 0.659431
0.472621 0.247552 0.660305
0.594512 0.248764 0.661172
0.715433 0.249971 0.662025
0.834308 0.251161 0.662858
0.950064 0.252323 0.663665
0.012561 0.368726 0.659960
0.116817 0.369772 0.660687
0.235236 0.370951 0.661526
0.355899 0.372157 0.662375
0.477733 0.373378 0.663227
0.599663 0.374603 0.664075
0.720613 0.375820 0.664914
0.839509 0.377018 0.665737
0.955276 0.378183 0.666539
0.016233 0.495694 0.662906
0.121995 0.496767 0.663627
0.240448 0.497958 0.664450
0.361137 0.499173 0.665286
0.482988 0.500400 0.666130
0.604926 0.501628 0.666974
0.725875 0.502845 0.667814
0.844761 0.504039 0.668642
0.960510 0.505198 0.669452
0.019906 0.622700 0.665798
0.127255 0.623791 0.666527
0.245712 0.624983 0.667348
0.366396 0.626197 0.668187
0.488232 0.627419 0.669038
0.610146 0.628638 0.669893
0.731063 0.629844 0.670748
0.849909 0.631024 0.671596
0.965610 0.632167 0.672428
0.023546 0.748544 0.668662
0.132442 0.749643 0.669413
0.250872 0.750826 0.670247
0.371520 0.752027 0.671103
0.493312 0.753233 0.671974
0.615172 0.754434 0.672856
0.736026 0.755618 0.673741
0.854801 0.756774 0.674621
0.970425 0.757891 0.675491
0.027117 0.872028 0.671520
0.137407 0.873124 0.672305
0.255782 0.874288 0.673165
0.376366 0.875467 0.674052
0.498083 0.876648 0.674959
0.619859 0.877820 0.675880
0.740622 0.878972 0.676808
0.859299 0.880094 0.677735
0.974819 0.881175 0.678654
0.030545 0.990545 0.674347
0.141974 0.991523 0.675173
0.260265 0.992561 0.676069
0.380754 0.993619 0.676996
0.502369 0.994686 0.677949
0.624034 0.995754 0.678920
0.744678 0.996813 0.679901
0.863231 0.997854 0.680886
0.978622 0.998867 0.681865
0.002334 0.002334 0.778259
0.103710 0.003224 0.779092
0.221869 0.004261 0.780052
0.342292 0.005319 0.781012
0.463909 0.006386 0.781963
0.585646 0.007455 0.782899
0.706431 0.008515 0.783812
0.825188 0.009557 0.784697
0.940844 0.010572 0.785547
0.005741 0.120099 0.781397
0.107778 0.121073 0.782181
0.226052 0.122203 0.783088
0.346585 0.123364 0.783999
0.468304 0.124545 0.784905
0.590135 0.125736 0.785800
0.711005 0.126926 0.786677
0.829838 0.128101 0.787531
0.945559 0.129251 0.788354
0.009308 0.243415 0.784497
0.112383 0.244430 0.785244
0.230746 0.245590 0.786109
0.351361 0.246780 0.786981
0.473153 0.247987 0.787852
0.595049 0.249200 0.788716
0.715975 0.250409 0.789567
0.834854 0.251600 0.790399
0.950612 0.252763 0.791204
0.012945 0.369157 0.787507
0.117352 0.370207 0.788233
0.235776 0.371388 0.789070
0.356443 0.372595 0.789916
0.478280 0.373818 0.790766
0.600212 0.375043 0.791614
0.721164 0.376261 0.792452
0.840060 0.377458 0.793275
0.955826 0.378624 0.794077
0.016617 0.496131 0.790445
0.122543 0.497207 0.791166
0.240998 0.498399 0.791988
0.361688 0.499614 0.792824
0.483539 0.500841 0.793667
0.605476 0.502069 0.794513
0.726423 0.503285 0.795353
0.845306 0.504477 0.796182
0.961051 0.505636 0.796994
0.020290 0.623139 0.793335
0.127806 0.624232 0.794065
0.246261 0.625424 0.794887
0.366943 0.626636 0.795727
0.488776 0.627857 0.796579
0.610686 0.629075 0.797437
0.731597 0.630279 0.798294
0.850437 0.631457 0.799144
0.966131 0.632598 0.799980
0.023930 0.748981 0.796201
0.132984 0.750080 0.796955
0.251409 0.751262 0.797791
0.372052 0.752461 0.798650
0.493837 0.753665 0.799525
0.615689 0.754864 0.800410
0.736535 0.756045 0.801298
0.855301 0.757197 0.802183
0.970915 0.758310 0.803057
0.027501 0.872460 0.799067
0.137929 0.873555 0.799857
0.256297 0.874716 0.800720
0.376871 0.875892 0.801611
0.498579 0.877070 0.802523
0.620345 0.878238 0.803449
0.741096 0.879387 0.804382
0.859760 0.880504 0.805315
0.975268 0.881581 0.806240
0.030927 0.990927 0.801905
0.142466 0.991906 0.802737
0.260746 0.992944 0.803638
0.381224 0.994002 0.804571
0.502826 0.995069 0.805530
0.624478 0.996137 0.806507
0.745107 0.997196 0.807496
0.863645 0.998237 0.808489
0.979021 0.999250 0.809475
0.002708 0.002708 0.902996
0.104136 0.003599 0.903823
0.222309 0.004636 0.904777
0.342745 0.005693 0.905730
0.464373 0.006761 0.906676
0.586122 0.007830 0.907606
0.706916 0.008890 0.908514
0.825683 0.009932 0.909394
0.941346 0.010947 0.910240
0.006116 0.120501 0.906114
0.108247 0.121480 0.906892
0.226532 0.122613 0.907795
0.347074 0.123777 0.908701
0.468802 0.124962 0.909603
0.590642 0.126156 0.910494
0.711519 0.127348 0.911367
0.830358 0.128526 0.912218
0.946084 0.129678 0.913038
0.009684 0.243829 0.909196
0.112885 0.244848 0.909939
0.231255 0.246011 0.910801
0.351877 0.247203 0.911670
0.473675 0.248412 0.912538
0.595577 0.249627 0.913400
0.716506 0.250837 0.914249
0.835388 0.252030 0.915079
0.951149 0.253193 0.915884
0.013321 0.369580 0.912193
0.117876 0.370633 0.912918
0.236305 0.371815 0.913753
0.356976 0.373024 0.914597
0.478816 0.374247 0.915446
0.600749 0.375474 0.916293
0.721702 0.376692 0.917131
0.840598 0.377889 0.917954
0.956364 0.379055 0.918756
0.016993 0.496559 0.915124
0.123080 0.497637 0.915845
0.241536 0.498829 0.916666
0.362227 0.500045 0.917502
0.484077 0.501272 0.918346
0.606013 0.502499 0.919192
0.726958 0.503714 0.920033
0.845838 0.504906 0.920864
0.961579 0.506063 0.921678
0.020666 0.623569 0.918012
0.128344 0.624662 0.918744
0.246797 0.625854 0.919567
0.367476 0.627065 0.920408
0.489306 0.628285 0.921261
0.611211 0.629501 0.922121
0.732117 0.630703 0.922981
0.850951 0.631879 0.923834
0.966638 0.633017 0.924674
0.024305 0.749408 0.920881
0.133512 0.750508 0.921639
0.251933 0.751687 0.922477
0.372570 0.752884 0.923338
0.494348 0.754087 0.924216
0.616192 0.755282 0.925105
0.737029 0.756460 0.925997
0.855786 0.757609 0.926887
0.971390 0.758719 0.927766
0.027876 0.872881 0.923756
0.138437 0.873975 0.924549
0.256797 0.875134 0.925417
0.377363 0.876306 0.926312
0.499060 0.877481 0.927228
0.620815 0.878646 0.928159
0.741555 0.879790 0.929098
0.860207 0.880903 0.930037
0.975702 0.881975 0.930968
0.031301 0.991301 0.926606
0.142943 0.992281 0.927443
0.261213 0.993319 0.928349
0.381679 0.994377 0.929288
0.503268 0.995444 0.930253
0.624906 0.996512 0.931237
0.745521 0.997571 0.932233
0.864044 0.998611 0.933233
0.979404 0.999624 0.934227
0.002888 0.002888 0.962888
0.104350 0.003779 0.963779
0.222530 0.004817 0.964817
0.342974 0.005874 0.965874
0.464610 0.006942 0.966942
0.586366 0.008011 0.968011
0.707167 0.009072 0.969072
0.825939 0.010115 0.970115
0.941608 0.011130 0.971130
0.006297 0.120699 0.966297
0.108486 0.121681 0.967197
0.226778 0.122817 0.968238
0.347327 0.123984 0.969300
0.469061 0.125171 0.970372
0.590906 0.126367 0.971446
0.711788 0.127561 0.972511
0.830631 0.128741 0.973558
0.946361 0.129894 0.974578
0.009866 0.244036 0.969866
0.113145 0.245058 0.970776
0.231521 0.246223 0.971819
0.352147 0.247416 0.972882
0.473950 0.248627 0.973956
0.595855 0.249844 0.975031
0.716787 0.251055 0.976097
0.835672 0.252249 0.977145
0.951434 0.253414 0.978166
0.013505 0.369794 0.973505
0.118152 0.370849 0.974428
0.236584 0.372033 0.975472
0.357258 0.373243 0.976536
0.479100 0.374468 0.977610
0.601035 0.375695 0.978686
0.721989 0.376914 0.979752
0.840886 0.378112 0.980800
0.956652 0.379278 0.981821
0.017180 0.496778 0.977180
0.123365 0.497858 0.978117
0.241823 0.499051 0.979161
0.362514 0.500267 0.980225
0.484365 0.501495 0.981300
0.606300 0.502722 0.982375
0.727244 0.503938 0.983441
0.846123 0.505129 0.984489
0.961862 0.506286 0.985510
0.020855 0.623791 0.980855
0.128631 0.624885 0.981806
0.247084 0.626077 0.982850
0.367762 0.627288 0.983914
0.489590 0.628508 0.984988
0.611493 0.629725 0.986063
0.732397 0.630926 0.987129
0.851227 0.632101 0.988176
0.966910 0.633238 0.989195
0.024497 0.749631 0.984497
0.133795 0.750731 0.985461
0.252214 0.751910 0.986505
0.372848 0.753107 0.987568
0.494622 0.754308 0.988641
0.616462 0.755502 0.989714
0.737295 0.756679 0.990778
0.856046 0.757827 0.991824
0.971645 0.758935 0.992842
0.028070 0.873103 0.988070
0.138710 0.874196 0.989045
0.257065 0.875354 0.990088
0.377626 0.876525 0.991149
0.499318 0.877698 0.992221
0.621067 0.878860 0.993293
0.741800 0.880003 0.994355
0.860445 0.881114 0.995399
0.975932 0.882183 0.996414
0.031496 0.991496 0.991496
0.143199 0.992477 0.992477
0.261463 0.993515 0.993515
0.381922 0.994573 0.994573
0.503503 0.995640 0.995640
0.625133 0.996708 0.996708
0.745740 0.997767 0.997767
0.864253 0.998808 0.998808
0.979604 0.999821 0.999821
