colorkit/colorkit/luts/moody_blue.cube
TITLE "moody_blue"
LUT_3D_SIZE 5
DOMAIN_MIN 0.0 0.0 0.0
DOMAIN_MAX 1.0 1.0 1.0
0.000046 0.000046 0.015406
0.219290 0.001971 0.017288
0.461163 0.004095 0.019280
0.703541 0.006222 0.021200
0.937836 0.008279 0.022992
0.007015 0.240908 0.021905
0.227695 0.243039 0.023564
0.470008 0.245403 0.025352
0.712759 0.247801 0.027100
0.947350 0.250139 0.028760
0.014321 0.493523 0.027998
0.237721 0.495770 0.029550
0.480247 0.498207 0.031237
0.723138 0.500653 0.032919
0.957795 0.503014 0.034547
0.021633 0.746362 0.033771
0.248174 0.748647 0.035334
0.490664 0.751072 0.037037
0.733447 0.753481 0.038771
0.967931 0.755782 0.040481
0.028640 0.988640 0.039376
0.257810 0.990652 0.041048
0.500025 0.992777 0.042874
0.742465 0.994905 0.044763
0.976553 0.996960 0.046656
0.000791 0.000791 0.263731
0.220108 0.002717 0.265583
0.462038 0.004840 0.267547
0.704466 0.006968 0.269443
0.938802 0.009025 0.271214
0.007761 0.241719 0.270141
0.228675 0.243865 0.271783
0.471022 0.246241 0.273555
0.713799 0.248647 0.275291
0.948407 0.250992 0.276942
0.015069 0.494370 0.276182
0.238785 0.496624 0.277730
0.481318 0.499064 0.279413
0.724209 0.501510 0.281095
0.958859 0.503869 0.282726
0.022381 0.747216 0.281945
0.249233 0.749500 0.283515
0.491705 0.751919 0.285228
0.734463 0.754319 0.286973
0.968916 0.756610 0.288697
0.029385 0.989385 0.287578
0.258780 0.991398 0.289269
0.500954 0.993524 0.291114
0.743345 0.995651 0.293028
0.977379 0.997706 0.294947
0.001564 0.001564 0.521498
0.220980 0.003490 0.523320
0.462966 0.005615 0.525257
0.705442 0.007743 0.527129
0.939818 0.009800 0.528881
0.008536 0.242566 0.527820
0.229707 0.244727 0.529447
0.472085 0.247114 0.531203
0.714886 0.249528 0.532928
0.949510 0.251878 0.534572
0.015845 0.495252 0.533812
0.239892 0.497513 0.535357
0.482431 0.499954 0.537038
0.725319 0.502399 0.538721
0.959960 0.504755 0.540356
0.023157 0.748101 0.539569
0.250327 0.750384 0.541149
0.492778 0.752796 0.542871
0.735507 0.755186 0.544630
0.969925 0.757464 0.546371
0.030158 0.990158 0.545236
0.259773 0.992173 0.546947
0.501901 0.994298 0.548815
0.744238 0.996425 0.550754
0.978213 0.998479 0.552703
0.002334 0.002334 0.778259
0.221869 0.004261 0.780052
0.463909 0.006386 0.781963
0.706431 0.008515 0.783812
0.940844 0.010572 0.785547
0.009308 0.243415 0.784497
0.230746 0.245590 0.786109
0.473153 0.247987 0.787852
0.715975 0.250409 0.789567
0.950612 0.252763 0.791204
0.016617 0.496131 0.790445
0.240998 0.498399 0.791988
0.483539 0.500841 0.793667
0.726423 0.503285 0.795353
0.961051 0.505636 0.796994
0.023930 0.748981 0.796201
0.251409 0.751262 0.797791
0.493837 0.753665 0.799525
0.736535 0.756045 0.801298
0.970915 0.758310 0.803057
0.030927 0.990927 0.801905
0.260746 0.992944 0.803638
0.502826 0.995069 0.805530
0.745107 0.997196 0.807496
0.979021 0.999250 0.809475
0.002888 0.002888 0.962888
0.222530 0.004817 0.964817
0.464610 0.006942 0.966942
0.707167 0.009072 0.969072
0.941608 0.011130 0.971130
0.009866 0.244036 0.969866
0.231521 0.246223 0.971819
0.473950 0.248627 0.973956
0.716787 0.251055 0.976097
0.951434 0.253414 0.978166
0.017180 0.496778 0.977180
0.241823 0.499051 0.979161
0.484365 0.501495 0.981300
0.727244 0.503938 0.983441
0.961862 0.506286 0.985510
0.024497 0.749631 0.984497
0.252214 0.751910 0.986505
0.494622 0.754308 0.988641
0.737295 0.756679 0.990778
0.971645 0.758935 0.992842
0.031496 0.991496 0.991496
0.261463 0.993515 0.993515
0.503503 0.995640 0.995640
0.745740 0.997767 0.997767
0.979604 0.999821 0.999821
