colorkit/colorkit/luts/neutral_correct.cube
TITLE "neutral_correct"
LUT_3D_SIZE 5
DOMAIN_MIN 0.0 0.0 0.0
DOMAIN_MAX 1.0 1.0 1.0
0.000000 0.000000 0.000000
0.234656 0.000000 0.000000
0.481983 0.000000 0.000000
0.729309 0.000000 0.000000
0.965751 0.000000 0.000000
0.000000 0.229519 0.000000
0.229271 0.229271 0.000000
0.480747 0.231785 0.000000
0.739804 0.235833 0.000000
0.985013 0.236668 0.000000
0.000000 0.472459 0.000000
0.223188 0.472248 0.000000
0.471528 0.471528 0.000000
0.716766 0.470145 0.000000
0.962396 0.475785 0.000000
0.000000 0.715399 0.000000
0.211498 0.715274 0.000000
0.466854 0.714852 0.000000
0.714040 0.714040 0.000000
0.948665 0.712839 0.000000
0.000000 0.947647 0.000000
0.192786 0.947561 0.000000
0.459841 0.947269 0.000000
0.709988 0.946708 0.000000
0.945878 0.945878 0.000000
0.000000 0.000000 0.231029
0.230531 0.000000 0.230531
0.474578 0.000000 0.228829
0.718556 0.000000 0.225522
0.951781 0.000000 0.220535
0.000000 0.229349 0.229349
0.244375 0.244375 0.244375
0.481435 0.232150 0.232150
0.728987 0.229822 0.229822
0.965528 0.226333 0.226333
0.000000 0.472387 0.223529
0.223012 0.472176 0.223012
0.478566 0.478566 0.224974
0.726052 0.477273 0.224331
0.977708 0.485656 0.230418
0.000000 0.715357 0.211860
0.211311 0.715232 0.211311
0.466782 0.714810 0.209433
0.718106 0.718106 0.207169
0.948636 0.712796 0.200239
0.000000 0.947618 0.193188
0.192580 0.947532 0.192580
0.459767 0.947240 0.190497
0.709945 0.946679 0.186432
0.948548 0.948548 0.180880
0.000000 0.000000 0.475259
0.229955 0.000000 0.475049
0.474335 0.000000 0.474335
0.718413 0.000000 0.472962
0.951683 0.000000 0.470925
0.000000 0.228769 0.474553
0.228265 0.228265 0.474343
0.473628 0.226543 0.473628
0.717997 0.223198 0.472252
0.951395 0.218152 0.470211
0.000000 0.472143 0.472143
0.225929 0.478610 0.478610
0.500000 0.500000 0.500000
0.729532 0.479710 0.479710
0.964770 0.477157 0.477157
0.000000 0.715213 0.467477
0.210675 0.715089 0.467263
0.473743 0.725305 0.473743
0.731846 0.731846 0.477304
0.963256 0.724718 0.472991
0.000000 0.947519 0.460475
0.191875 0.947433 0.460257
0.459514 0.947140 0.459514
0.716176 0.954929 0.462363
0.958323 0.958323 0.462384
0.000000 0.000000 0.719488
0.228844 0.000000 0.719365
0.473870 0.000000 0.718945
0.718139 0.000000 0.718139
0.951494 0.000000 0.716947
0.000000 0.227651 0.719073
0.227145 0.227145 0.718950
0.473161 0.225414 0.718530
0.717723 0.222050 0.717723
0.951206 0.216973 0.716530
0.000000 0.471675 0.717660
0.221260 0.471463 0.717536
0.470742 0.470742 0.717115
0.716306 0.469356 0.716306
0.950227 0.467299 0.715110
0.000000 0.714938 0.714938
0.210248 0.717138 0.717138
0.478427 0.732653 0.732653
0.755625 0.755625 0.755625
0.978183 0.736286 0.736286
0.000000 0.947328 0.710892
0.190516 0.947242 0.710767
0.463602 0.955863 0.717149
0.727989 0.970576 0.727989
0.976042 0.976042 0.731566
0.000000 0.000000 0.952969
0.227192 0.000000 0.952884
0.473181 0.000000 0.952594
0.717735 0.000000 0.952037
0.951214 0.000000 0.951214
0.000000 0.225990 0.952682
0.225479 0.225479 0.952597
0.472471 0.223733 0.952307
0.717318 0.220340 0.951750
0.950926 0.215219 0.950926
0.000000 0.470982 0.951706
0.219544 0.470770 0.951620
0.470048 0.470048 0.951330
0.715900 0.468659 0.950772
0.949947 0.466598 0.949947
0.000000 0.714531 0.949829
0.207624 0.714406 0.949743
0.465355 0.713983 0.949452
0.723003 0.723003 0.961744
0.962752 0.723196 0.962752
0.000000 0.947047 0.947047
0.188489 0.946961 0.946961
0.464261 0.958276 0.958276
0.732976 0.977374 0.977374
1.000000 1.000000 1.000000
