colorkit/colorkit/luts/neutral_correct.cube
TITLE "neutral_correct"
LUT_3D_SIZE 33
DOMAIN_MIN 0.0 0.0 0.0
DOMAIN_MAX 1.0 1.0 1.0
0.000000 0.000000 0.000000
0.027297 0.000000 0.000000
0.055709 0.000000 0.000000
0.084914 0.000000 0.000000
0.114394 0.000000 0.000000
0.144130 0.000000 0.000000
0.174100 0.000000 0.000000
0.204282 0.000000 0.000000
0.234656 0.000000 0.000000
0.265200 0.000000 0.000000
0.295892 0.000000 0.000000
0.326713 0.000000 0.000000
0.357639 0.000000 0.000000
0.388651 0.000000 0.000000
0.419726 0.000000 0.000000
0.450844 0.000000 0.000000
0.481983 0.000000 0.000000
0.513122 0.000000 0.000000
0.544239 0.000000 0.000000
0.575315 0.000000 0.000000
0.606326 0.000000 0.000000
0.637253 0.000000 0.000000
0.668073 0.000000 0.000000
0.698765 0.000000 0.000000
0.729309 0.000000 0.000000
0.759683 0.000000 0.000000
0.789865 0.000000 0.000000
0.819835 0.000000 0.000000
0.849571 0.000000 0.000000
0.879052 0.000000 0.000000
0.908256 0.000000 0.000000
0.937163 0.000000 0.000000
0.965751 0.000000 0.000000
0.000000 0.026464 0.000000
0.027162 0.027162 0.000000
0.055508 0.026933 0.000000
0.086645 0.027862 0.000000
0.117580 0.028280 0.000000
0.147046 0.027792 0.000000
0.176841 0.027364 0.000000
0.206902 0.026940 0.000000
0.237187 0.026495 0.000000
0.267663 0.026011 0.000000
0.298302 0.025477 0.000000
0.329079 0.024886 0.000000
0.359970 0.024231 0.000000
0.390952 0.023508 0.000000
0.422002 0.022713 0.000000
0.453098 0.021843 0.000000
0.484219 0.020896 0.000000
0.515341 0.019869 0.000000
0.546444 0.018760 0.000000
0.577507 0.017569 0.000000
0.608507 0.016294 0.000000
0.639423 0.014935 0.000000
0.670233 0.013492 0.000000
0.700917 0.011965 0.000000
0.731453 0.010355 0.000000
0.761820 0.008663 0.000000
0.791996 0.006890 0.000000
0.821960 0.005037 0.000000
0.851690 0.003107 0.000000
0.881166 0.001101 0.000000
0.910366 0.000000 0.000000
0.939268 0.000000 0.000000
0.967852 0.000000 0.000000
0.000000 0.053746 0.000000
0.026029 0.054368 0.000000
0.054640 0.054640 0.000000
0.082637 0.053485 0.000000
0.113811 0.054768 0.000000
0.145421 0.055835 0.000000
0.177048 0.056529 0.000000
0.208754 0.057005 0.000000
0.240067 0.057073 0.000000
0.270436 0.056511 0.000000
0.300990 0.055955 0.000000
0.331698 0.055387 0.000000
0.362532 0.054790 0.000000
0.393466 0.054155 0.000000
0.424476 0.053473 0.000000
0.455537 0.052736 0.000000
0.486627 0.051939 0.000000
0.517724 0.051075 0.000000
0.548804 0.050138 0.000000
0.579845 0.049126 0.000000
0.610827 0.048031 0.000000
0.641726 0.046850 0.000000
0.672522 0.045577 0.000000
0.703193 0.044207 0.000000
0.733717 0.042735 0.000000
0.764072 0.041154 0.000000
0.794238 0.039449 0.000000
0.824192 0.037651 0.000000
0.853914 0.035778 0.000000
0.883382 0.033831 0.000000
0.912574 0.031814 0.000000
0.941469 0.029729 0.000000
0.970047 0.027579 0.000000
0.000000 0.082432 0.000000
0.025031 0.082367 0.000000
0.053459 0.082794 0.000000
0.083023 0.083023 0.000000
0.111460 0.082048 0.000000
0.141541 0.082356 0.000000
0.173406 0.083665 0.000000
0.205331 0.084609 0.000000
0.237329 0.085303 0.000000
0.269411 0.085826 0.000000
0.301579 0.086229 0.000000
0.333827 0.086547 0.000000
0.365296 0.086354 0.000000
0.396170 0.085785 0.000000
0.427128 0.085211 0.000000
0.458145 0.084620 0.000000
0.489196 0.084005 0.000000
0.520258 0.083361 0.000000
0.551307 0.082681 0.000000
0.582322 0.081963 0.000000
0.613279 0.081202 0.000000
0.644157 0.080395 0.000000
0.674933 0.079540 0.000000
0.705585 0.078633 0.000000
0.736093 0.077674 0.000000
0.766433 0.076660 0.000000
0.796585 0.075589 0.000000
0.826527 0.074459 0.000000
0.856237 0.073270 0.000000
0.885694 0.072020 0.000000
0.914877 0.070707 0.000000
0.943763 0.069331 0.000000
0.972332 0.067890 0.000000
0.000000 0.111390 0.000000
0.024227 0.111340 0.000000
0.052398 0.111284 0.000000
0.082001 0.111554 0.000000
0.111743 0.111743 0.000000
0.140627 0.110957 0.000000
0.170328 0.110784 0.000000
0.201725 0.111712 0.000000
0.233859 0.112834 0.000000
0.266075 0.113708 0.000000
0.298367 0.114395 0.000000
0.330725 0.114943 0.000000
0.363141 0.115386 0.000000
0.395602 0.115747 0.000000
0.428095 0.116047 0.000000
0.460604 0.116297 0.000000
0.491909 0.115882 0.000000
0.522931 0.115307 0.000000
0.553945 0.114721 0.000000
0.584928 0.114121 0.000000
0.615856 0.113502 0.000000
0.646708 0.112860 0.000000
0.677460 0.112192 0.000000
0.708091 0.111496 0.000000
0.738578 0.110770 0.000000
0.768901 0.110012 0.000000
0.799036 0.109221 0.000000
0.828962 0.108396 0.000000
0.858658 0.107536 0.000000
0.888102 0.106641 0.000000
0.917272 0.105710 0.000000
0.946147 0.104743 0.000000
0.974706 0.103740 0.000000
0.000000 0.140599 0.000000
0.023192 0.140559 0.000000
0.051530 0.140514 0.000000
0.081096 0.140451 0.000000
0.110838 0.140614 0.000000
0.140762 0.140762 0.000000
0.170021 0.140115 0.000000
0.199943 0.139948 0.000000
0.230324 0.139986 0.000000
0.262614 0.141237 0.000000
0.294994 0.142253 0.000000
0.327445 0.143082 0.000000
0.359949 0.143762 0.000000
0.392494 0.144325 0.000000
0.425063 0.144794 0.000000
0.457641 0.145189 0.000000
0.490211 0.145523 0.000000
0.522755 0.145808 0.000000
0.555256 0.146053 0.000000
0.587651 0.146243 0.000000
0.618548 0.145670 0.000000
0.649370 0.145093 0.000000
0.680096 0.144507 0.000000
0.710702 0.143908 0.000000
0.741167 0.143296 0.000000
0.771469 0.142666 0.000000
0.801585 0.142018 0.000000
0.831493 0.141350 0.000000
0.861173 0.140662 0.000000
0.890601 0.139953 0.000000
0.919757 0.139222 0.000000
0.948619 0.138469 0.000000
0.977165 0.137694 0.000000
0.000000 0.170037 0.000000
0.021904 0.170004 0.000000
0.050437 0.169968 0.000000
0.080322 0.169915 0.000000
0.110040 0.169845 0.000000
0.139944 0.169934 0.000000
0.170043 0.170043 0.000000
0.199623 0.169502 0.000000
0.229743 0.169339 0.000000
0.259996 0.169149 0.000000
0.291566 0.169824 0.000000
0.324069 0.170952 0.000000
0.356638 0.171900 0.000000
0.389250 0.172697 0.000000
0.421886 0.173371 0.000000
0.454529 0.173943 0.000000
0.487160 0.174432 0.000000
0.519762 0.174851 0.000000
0.552315 0.175213 0.000000
0.584802 0.175527 0.000000
0.617203 0.175801 0.000000
0.649498 0.176041 0.000000
0.681668 0.176253 0.000000
0.713410 0.176293 0.000000
0.743851 0.175727 0.000000
0.774130 0.175155 0.000000
0.804225 0.174577 0.000000
0.834114 0.173990 0.000000
0.863776 0.173393 0.000000
0.893187 0.172785 0.000000
0.922327 0.172166 0.000000
0.951174 0.171533 0.000000
0.979707 0.170888 0.000000
0.000000 0.199684 0.000000
0.020346 0.199656 0.000000
0.049092 0.199626 0.000000
0.079377 0.199582 0.000000
0.109326 0.199522 0.000000
0.139222 0.199446 0.000000
0.169292 0.199480 0.000000
0.199555 0.199555 0.000000
0.229411 0.199098 0.000000
0.259707 0.198938 0.000000
0.290116 0.198754 0.000000
0.320682 0.198589 0.000000
0.353277 0.199807 0.000000
0.385929 0.200853 0.000000
0.418614 0.201752 0.000000
0.451308 0.202525 0.000000
0.483993 0.203193 0.000000
0.516646 0.203771 0.000000
0.549250 0.204274 0.000000
0.581785 0.204713 0.000000
0.614231 0.205098 0.000000
0.646569 0.205436 0.000000
0.678778 0.205735 0.000000
0.710838 0.205999 0.000000
0.742729 0.206235 0.000000
0.774431 0.206444 0.000000
0.805923 0.206633 0.000000
0.836817 0.206612 0.000000
0.866459 0.206057 0.000000
0.895853 0.205500 0.000000
0.924976 0.204939 0.000000
0.953807 0.204373 0.000000
0.982325 0.203801 0.000000
0.000000 0.229519 0.000000
0.018498 0.229495 0.000000
0.047465 0.229469 0.000000
0.078246 0.229431 0.000000
0.108474 0.229381 0.000000
0.138549 0.229315 0.000000
0.168626 0.229233 0.000000
0.198856 0.229227 0.000000
0.229271 0.229271 0.000000
0.259365 0.228880 0.000000
0.289815 0.228723 0.000000
0.320358 0.228545 0.000000
0.350981 0.228344 0.000000
0.382592 0.228810 0.000000
0.415298 0.229938 0.000000
0.448025 0.230923 0.000000
0.480747 0.231785 0.000000
0.513442 0.232540 0.000000
0.546089 0.233202 0.000000
0.578666 0.233784 0.000000
0.611154 0.234298 0.000000
0.643532 0.234752 0.000000
0.675780 0.235155 0.000000
0.707877 0.235514 0.000000
0.739804 0.235833 0.000000
0.771538 0.236119 0.000000
0.803061 0.236376 0.000000
0.834350 0.236607 0.000000
0.865385 0.236815 0.000000
0.896145 0.237003 0.000000
0.926609 0.237174 0.000000
0.956512 0.237203 0.000000
0.985013 0.236668 0.000000
0.000000 0.259521 0.000000
0.016346 0.259500 0.000000
0.045523 0.259478 0.000000
0.076910 0.259445 0.000000
0.107473 0.259401 0.000000
0.137760 0.259344 0.000000
0.167983 0.259273 0.000000
0.198234 0.259187 0.000000
0.228614 0.259148 0.000000
0.259166 0.259166 0.000000
0.289465 0.258830 0.000000
0.320047 0.258675 0.000000
0.350702 0.258500 0.000000
0.381416 0.258306 0.000000
0.412173 0.258091 0.000000
0.444723 0.259146 0.000000
0.477463 0.260206 0.000000
0.510184 0.261145 0.000000
0.542862 0.261977 0.000000
0.575473 0.262716 0.000000
0.607996 0.263373 0.000000
0.640410 0.263957 0.000000
0.672693 0.264479 0.000000
0.704825 0.264945 0.000000
0.736785 0.265363 0.000000
0.768552 0.265738 0.000000
0.800105 0.266076 0.000000
0.831424 0.266381 0.000000
0.862487 0.266656 0.000000
0.893273 0.266905 0.000000
0.923762 0.267132 0.000000
0.953932 0.267338 0.000000
0.983761 0.267525 0.000000
0.000000 0.289669 0.000000
0.013873 0.289651 0.000000
0.043226 0.289631 0.000000
0.075351 0.289602 0.000000
0.106313 0.289563 0.000000
0.136848 0.289513 0.000000
0.167240 0.289451 0.000000
0.197613 0.289375 0.000000
0.228027 0.289286 0.000000
0.258542 0.289220 0.000000
0.289214 0.289214 0.000000
0.319689 0.288925 0.000000
0.350381 0.288772 0.000000
0.381126 0.288601 0.000000
0.411910 0.288412 0.000000
0.442716 0.288204 0.000000
0.474179 0.288464 0.000000
0.506908 0.289588 0.000000
0.539601 0.290595 0.000000
0.572234 0.291497 0.000000
0.604782 0.292305 0.000000
0.637224 0.293030 0.000000
0.669537 0.293680 0.000000
0.701699 0.294266 0.000000
0.733689 0.294793 0.000000
0.765486 0.295269 0.000000
0.797068 0.295699 0.000000
0.828415 0.296088 0.000000
0.859506 0.296441 0.000000
0.890318 0.296761 0.000000
0.920832 0.297053 0.000000
0.951026 0.297319 0.000000
0.980878 0.297561 0.000000
0.000000 0.319943 0.000000
0.011066 0.319927 0.000000
0.040522 0.319909 0.000000
0.073549 0.319883 0.000000
0.104981 0.319849 0.000000
0.135806 0.319804 0.000000
0.166392 0.319749 0.000000
0.196905 0.319681 0.000000
0.227423 0.319602 0.000000
0.257984 0.319509 0.000000
0.288620 0.319422 0.000000
0.319395 0.319395 0.000000
0.350016 0.319145 0.000000
0.380797 0.318993 0.000000
0.411611 0.318826 0.000000
0.442443 0.318641 0.000000
0.473277 0.318440 0.000000
0.504095 0.318222 0.000000
0.536337 0.319057 0.000000
0.568978 0.320123 0.000000
0.601540 0.321086 0.000000
0.633999 0.321957 0.000000
0.666333 0.322744 0.000000
0.698519 0.323456 0.000000
0.730534 0.324101 0.000000
0.762357 0.324686 0.000000
0.793965 0.325217 0.000000
0.825338 0.325699 0.000000
0.856454 0.326139 0.000000
0.887292 0.326539 0.000000
0.917830 0.326905 0.000000
0.948047 0.327239 0.000000
0.977921 0.327544 0.000000
0.000000 0.350321 0.000000
0.007911 0.350306 0.000000
0.037369 0.350290 0.000000
0.071482 0.350267 0.000000
0.103466 0.350236 0.000000
0.134624 0.350196 0.000000
0.165434 0.350147 0.000000
0.196106 0.350086 0.000000
0.226743 0.350015 0.000000
0.257395 0.349932 0.000000
0.288086 0.349836 0.000000
0.318825 0.349730 0.000000
0.349684 0.349684 0.000000
0.380426 0.349470 0.000000
0.411274 0.349319 0.000000
0.442135 0.349154 0.000000
0.472994 0.348974 0.000000
0.503834 0.348778 0.000000
0.534637 0.348567 0.000000
0.565730 0.348598 0.000000
0.598293 0.349715 0.000000
0.630759 0.350733 0.000000
0.663105 0.351659 0.000000
0.695306 0.352502 0.000000
0.727339 0.353271 0.000000
0.759182 0.353971 0.000000
0.790811 0.354610 0.000000
0.822206 0.355193 0.000000
0.853345 0.355726 0.000000
0.884205 0.356214 0.000000
0.914765 0.356660 0.000000
0.945004 0.357070 0.000000
0.974900 0.357445 0.000000
0.000000 0.380782 0.000000
0.004397 0.380769 0.000000
0.033854 0.380755 0.000000
0.069121 0.380734 0.000000
0.101754 0.380706 0.000000
0.133296 0.380670 0.000000
0.164360 0.380625 0.000000
0.195212 0.380571 0.000000
0.225982 0.380506 0.000000
0.256737 0.380431 0.000000
0.287509 0.380345 0.000000
0.318312 0.380247 0.000000
0.349148 0.380136 0.000000
0.380061 0.380061 0.000000
0.410899 0.379878 0.000000
0.441792 0.379729 0.000000
0.472679 0.379566 0.000000
0.503543 0.379389 0.000000
0.534367 0.379199 0.000000
0.565133 0.378994 0.000000
0.595824 0.378774 0.000000
0.627526 0.379357 0.000000
0.659873 0.380422 0.000000
0.692080 0.381398 0.000000
0.724123 0.382292 0.000000
0.755979 0.383111 0.000000
0.787624 0.383862 0.000000
0.819036 0.384551 0.000000
0.850193 0.385183 0.000000
0.881072 0.385764 0.000000
0.911652 0.386297 0.000000
0.941910 0.386788 0.000000
0.971826 0.387239 0.000000
0.000000 0.411306 0.000000
0.000513 0.411294 0.000000
0.029971 0.411281 0.000000
0.066437 0.411262 0.000000
0.099831 0.411237 0.000000
0.131813 0.411204 0.000000
0.163164 0.411163 0.000000
0.194218 0.411114 0.000000
0.225138 0.411055 0.000000
0.256007 0.410987 0.000000
0.286870 0.410908 0.000000
0.317745 0.410819 0.000000
0.348641 0.410719 0.000000
0.379556 0.410607 0.000000
0.410503 0.410503 0.000000
0.441413 0.410348 0.000000
0.472330 0.410200 0.000000
0.503221 0.410040 0.000000
0.534068 0.409866 0.000000
0.564855 0.409680 0.000000
0.595564 0.409481 0.000000
0.626176 0.409269 0.000000
0.656671 0.409043 0.000000
0.688859 0.410137 0.000000
0.720904 0.411157 0.000000
0.752765 0.412097 0.000000
0.784419 0.412962 0.000000
0.815842 0.413760 0.000000
0.847012 0.414495 0.000000
0.877906 0.415172 0.000000
0.908501 0.415797 0.000000
0.938776 0.416373 0.000000
0.968709 0.416906 0.000000
0.000000 0.441872 0.000000
0.000000 0.441861 0.000000
0.025708 0.441849 0.000000
0.063392 0.441832 0.000000
0.097681 0.441809 0.000000
0.130166 0.441779 0.000000
0.161841 0.441741 0.000000
0.193121 0.441696 0.000000
0.224208 0.441642 0.000000
0.255204 0.441580 0.000000
0.286166 0.441508 0.000000
0.317122 0.441426 0.000000
0.348084 0.441335 0.000000
0.379054 0.441233 0.000000
0.410027 0.441120 0.000000
0.440996 0.440996 0.000000
0.471947 0.440860 0.000000
0.502867 0.440714 0.000000
0.533740 0.440555 0.000000
0.564550 0.440385 0.000000
0.595279 0.440203 0.000000
0.625908 0.440009 0.000000
0.656419 0.439803 0.000000
0.686794 0.439585 0.000000
0.717697 0.439864 0.000000
0.749556 0.440922 0.000000
0.781212 0.441902 0.000000
0.812640 0.442809 0.000000
0.843818 0.443648 0.000000
0.874721 0.444425 0.000000
0.905328 0.445143 0.000000
0.935616 0.445809 0.000000
0.965562 0.446426 0.000000
0.000000 0.472459 0.000000
0.000000 0.472449 0.000000
0.021059 0.472438 0.000000
0.059940 0.472422 0.000000
0.095286 0.472401 0.000000
0.128346 0.472373 0.000000
0.160385 0.472339 0.000000
0.191917 0.472297 0.000000
0.223188 0.472248 0.000000
0.254324 0.472190 0.000000
0.285396 0.472124 0.000000
0.316441 0.472049 0.000000
0.347475 0.471965 0.000000
0.378505 0.471871 0.000000
0.409529 0.471767 0.000000
0.440540 0.471653 0.000000
0.471528 0.471528 0.000000
0.502481 0.471394 0.000000
0.533382 0.471248 0.000000
0.564216 0.471091 0.000000
0.594967 0.470924 0.000000
0.625616 0.470746 0.000000
0.656145 0.470556 0.000000
0.686535 0.470356 0.000000
0.716766 0.470145 0.000000
0.746820 0.469923 0.000000
0.778017 0.470675 0.000000
0.809444 0.471690 0.000000
0.840623 0.472633 0.000000
0.871531 0.473510 0.000000
0.902144 0.474325 0.000000
0.932440 0.475082 0.000000
0.962396 0.475785 0.000000
0.000000 0.503046 0.000000
0.000000 0.503036 0.000000
0.016016 0.503026 0.000000
0.056025 0.503012 0.000000
0.092627 0.502992 0.000000
0.126342 0.502966 0.000000
0.158790 0.502934 0.000000
0.190602 0.502896 0.000000
0.222076 0.502850 0.000000
0.253366 0.502797 0.000000
0.284559 0.502736 0.000000
0.315700 0.502667 0.000000
0.346813 0.502589 0.000000
0.377908 0.502502 0.000000
0.408988 0.502406 0.000000
0.440046 0.502301 0.000000
0.471074 0.502186 0.000000
0.502061 0.502061 0.000000
0.532993 0.501927 0.000000
0.563854 0.501782 0.000000
0.594629 0.501628 0.000000
0.625299 0.501463 0.000000
0.655847 0.501288 0.000000
0.686253 0.501103 0.000000
0.716500 0.500908 0.000000
0.746568 0.500704 0.000000
0.776437 0.500489 0.000000
0.806266 0.500398 0.000000
0.837441 0.501444 0.000000
0.868347 0.502420 0.000000
0.898962 0.503330 0.000000
0.929261 0.504179 0.000000
0.959223 0.504970 0.000000
0.000000 0.533611 0.000000
0.000000 0.533603 0.000000
0.010575 0.533593 0.000000
0.051571 0.533580 0.000000
0.089681 0.533561 0.000000
0.124145 0.533538 0.000000
0.157050 0.533508 0.000000
0.189171 0.533473 0.000000
0.220869 0.533430 0.000000
0.252328 0.533381 0.000000
0.283652 0.533324 0.000000
0.314898 0.533260 0.000000
0.346097 0.533188 0.000000
0.377263 0.533107 0.000000
0.408402 0.533018 0.000000
0.439511 0.532920 0.000000
0.470584 0.532814 0.000000
0.501608 0.532698 0.000000
0.532573 0.532573 0.000000
0.563464 0.532439 0.000000
0.594264 0.532296 0.000000
0.624957 0.532143 0.000000
0.655525 0.531981 0.000000
0.685950 0.531809 0.000000
0.716213 0.531629 0.000000
0.746296 0.531439 0.000000
0.776179 0.531240 0.000000
0.805842 0.531032 0.000000
0.835266 0.530816 0.000000
0.865182 0.531147 0.000000
0.895793 0.532151 0.000000
0.926091 0.533091 0.000000
0.956054 0.533969 0.000000
0.000000 0.564136 0.000000
0.000000 0.564128 0.000000
0.004731 0.564119 0.000000
0.046478 0.564106 0.000000
0.086420 0.564089 0.000000
0.121743 0.564067 0.000000
0.155159 0.564039 0.000000
0.187622 0.564006 0.000000
0.219564 0.563967 0.000000
0.251207 0.563921 0.000000
0.282674 0.563868 0.000000
0.314034 0.563808 0.000000
0.345326 0.563741 0.000000
0.376569 0.563666 0.000000
0.407773 0.563583 0.000000
0.438937 0.563492 0.000000
0.470056 0.563392 0.000000
0.501121 0.563285 0.000000
0.532122 0.563168 0.000000
0.563044 0.563044 0.000000
0.593871 0.562910 0.000000
0.624589 0.562768 0.000000
0.655179 0.562617 0.000000
0.685624 0.562457 0.000000
0.715905 0.562289 0.000000
0.746004 0.562112 0.000000
0.775901 0.561927 0.000000
0.805578 0.561734 0.000000
0.835013 0.561532 0.000000
0.864189 0.561323 0.000000
0.893083 0.561107 0.000000
0.922939 0.561809 0.000000
0.952899 0.562774 0.000000
0.000000 0.594597 0.000000
0.000000 0.594590 0.000000
0.000000 0.594581 0.000000
0.040604 0.594570 0.000000
0.082814 0.594553 0.000000
0.119123 0.594533 0.000000
0.153111 0.594507 0.000000
0.185950 0.594476 0.000000
0.218160 0.594439 0.000000
0.250003 0.594396 0.000000
0.281625 0.594347 0.000000
0.313108 0.594291 0.000000
0.344499 0.594228 0.000000
0.375825 0.594158 0.000000
0.407098 0.594080 0.000000
0.438321 0.593995 0.000000
0.469491 0.593902 0.000000
0.500600 0.593802 0.000000
0.531639 0.593693 0.000000
0.562594 0.593576 0.000000
0.593451 0.593451 0.000000
0.624195 0.593318 0.000000
0.654809 0.593177 0.000000
0.685275 0.593028 0.000000
0.715575 0.592871 0.000000
0.745691 0.592705 0.000000
0.775604 0.592533 0.000000
0.805295 0.592352 0.000000
0.834744 0.592164 0.000000
0.863931 0.591969 0.000000
0.892836 0.591766 0.000000
0.921441 0.591558 0.000000
0.949766 0.591375 0.000000
0.000000 0.624975 0.000000
0.000000 0.624968 0.000000
0.000000 0.624960 0.000000
0.033954 0.624949 0.000000
0.078822 0.624934 0.000000
0.116272 0.624915 0.000000
0.150898 0.624891 0.000000
0.184152 0.624861 0.000000
0.216653 0.624827 0.000000
0.248713 0.624787 0.000000
0.280502 0.624740 0.000000
0.312117 0.624688 0.000000
0.343617 0.624629 0.000000
0.375031 0.624563 0.000000
0.406379 0.624490 0.000000
0.437664 0.624410 0.000000
0.468888 0.624323 0.000000
0.500044 0.624229 0.000000
0.531124 0.624127 0.000000
0.562115 0.624017 0.000000
0.593004 0.623900 0.000000
0.623776 0.623776 0.000000
0.654414 0.623643 0.000000
0.684903 0.623503 0.000000
0.715224 0.623356 0.000000
0.745358 0.623201 0.000000
0.775288 0.623039 0.000000
0.804994 0.622870 0.000000
0.834456 0.622693 0.000000
0.863656 0.622510 0.000000
0.892573 0.622321 0.000000
0.921188 0.622125 0.000000
0.949481 0.621923 0.000000
0.000000 0.655248 0.000000
0.000000 0.655242 0.000000
0.000000 0.655235 0.000000
0.026898 0.655224 0.000000
0.074397 0.655210 0.000000
0.113172 0.655192 0.000000
0.148513 0.655169 0.000000
0.182223 0.655142 0.000000
0.215042 0.655109 0.000000
0.247336 0.655071 0.000000
0.279305 0.655028 0.000000
0.311063 0.654978 0.000000
0.342677 0.654923 0.000000
0.374187 0.654861 0.000000
0.405613 0.654792 0.000000
0.436966 0.654717 0.000000
0.468248 0.654635 0.000000
0.499454 0.654547 0.000000
0.530577 0.654451 0.000000
0.561606 0.654348 0.000000
0.592528 0.654238 0.000000
0.623330 0.654120 0.000000
0.653996 0.653996 0.000000
0.684508 0.653864 0.000000
0.714851 0.653725 0.000000
0.745005 0.653580 0.000000
0.774952 0.653427 0.000000
0.804674 0.653268 0.000000
0.834151 0.653102 0.000000
0.863365 0.652930 0.000000
0.892294 0.652752 0.000000
0.920921 0.652568 0.000000
0.949223 0.652378 0.000000
0.000000 0.685397 0.000000
0.000000 0.685391 0.000000
0.000000 0.685384 0.000000
0.019439 0.685374 0.000000
0.069476 0.685360 0.000000
0.109806 0.685343 0.000000
0.145950 0.685322 0.000000
0.180160 0.685296 0.000000
0.213324 0.685265 0.000000
0.245871 0.685230 0.000000
0.278033 0.685188 0.000000
0.309943 0.685142 0.000000
0.341681 0.685089 0.000000
0.373292 0.685031 0.000000
0.404803 0.684967 0.000000
0.436227 0.684896 0.000000
0.467570 0.684818 0.000000
0.498829 0.684735 0.000000
0.529998 0.684644 0.000000
0.561067 0.684547 0.000000
0.592025 0.684443 0.000000
0.622859 0.684332 0.000000
0.653553 0.684215 0.000000
0.684091 0.684091 0.000000
0.714456 0.683960 0.000000
0.744631 0.683823 0.000000
0.774597 0.683679 0.000000
0.804336 0.683529 0.000000
0.833829 0.683372 0.000000
0.863056 0.683210 0.000000
0.891999 0.683042 0.000000
0.920637 0.682868 0.000000
0.948951 0.682689 0.000000
0.000000 0.715399 0.000000
0.000000 0.715393 0.000000
0.000000 0.715386 0.000000
0.011581 0.715377 0.000000
0.063981 0.715364 0.000000
0.106154 0.715348 0.000000
0.143199 0.715328 0.000000
0.177960 0.715303 0.000000
0.211498 0.715274 0.000000
0.244317 0.715241 0.000000
0.276686 0.715202 0.000000
0.308759 0.715158 0.000000
0.340627 0.715108 0.000000
0.372346 0.715053 0.000000
0.403946 0.714992 0.000000
0.435447 0.714925 0.000000
0.466854 0.714852 0.000000
0.498169 0.714772 0.000000
0.529387 0.714687 0.000000
0.560499 0.714595 0.000000
0.591495 0.714497 0.000000
0.622362 0.714392 0.000000
0.653086 0.714281 0.000000
0.683651 0.714164 0.000000
0.714040 0.714040 0.000000
0.744236 0.713910 0.000000
0.774222 0.713774 0.000000
0.803980 0.713632 0.000000
0.833489 0.713484 0.000000
0.862732 0.713331 0.000000
0.891688 0.713172 0.000000
0.920339 0.713008 0.000000
0.948665 0.712839 0.000000
0.000000 0.745234 0.000000
0.000000 0.745228 0.000000
0.000000 0.745222 0.000000
0.003331 0.745213 0.000000
0.057799 0.745201 0.000000
0.102189 0.745186 0.000000
0.140252 0.745167 0.000000
0.175617 0.745143 0.000000
0.209561 0.745116 0.000000
0.242673 0.745084 0.000000
0.275264 0.745047 0.000000
0.307510 0.745005 0.000000
0.339517 0.744958 0.000000
0.371349 0.744906 0.000000
0.403045 0.744848 0.000000
0.434626 0.744784 0.000000
0.466102 0.744715 0.000000
0.497475 0.744640 0.000000
0.528744 0.744559 0.000000
0.559902 0.744472 0.000000
0.590938 0.744379 0.000000
0.621840 0.744279 0.000000
0.652595 0.744174 0.000000
0.683188 0.744063 0.000000
0.713603 0.743945 0.000000
0.743822 0.743822 0.000000
0.773829 0.743693 0.000000
0.803605 0.743559 0.000000
0.833132 0.743419 0.000000
0.862390 0.743273 0.000000
0.891361 0.743122 0.000000
0.920026 0.742967 0.000000
0.948364 0.742807 0.000000
0.000000 0.774881 0.000000
0.000000 0.774876 0.000000
0.000000 0.774870 0.000000
0.000000 0.774861 0.000000
0.050774 0.774850 0.000000
0.097884 0.774835 0.000000
0.137099 0.774817 0.000000
0.173129 0.774795 0.000000
0.207513 0.774769 0.000000
0.240939 0.774738 0.000000
0.273765 0.774703 0.000000
0.306195 0.774664 0.000000
0.338350 0.774619 0.000000
0.370303 0.774569 0.000000
0.402099 0.774514 0.000000
0.433764 0.774454 0.000000
0.465312 0.774388 0.000000
0.496748 0.774317 0.000000
0.528071 0.774239 0.000000
0.559276 0.774157 0.000000
0.590353 0.774068 0.000000
0.621293 0.773974 0.000000
0.652081 0.773874 0.000000
0.682703 0.773768 0.000000
0.713145 0.773657 0.000000
0.743388 0.773540 0.000000
0.773417 0.773417 0.000000
