colorkit/colorkit/luts/neutral_correct.cube
TITLE "neutral_correct"
LUT_3D_SIZE 9
DOMAIN_MIN 0.0 0.0 0.0
DOMAIN_MAX 1.0 1.0 1.0
0.000000 0.000000 0.000000
0.114394 0.000000 0.000000
0.234656 0.000000 0.000000
0.357639 0.000000 0.000000
0.481983 0.000000 0.000000
0.606326 0.000000 0.000000
0.729309 0.000000 0.000000
0.849571 0.000000 0.000000
0.965751 0.000000 0.000000
0.000000 0.111390 0.000000
0.111743 0.111743 0.000000
0.233859 0.112834 0.000000
0.363141 0.115386 0.000000
0.491909 0.115882 0.000000
0.615856 0.113502 0.000000
0.738578 0.110770 0.000000
0.858658 0.107536 0.000000
0.974706 0.103740 0.000000
0.000000 0.229519 0.000000
0.108474 0.229381 0.000000
0.229271 0.229271 0.000000
0.350981 0.228344 0.000000
0.480747 0.231785 0.000000
0.611154 0.234298 0.000000
0.739804 0.235833 0.000000
0.865385 0.236815 0.000000
0.985013 0.236668 0.000000
0.000000 0.350321 0.000000
0.103466 0.350236 0.000000
0.226743 0.350015 0.000000
0.349684 0.349684 0.000000
0.472994 0.348974 0.000000
0.598293 0.349715 0.000000
0.727339 0.353271 0.000000
0.853345 0.355726 0.000000
0.974900 0.357445 0.000000
0.000000 0.472459 0.000000
0.095286 0.472401 0.000000
0.223188 0.472248 0.000000
0.347475 0.471965 0.000000
0.471528 0.471528 0.000000
0.594967 0.470924 0.000000
0.716766 0.470145 0.000000
0.840623 0.472633 0.000000
0.962396 0.475785 0.000000
0.000000 0.594597 0.000000
0.082814 0.594553 0.000000
0.218160 0.594439 0.000000
0.344499 0.594228 0.000000
0.469491 0.593902 0.000000
0.593451 0.593451 0.000000
0.715575 0.592871 0.000000
0.834744 0.592164 0.000000
0.949766 0.591375 0.000000
0.000000 0.715399 0.000000
0.063981 0.715364 0.000000
0.211498 0.715274 0.000000
0.340627 0.715108 0.000000
0.466854 0.714852 0.000000
0.591495 0.714497 0.000000
0.714040 0.714040 0.000000
0.833489 0.713484 0.000000
0.948665 0.712839 0.000000
0.000000 0.833528 0.000000
0.033363 0.833499 0.000000
0.203073 0.833426 0.000000
0.335848 0.833290 0.000000
0.463625 0.833080 0.000000
0.589106 0.832789 0.000000
0.712168 0.832415 0.000000
0.831960 0.831960 0.000000
0.947376 0.831432 0.000000
0.000000 0.947647 0.000000
0.000000 0.947623 0.000000
0.192786 0.947561 0.000000
0.330198 0.947446 0.000000
0.459841 0.947269 0.000000
0.586318 0.947023 0.000000
0.709988 0.946708 0.000000
0.830182 0.946324 0.000000
0.945878 0.945878 0.000000
0.000000 0.000000 0.112273
0.111982 0.000000 0.111982
0.230654 0.000000 0.111214
0.351975 0.000000 0.109782
0.474629 0.000000 0.107542
0.597280 0.000000 0.104367
0.720192 0.000000 0.101060
0.840610 0.000000 0.096965
0.956904 0.000000 0.091959
0.000000 0.111499 0.111499
0.120078 0.120078 0.120078
0.234297 0.113090 0.113090
0.357421 0.112080 0.112080
0.481832 0.110508 0.110508
0.606213 0.108297 0.108297
0.729220 0.105391 0.105391
0.849498 0.101756 0.101756
0.965689 0.097385 0.097385
0.000000 0.229472 0.108672
0.108981 0.230393 0.108981
0.233786 0.233786 0.110338
0.356095 0.232337 0.109667
0.488800 0.237054 0.113219
0.618704 0.238683 0.114234
0.740806 0.236362 0.110996
0.860506 0.234234 0.107464
0.976302 0.232107 0.103473
0.000000 0.350292 0.103673
0.103359 0.350208 0.103359
0.226798 0.350134 0.102590
0.352526 0.352526 0.102124
0.472974 0.348945 0.098564
0.604171 0.353953 0.101726
0.734349 0.357792 0.104237
0.860929 0.360233 0.105668
0.982781 0.361865 0.106510
0.000000 0.472439 0.095509
0.095171 0.472381 0.095171
0.223139 0.472228 0.094280
0.347446 0.471945 0.092612
0.473488 0.473488 0.090536
0.594952 0.470904 0.086249
0.718951 0.471820 0.083754
0.846306 0.476599 0.087187
0.968870 0.479965 0.089275
0.000000 0.594582 0.083065
0.082684 0.594539 0.082684
0.218110 0.594424 0.081676
0.344470 0.594213 0.079786
0.469471 0.593888 0.076799
0.594835 0.594835 0.072777
0.715564 0.592856 0.066660
0.834734 0.592149 0.058982
0.954402 0.594810 0.058215
0.000000 0.715387 0.064290
0.063821 0.715353 0.063821
0.211446 0.715263 0.062580
0.340598 0.715096 0.060236
0.466834 0.714840 0.056490
0.591480 0.714485 0.050993
0.715045 0.715045 0.043408
0.833479 0.713472 0.032898
0.948657 0.712827 0.020729
0.000000 0.833518 0.033791
0.033142 0.833490 0.033142
0.203019 0.833416 0.031439
0.335818 0.833280 0.028292
0.463604 0.833070 0.023444
0.589091 0.832779 0.016733
0.712156 0.832406 0.008105
0.832697 0.832697 0.000000
0.947368 0.831423 0.000000
0.000000 0.947639 0.000000
0.000000 0.947615 0.000000
0.192729 0.947553 0.000000
0.330167 0.947438 0.000000
0.459820 0.947261 0.000000
0.586303 0.947015 0.000000
0.709976 0.946700 0.000000
0.830172 0.946316 0.000000
0.946415 0.946415 0.000000
0.000000 0.000000 0.231029
0.111722 0.000000 0.230892
0.230531 0.000000 0.230531
0.351901 0.000000 0.229863
0.474578 0.000000 0.228829
0.597241 0.000000 0.227389
0.718556 0.000000 0.225522
0.837183 0.000000 0.223229
0.951781 0.000000 0.220535
0.000000 0.111029 0.230567
0.110734 0.110734 0.230429
0.230068 0.109959 0.230068
0.351618 0.108511 0.229398
0.474383 0.106246 0.228361
0.597096 0.103034 0.226918
0.718441 0.098766 0.225047
0.838621 0.094384 0.223537
0.955176 0.089371 0.221843
0.000000 0.229349 0.229349
0.110814 0.233932 0.233932
0.244375 0.244375 0.244375
0.359040 0.234407 0.234407
0.481435 0.232150 0.232150
0.605917 0.231135 0.231135
0.728987 0.229822 0.229822
0.849307 0.228214 0.228214
0.965528 0.226333 0.226333
0.000000 0.350217 0.227078
0.103164 0.350350 0.227089
0.231142 0.356486 0.231142
0.359617 0.359617 0.232913
0.481816 0.356150 0.230857
0.614329 0.361265 0.235293
0.744161 0.364105 0.237574
0.863037 0.361464 0.234747
0.978343 0.359344 0.232212
0.000000 0.472387 0.223529
0.094870 0.472329 0.223386
0.223012 0.472176 0.223012
0.351111 0.476791 0.224896
0.478566 0.478566 0.224974
0.596882 0.472445 0.220580
0.726052 0.477273 0.224331
0.854600 0.482373 0.228069
0.977708 0.485656 0.230418
0.000000 0.594543 0.218510
0.082343 0.594500 0.218364
0.217979 0.594386 0.217979
0.344393 0.594174 0.217267
0.472371 0.597502 0.217692
0.598690 0.598690 0.216831
0.716765 0.593853 0.213065
0.836717 0.593732 0.211783
0.960951 0.599652 0.215990
0.000000 0.715357 0.211860
0.063402 0.715322 0.211709
0.211311 0.715232 0.211311
0.340520 0.715066 0.210574
0.466782 0.714810 0.209433
0.593835 0.717304 0.208815
0.718106 0.718106 0.207169
0.834237 0.714118 0.203461
0.948636 0.712796 0.200239
0.000000 0.833493 0.203452
0.032564 0.833465 0.203294
0.202878 0.833391 0.202878
0.335739 0.833255 0.202106
0.463551 0.833045 0.200912
0.589052 0.832754 0.199246
0.714140 0.834711 0.197743
0.835215 0.835215 0.195338
0.947871 0.831861 0.191396
0.000000 0.947618 0.193188
0.000000 0.947594 0.193020
0.192580 0.947532 0.192580
0.330086 0.947417 0.191763
0.459767 0.947240 0.190497
0.586264 0.946994 0.188731
0.709945 0.946679 0.186432
0.831904 0.948282 0.184070
0.948548 0.948548 0.180880
0.000000 0.000000 0.352472
0.111240 0.000000 0.352389
0.230304 0.000000 0.352169
0.351763 0.000000 0.351763
0.474482 0.000000 0.351135
0.597170 0.000000 0.350265
0.718500 0.000000 0.349143
0.837137 0.000000 0.347772
0.951743 0.000000 0.346174
0.000000 0.110544 0.352191
0.110248 0.110248 0.352107
0.229840 0.109469 0.351887
0.351480 0.108015 0.351480
0.474287 0.105740 0.350853
0.597024 0.102514 0.349982
0.718385 0.098225 0.348858
0.837043 0.092775 0.347486
0.951663 0.086075 0.345886
0.000000 0.229121 0.351451
0.107606 0.228982 0.351367
0.228618 0.228618 0.351146
0.350738 0.227943 0.350738
0.473775 0.226899 0.350109
0.596642 0.225445 0.349236
0.718084 0.223560 0.348109
0.836796 0.221245 0.346734
0.952825 0.219275 0.345882
0.000000 0.350078 0.350078
0.103406 0.352169 0.352169
0.233504 0.360081 0.360081
0.371484 0.371484 0.371484
0.488602 0.361371 0.361371
0.605369 0.354724 0.354724
0.728556 0.353931 0.353931
0.848954 0.352965 0.352965
0.965230 0.351839 0.351839
0.000000 0.472291 0.347951
0.094309 0.472233 0.347866
0.225523 0.477291 0.351624
0.357002 0.484595 0.357002
0.487449 0.487449 0.358868
0.610679 0.484055 0.356697
0.738359 0.486726 0.359629
0.866910 0.490939 0.363248
0.981185 0.487873 0.360232
0.000000 0.594472 0.344980
0.081709 0.594428 0.344894
0.217738 0.594314 0.344669
0.346979 0.598536 0.346979
0.477839 0.604316 0.350083
0.605575 0.605575 0.350229
0.723585 0.599561 0.345735
0.845040 0.600426 0.347444
0.970534 0.606731 0.352364
0.000000 0.715300 0.341115
0.062621 0.715266 0.341028
0.211061 0.715176 0.340799
0.340376 0.715009 0.340376
0.469030 0.718214 0.341499
0.598549 0.722944 0.343192
0.723635 0.723635 0.342600
0.839836 0.718944 0.339053
0.950248 0.714121 0.335777
0.000000 0.833447 0.336344
0.031495 0.833419 0.336255
0.202616 0.833345 0.336023
0.335593 0.833209 0.335593
0.463453 0.832999 0.334929
0.591016 0.835515 0.335238
0.718201 0.839427 0.335919
0.839795 0.839795 0.334815
0.952548 0.835985 0.331682
0.000000 0.947579 0.330704
0.000000 0.947555 0.330613
0.192303 0.947493 0.330376
0.329937 0.947378 0.329937
0.459667 0.947201 0.329260
0.586191 0.946955 0.328319
0.711760 0.949090 0.328040
0.835447 0.952304 0.327921
0.952442 0.952442 0.326402
0.000000 0.000000 0.475259
0.110493 0.000000 0.475201
0.229955 0.000000 0.475049
0.351550 0.000000 0.474768
0.474335 0.000000 0.474335
0.597060 0.000000 0.473735
0.718413 0.000000 0.472962
0.837066 0.000000 0.472021
0.951683 0.000000 0.470925
0.000000 0.109792 0.475064
0.109495 0.109495 0.475006
0.229490 0.108711 0.474854
0.351267 0.107248 0.474573
0.474140 0.104957 0.474140
0.596914 0.101708 0.473540
0.718298 0.097388 0.472766
0.836972 0.091893 0.471824
0.951603 0.085133 0.470728
0.000000 0.228769 0.474553
0.106836 0.228630 0.474495
0.228265 0.228265 0.474343
0.350525 0.227589 0.474061
0.473628 0.226543 0.473628
0.596532 0.225087 0.473026
0.717997 0.223198 0.472252
0.836725 0.220879 0.471308
0.951395 0.218152 0.470211
0.000000 0.349864 0.473606
0.101754 0.349780 0.473548
0.225982 0.349558 0.473396
0.354442 0.354442 0.480032
0.480532 0.354521 0.480532
0.595824 0.347637 0.472076
0.717440 0.346504 0.471300
0.836269 0.345121 0.470354
0.951010 0.343507 0.469253
0.000000 0.472143 0.472143
0.093602 0.472658 0.472658
0.225929 0.478610 0.478610
0.359611 0.488152 0.488152
0.500000 0.500000 0.500000
0.617863 0.489916 0.489916
0.729532 0.479710 0.479710
0.848409 0.477931 0.477931
0.964770 0.477157 0.477157
0.000000 0.594361 0.470109
0.080726 0.594318 0.470050
0.218990 0.598076 0.473028
0.350851 0.605080 0.478574
0.484807 0.613014 0.484807
0.615622 0.615622 0.486662
0.738190 0.612287 0.484416
0.861359 0.613413 0.486205
0.984892 0.617342 0.489797
0.000000 0.715213 0.467477
0.061404 0.715179 0.467418
0.210675 0.715089 0.467263
0.342045 0.718605 0.469472
0.473743 0.725305 0.473743
0.605286 0.731010 0.477229
0.731846 0.731846 0.477304
0.847986 0.725968 0.472732
0.963256 0.724718 0.472991
0.000000 0.833375 0.464252
0.029849 0.833347 0.464193
0.202212 0.833274 0.464036
0.335368 0.833137 0.463747
0.465061 0.835942 0.465061
0.595697 0.842052 0.468174
0.724199 0.846396 0.470121
0.846667 0.846667 0.469561
0.959511 0.842124 0.466087
0.000000 0.947519 0.460475
0.000000 0.947495 0.460415
0.191875 0.947433 0.460257
0.329707 0.947318 0.459965
0.459514 0.947140 0.459514
0.587733 0.949481 0.460216
0.716176 0.954929 0.462363
0.840757 0.958331 0.463313
0.958323 0.958323 0.462384
0.000000 0.000000 0.598045
0.109451 0.000000 0.598002
0.229469 0.000000 0.597889
0.351255 0.000000 0.597679
0.474132 0.000000 0.597356
0.596908 0.000000 0.596908
0.718293 0.000000 0.596332
0.836968 0.000000 0.595630
0.951600 0.000000 0.594815
0.000000 0.108745 0.597900
0.108444 0.108444 0.597857
0.229003 0.107653 0.597743
0.350972 0.106177 0.597533
0.473936 0.103864 0.597210
0.596762 0.100584 0.596762
0.718179 0.096218 0.596186
0.836874 0.090661 0.595484
0.951521 0.083816 0.594668
0.000000 0.228281 0.597518
0.105761 0.228141 0.597475
0.227776 0.227776 0.597361
0.350229 0.227098 0.597151
0.473424 0.226050 0.596828
0.596379 0.224590 0.596379
0.717877 0.222697 0.595803
0.836627 0.220371 0.595100
0.951312 0.217637 0.594284
0.000000 0.349567 0.596812
0.100630 0.349483 0.596768
0.225487 0.349261 0.596655
0.348851 0.348851 0.596444
0.472474 0.348217 0.596120
0.595671 0.347338 0.595671
0.717320 0.346204 0.595094
0.836171 0.344819 0.594390
0.950928 0.343204 0.593573
0.000000 0.471938 0.595721
0.092226 0.471880 0.595678
0.221910 0.471727 0.595564
0.349931 0.475659 0.600561
0.483480 0.483480 0.610443
0.610080 0.482940 0.610080
0.721406 0.472984 0.598159
0.835468 0.468671 0.593294
0.950334 0.467566 0.592475
0.000000 0.594208 0.594208
0.079347 0.594165 0.594165
0.218592 0.598213 0.598213
0.351220 0.606026 0.606026
0.487535 0.616496 0.616496
0.628516 0.628516 0.628516
0.745596 0.618581 0.618581
0.856088 0.608565 0.608565
0.964134 0.601871 0.601871
0.000000 0.715093 0.592255
0.059689 0.715058 0.592212
0.211106 0.717774 0.594454
0.344499 0.723870 0.599504
0.478146 0.731993 0.606216
0.612994 0.740251 0.612994
0.742638 0.742638 0.614792
0.862978 0.739372 0.612505
0.982430 0.740526 0.614325
0.000000 0.833277 0.589870
0.027570 0.833249 0.589826
0.201652 0.833175 0.589711
0.336410 0.836122 0.591735
0.468826 0.842655 0.596298
0.601247 0.849820 0.601247
0.731893 0.855340 0.604927
0.855829 0.855829 0.604887
0.968607 0.850142 0.600310
0.000000 0.947435 0.587087
0.000000 0.947412 0.587043
0.191282 0.947349 0.586927
0.329389 0.947234 0.586712
0.460721 0.949821 0.588150
0.591977 0.956275 0.591977
0.721814 0.962390 0.595495
0.847789 0.966316 0.597522
0.966236 0.966236 0.596910
0.000000 0.000000 0.719488
0.108098 0.000000 0.719454
0.228844 0.000000 0.719365
0.350875 0.000000 0.719200
0.473870 0.000000 0.718945
0.596712 0.000000 0.718593
0.718139 0.000000 0.718139
0.836842 0.000000 0.717588
0.951494 0.000000 0.716947
0.000000 0.107383 0.719374
0.107080 0.107080 0.719340
0.228376 0.106279 0.719250
0.350592 0.104785 0.719085
0.473674 0.102443 0.718831
0.596566 0.099120 0.718478
0.718025 0.094694 0.718025
0.836748 0.089054 0.717473
0.951414 0.082096 0.716832
0.000000 0.227651 0.719073
0.104364 0.227512 0.719039
0.227145 0.227145 0.718950
0.349848 0.226465 0.718784
0.473161 0.225414 0.718530
0.596184 0.223949 0.718177
0.717723 0.222050 0.717723
0.836501 0.219716 0.717171
0.951206 0.216973 0.716530
0.000000 0.349186 0.718517
0.099167 0.349101 0.718483
0.224849 0.348879 0.718394
0.348468 0.348468 0.718228
0.472211 0.347834 0.717973
0.595475 0.346954 0.717620
0.717166 0.345818 0.717166
0.836045 0.344431 0.716613
0.950821 0.342814 0.715971
0.000000 0.471675 0.717660
0.090644 0.471616 0.717625
0.221260 0.471463 0.717536
0.346329 0.471180 0.717370
0.470742 0.470742 0.717115
0.594382 0.470137 0.716761
0.716306 0.469356 0.716306
0.835342 0.468405 0.715753
0.950227 0.467299 0.715110
0.000000 0.594011 0.716470
0.077545 0.593968 0.716436
0.216182 0.593853 0.716346
0.344629 0.595738 0.718673
0.477976 0.604798 0.729578
0.612534 0.612534 0.738965
0.738110 0.611611 0.738110
0.848399 0.601777 0.726702
0.949405 0.590753 0.713915
0.000000 0.714938 0.714938
0.057430 0.714903 0.714903
0.210248 0.717138 0.717138
0.344044 0.723604 0.723604
0.478427 0.732653 0.732653
0.615765 0.743633 0.743633
0.755625 0.755625 0.755625
0.870482 0.745948 0.745948
0.978183 0.736286 0.736286
0.000000 0.833150 0.713069
0.024640 0.833122 0.713034
0.201488 0.834987 0.714621
0.337872 0.840246 0.719119
0.471543 0.847653 0.725447
0.605980 0.856497 0.732985
0.740084 0.864870 0.740084
0.867053 0.867053 0.741799
0.983659 0.863875 0.739502
0.000000 0.947328 0.710892
0.000000 0.947304 0.710858
0.190516 0.947242 0.710767
0.329998 0.949787 0.712631
0.463602 0.955863 0.717149
0.596265 0.963186 0.722570
0.727989 0.970576 0.727989
0.856174 0.975840 0.731732
0.976042 0.976042 0.731566
0.000000 0.000000 0.838244
0.106432 0.000000 0.838216
0.228081 0.000000 0.838143
0.350414 0.000000 0.838008
0.473551 0.000000 0.837799
0.596474 0.000000 0.837511
0.717952 0.000000 0.837140
0.836688 0.000000 0.836688
0.951364 0.000000 0.836164
0.000000 0.105707 0.838150
0.105399 0.105399 0.838122
0.227612 0.104586 0.838049
0.350130 0.103070 0.837914
0.473355 0.100692 0.837706
0.596328 0.097315 0.837417
0.717837 0.092812 0.837046
0.836594 0.087067 0.836594
0.951285 0.079963 0.836070
0.000000 0.226884 0.837904
0.102642 0.226744 0.837876
0.226376 0.226376 0.837803
0.349385 0.225693 0.837668
0.472842 0.224638 0.837459
0.595945 0.223167 0.837171
0.717536 0.221260 0.836799
0.836348 0.218917 0.836348
0.951076 0.216163 0.835823
0.000000 0.348721 0.837449
0.097362 0.348636 0.837421
0.224071 0.348414 0.837348
0.348002 0.348002 0.837212
0.471891 0.347367 0.837004
0.595237 0.346485 0.836715
0.716978 0.345348 0.836343
0.835891 0.343959 0.835891
0.950691 0.342339 0.835367
0.000000 0.471354 0.836747
0.088687 0.471296 0.836719
0.220467 0.471142 0.836646
0.345859 0.470858 0.836510
0.470421 0.470421 0.836302
0.594143 0.469815 0.836012
0.716118 0.469034 0.835640
0.835188 0.468082 0.835188
0.950098 0.466975 0.834663
0.000000 0.593772 0.835775
0.075307 0.593729 0.835747
0.215368 0.593614 0.835673
0.342867 0.593402 0.835537
0.468377 0.593076 0.835328
0.593904 0.593904 0.836798
0.721812 0.597829 0.842623
0.839710 0.595330 0.839710
0.949275 0.590512 0.833687
0.000000 0.714749 0.834522
0.054596 0.714715 0.834494
0.208607 0.714625 0.834420
0.339119 0.714744 0.834615
0.471794 0.723155 0.844423
0.606467 0.732664 0.855537
0.740254 0.740254 0.864473
0.863321 0.739089 0.863321
0.970940 0.729563 0.852530
0.000000 0.832996 0.832996
0.021078 0.832968 0.832968
0.200309 0.833806 0.833806
0.337014 0.839257 0.839257
0.470972 0.847089 0.847089
0.606160 0.856930 0.856930
0.742840 0.868127 0.868127
0.879922 0.879922 0.879922
0.991156 0.870606 0.870606
0.000000 0.947198 0.831220
0.000000 0.947174 0.831192
0.189874 0.948314 0.832181
0.330736 0.952893 0.836195
0.465210 0.959519 0.841999
0.599091 0.967861 0.849299
0.732895 0.977126 0.857391
0.864631 0.985454 0.864631
0.987439 0.987439 0.866244
0.000000 0.000000 0.952969
0.104468 0.000000 0.952946
0.227192 0.000000 0.952884
0.349877 0.000000 0.952770
0.473181 0.000000 0.952594
0.596198 0.000000 0.952350
0.717735 0.000000 0.952037
0.836511 0.000000 0.951656
0.951214 0.000000 0.951214
0.000000 0.103731 0.952890
0.103417 0.103417 0.952867
0.226721 0.102590 0.952805
0.349593 0.101046 0.952691
0.472985 0.098624 0.952515
0.596052 0.095182 0.952271
0.717620 0.090586 0.951958
0.836416 0.084711 0.951577
0.951134 0.077428 0.951134
0.000000 0.225990 0.952682
0.100611 0.225849 0.952659
0.225479 0.225479 0.952597
0.348846 0.224794 0.952483
0.472471 0.223733 0.952307
0.595669 0.222256 0.952063
0.717318 0.220340 0.951750
0.836170 0.217986 0.951369
0.950926 0.215219 0.950926
0.000000 0.348181 0.952298
0.095230 0.348096 0.952274
0.223164 0.347873 0.952213
0.347461 0.347461 0.952098
0.471519 0.346824 0.951922
0.594960 0.345941 0.951679
0.716761 0.344801 0.951365
0.835713 0.343410 0.950984
0.950541 0.341786 0.950541
0.000000 0.470982 0.951706
0.086369 0.470923 0.951682
0.219544 0.470770 0.951620
0.345314 0.470486 0.951506
0.470048 0.470048 0.951330
0.593865 0.469441 0.951086
0.715900 0.468659 0.950772
0.835010 0.467706 0.950390
0.949947 0.466598 0.949947
0.000000 0.593494 0.950885
0.072641 0.593451 0.950862
0.214420 0.593336 0.950800
0.342316 0.593124 0.950685
0.468002 0.592798 0.950509
0.592346 0.592346 0.950264
0.714707 0.591764 0.949950
0.834034 0.591055 0.949568
0.949125 0.590232 0.949125
0.000000 0.714531 0.949829
0.051172 0.714496 0.949805
0.207624 0.714406 0.949743
0.338413 0.714240 0.949628
0.465355 0.713983 0.949452
0.592068 0.715632 0.951826
0.723003 0.723003 0.961744
0.848440 0.726155 0.966213
0.962752 0.723196 0.962752
0.000000 0.832817 0.948542
0.016945 0.832789 0.948519
0.199018 0.832715 0.948457
0.333596 0.832578 0.948342
0.465968 0.838985 0.955645
0.599655 0.848170 0.966114
0.733920 0.857884 0.977207
0.865267 0.865267 0.985692
0.984363 0.863952 0.984363
0.000000 0.947047 0.947047
0.000000 0.947023 0.947023
0.188489 0.946961 0.946961
0.329650 0.951427 0.951427
0.464261 0.958276 0.958276
0.598400 0.967078 0.967078
0.732976 0.977374 0.977374
0.867327 0.988558 0.988558
1.000000 1.000000 1.000000
