colorkit/colorkit/luts/portra_style.cube
TITLE "portra_style"
LUT_3D_SIZE 33
DOMAIN_MIN 0.0 0.0 0.0
DOMAIN_MAX 1.0 1.0 1.0
0.024378 0.020719 0.020027
0.057365 0.020861 0.020169
0.089544 0.020998 0.020306
0.121245 0.021133 0.020441
0.152604 0.021267 0.020575
0.183698 0.021399 0.020707
0.214575 0.021529 0.020837
0.245271 0.021659 0.020967
0.275809 0.021788 0.021096
0.306208 0.021916 0.021224
0.336484 0.022043 0.021351
0.366649 0.022169 0.021477
0.396712 0.022295 0.021603
0.426682 0.022420 0.021728
0.456566 0.022545 0.021853
0.486370 0.022669 0.021977
0.516100 0.022792 0.022100
0.545760 0.022915 0.022223
0.575354 0.023038 0.022346
0.604886 0.023160 0.022468
0.634360 0.023281 0.022589
0.663778 0.023402 0.022710
0.693143 0.023523 0.022831
0.722458 0.023643 0.022951
0.751724 0.023763 0.023071
0.780944 0.023883 0.023191
0.810119 0.024002 0.023310
0.839252 0.024121 0.023429
0.868344 0.024239 0.023547
0.897397 0.024357 0.023665
0.926411 0.024475 0.023783
0.955389 0.024593 0.023901
0.984331 0.024710 0.024018
0.024869 0.052746 0.020483
0.057862 0.052886 0.020623
0.090048 0.053023 0.020760
0.121755 0.053157 0.020894
0.153120 0.053289 0.021026
0.184219 0.053420 0.021157
0.215103 0.053550 0.021287
0.245804 0.053679 0.021416
0.276347 0.053807 0.021544
0.306752 0.053934 0.021671
0.337033 0.054060 0.021797
0.367202 0.054186 0.021923
0.397270 0.054311 0.022048
0.427245 0.054435 0.022172
0.457134 0.054559 0.022296
0.486943 0.054682 0.022419
0.516677 0.054805 0.022542
0.546342 0.054927 0.022664
0.575940 0.055049 0.022786
0.605477 0.055170 0.022907
0.634955 0.055291 0.023028
0.664377 0.055411 0.023148
0.693746 0.055531 0.023268
0.723064 0.055651 0.023388
0.752335 0.055770 0.023507
0.781558 0.055889 0.023626
0.810738 0.056008 0.023745
0.839874 0.056126 0.023863
0.868970 0.056244 0.023981
0.898026 0.056361 0.024099
0.927043 0.056479 0.024216
0.956024 0.056596 0.024333
0.984969 0.056712 0.024449
0.025374 0.084336 0.020929
0.058373 0.084475 0.021069
0.090565 0.084611 0.021204
0.122277 0.084744 0.021337
0.153647 0.084876 0.021469
0.184752 0.085006 0.021599
0.215641 0.085135 0.021728
0.246347 0.085263 0.021856
0.276896 0.085390 0.021983
0.307305 0.085516 0.022109
0.337591 0.085642 0.022235
0.367765 0.085766 0.022360
0.397838 0.085891 0.022484
0.427817 0.086014 0.022607
0.457710 0.086137 0.022731
0.487524 0.086260 0.022853
0.517262 0.086382 0.022975
0.546931 0.086503 0.023097
0.576533 0.086624 0.023218
0.606074 0.086745 0.023338
0.635556 0.086865 0.023458
0.664982 0.086985 0.023578
0.694355 0.087104 0.023698
0.723677 0.087223 0.023817
0.752950 0.087342 0.023935
0.782177 0.087460 0.024054
0.811360 0.087578 0.024172
0.840500 0.087696 0.024289
0.869599 0.087813 0.024407
0.898658 0.087931 0.024524
0.927679 0.088047 0.024641
0.956662 0.088164 0.024757
0.985489 0.088279 0.024873
0.025894 0.115673 0.021369
0.058899 0.115812 0.021507
0.091096 0.115946 0.021642
0.122813 0.116079 0.021774
0.154189 0.116209 0.021905
0.185299 0.116339 0.022034
0.216192 0.116467 0.022163
0.246903 0.116594 0.022290
0.277456 0.116720 0.022416
0.307870 0.116846 0.022542
0.338161 0.116971 0.022666
0.368339 0.117095 0.022790
0.398416 0.117218 0.022914
0.428400 0.117341 0.023037
0.458297 0.117463 0.023159
0.488114 0.117585 0.023281
0.517857 0.117707 0.023402
0.547529 0.117827 0.023523
0.577135 0.117948 0.023644
0.606680 0.118068 0.023764
0.636165 0.118188 0.023883
0.665595 0.118307 0.024003
0.694971 0.118426 0.024121
0.724296 0.118544 0.024240
0.753573 0.118662 0.024358
0.782803 0.118780 0.024476
0.811989 0.118898 0.024593
0.841132 0.119015 0.024711
0.870234 0.119132 0.024827
0.899296 0.119248 0.024944
0.928319 0.119365 0.025060
0.957306 0.119481 0.025176
0.985939 0.119595 0.025291
0.026428 0.146831 0.021803
0.059438 0.146969 0.021941
0.091641 0.147102 0.022075
0.123363 0.147234 0.022206
0.154743 0.147364 0.022336
0.185858 0.147492 0.022465
0.216756 0.147620 0.022592
0.247471 0.147746 0.022718
0.278029 0.147872 0.022844
0.308447 0.147996 0.022969
0.338742 0.148121 0.023093
0.368925 0.148244 0.023216
0.399005 0.148367 0.023339
0.428993 0.148489 0.023461
0.458894 0.148611 0.023583
0.488715 0.148732 0.023704
0.518461 0.148853 0.023825
0.548137 0.148973 0.023945
0.577747 0.149093 0.024065
0.607294 0.149212 0.024185
0.636783 0.149331 0.024304
0.666216 0.149450 0.024423
0.695595 0.149569 0.024541
0.724923 0.149687 0.024659
0.754203 0.149804 0.024777
0.783436 0.149922 0.024894
0.812625 0.150039 0.025011
0.841770 0.150155 0.025128
0.870875 0.150272 0.025244
0.899939 0.150388 0.025360
0.928965 0.150504 0.025476
0.957954 0.150620 0.025592
0.986387 0.150733 0.025705
0.026977 0.177849 0.022233
0.059992 0.177986 0.022370
0.092199 0.178119 0.022503
0.123926 0.178250 0.022633
0.155311 0.178379 0.022763
0.186430 0.178507 0.022890
0.217332 0.178633 0.023017
0.248052 0.178759 0.023143
0.278613 0.178884 0.023268
0.309036 0.179008 0.023392
0.339334 0.179132 0.023515
0.369521 0.179254 0.023638
0.399605 0.179377 0.023760
0.429596 0.179498 0.023882
0.459501 0.179619 0.024003
0.489325 0.179740 0.024124
0.519074 0.179860 0.024244
0.548753 0.179980 0.024364
0.578367 0.180099 0.024483
0.607917 0.180218 0.024602
0.637409 0.180337 0.024721
0.666844 0.180455 0.024839
0.696227 0.180573 0.024957
0.725558 0.180691 0.025074
0.754840 0.180808 0.025192
0.784076 0.180925 0.025309
0.813267 0.181041 0.025425
0.842415 0.181158 0.025541
0.871522 0.181274 0.025658
0.900589 0.181390 0.025773
0.929617 0.181505 0.025889
0.958608 0.181621 0.026004
0.986833 0.181732 0.026116
0.027538 0.208754 0.022659
0.060558 0.208890 0.022795
0.092770 0.209022 0.022927
0.124501 0.209152 0.023057
0.155890 0.209280 0.023185
0.187013 0.209407 0.023312
0.217920 0.209533 0.023438
0.248643 0.209659 0.023564
0.279209 0.209783 0.023688
0.309635 0.209906 0.023811
0.339937 0.210029 0.023934
0.370127 0.210151 0.024056
0.400215 0.210273 0.024178
0.430209 0.210394 0.024299
0.460117 0.210515 0.024420
0.489944 0.210635 0.024540
0.519697 0.210755 0.024660
0.549379 0.210874 0.024779
0.578995 0.210993 0.024898
0.608548 0.211111 0.025016
0.638043 0.211230 0.025135
0.667481 0.211347 0.025252
0.696865 0.211465 0.025370
0.726199 0.211582 0.025487
0.755484 0.211699 0.025604
0.784722 0.211815 0.025720
0.813915 0.211932 0.025837
0.843066 0.212048 0.025952
0.872174 0.212163 0.026068
0.901243 0.212279 0.026184
0.930273 0.212394 0.026299
0.959266 0.212509 0.026414
0.987278 0.212620 0.026525
0.028113 0.239562 0.023081
0.061137 0.239697 0.023216
0.093353 0.239828 0.023347
0.125088 0.239958 0.023477
0.156481 0.240085 0.023604
0.187608 0.240212 0.023731
0.218518 0.240337 0.023856
0.249245 0.240462 0.023981
0.279814 0.240586 0.024105
0.310244 0.240709 0.024228
0.340549 0.240831 0.024350
0.370742 0.240953 0.024472
0.400833 0.241074 0.024593
0.430831 0.241194 0.024713
0.460741 0.241315 0.024834
0.490572 0.241434 0.024953
0.520327 0.241553 0.025072
0.550012 0.241672 0.025191
0.579630 0.241791 0.025310
0.609186 0.241909 0.025428
0.638683 0.242027 0.025546
0.668124 0.242144 0.025663
0.697511 0.242261 0.025780
0.726846 0.242378 0.025897
0.756133 0.242494 0.026013
0.785374 0.242610 0.026129
0.814569 0.242726 0.026245
0.843721 0.242842 0.026361
0.872832 0.242958 0.026477
0.901902 0.243073 0.026592
0.930934 0.243188 0.026707
0.959928 0.243302 0.026821
0.987720 0.243412 0.026931
0.028699 0.270286 0.023499
0.061727 0.270420 0.023634
0.093947 0.270551 0.023765
0.125686 0.270680 0.023893
0.157083 0.270807 0.024021
0.188214 0.270933 0.024146
0.219127 0.271058 0.024271
0.249857 0.271182 0.024395
0.280429 0.271305 0.024518
0.310862 0.271428 0.024641
0.341170 0.271550 0.024763
0.371366 0.271671 0.024884
0.401460 0.271791 0.025005
0.431460 0.271912 0.025125
0.461374 0.272031 0.025245
0.491207 0.272151 0.025364
0.520964 0.272269 0.025483
0.550652 0.272388 0.025601
0.580273 0.272506 0.025719
0.609831 0.272624 0.025837
0.639330 0.272741 0.025954
0.668772 0.272858 0.026071
0.698161 0.272975 0.026188
0.727499 0.273091 0.026304
0.756788 0.273207 0.026421
0.786030 0.273323 0.026537
0.815227 0.273439 0.026652
0.844381 0.273554 0.026768
0.873493 0.273670 0.026883
0.902565 0.273784 0.026998
0.931598 0.273899 0.027112
0.960594 0.274014 0.027227
0.988162 0.274122 0.027335
0.029296 0.300937 0.023915
0.062328 0.301070 0.024049
0.094552 0.301201 0.024179
0.126295 0.301329 0.024307
0.157694 0.301456 0.024434
0.188828 0.301581 0.024559
0.219745 0.301705 0.024684
0.250478 0.301829 0.024807
0.281053 0.301952 0.024930
0.311489 0.302074 0.025052
0.341800 0.302195 0.025173
0.371998 0.302316 0.025294
0.402095 0.302436 0.025414
0.432097 0.302556 0.025534
0.462013 0.302675 0.025653
0.491849 0.302794 0.025772
0.521608 0.302912 0.025891
0.551298 0.303030 0.026009
0.580921 0.303148 0.026126
0.610481 0.303266 0.026244
0.639982 0.303383 0.026361
0.669426 0.303499 0.026478
0.698817 0.303616 0.026594
0.728157 0.303732 0.026710
0.757447 0.303848 0.026826
0.786691 0.303964 0.026942
0.815889 0.304079 0.027057
0.845044 0.304194 0.027172
0.874157 0.304309 0.027287
0.903231 0.304424 0.027402
0.932265 0.304538 0.027517
0.961262 0.304653 0.027631
0.988603 0.304760 0.027738
0.029904 0.331522 0.024328
0.062939 0.331655 0.024461
0.095166 0.331784 0.024591
0.126912 0.331912 0.024718
0.158315 0.332038 0.024845
0.189452 0.332163 0.024969
0.220371 0.332287 0.025093
0.251107 0.332410 0.025216
0.281685 0.332532 0.025339
0.312123 0.332654 0.025460
0.342437 0.332775 0.025581
0.372638 0.332895 0.025702
0.402736 0.333015 0.025821
0.432741 0.333135 0.025941
0.462659 0.333253 0.026060
0.492496 0.333372 0.026178
0.522258 0.333490 0.026296
0.551950 0.333608 0.026414
0.581574 0.333725 0.026532
0.611136 0.333842 0.026649
0.640639 0.333959 0.026766
0.670085 0.334076 0.026882
0.699477 0.334192 0.026998
0.728818 0.334308 0.027114
0.758110 0.334424 0.027230
0.787354 0.334539 0.027345
0.816554 0.334654 0.027461
0.845710 0.334769 0.027576
0.874825 0.334884 0.027690
0.903899 0.334999 0.027805
0.932934 0.335113 0.027919
0.961932 0.335227 0.028034
0.989043 0.335333 0.028140
0.030521 0.362047 0.024738
0.063559 0.362179 0.024871
0.095789 0.362309 0.025000
0.127538 0.362436 0.025127
0.158944 0.362562 0.025253
0.190083 0.362686 0.025377
0.221005 0.362809 0.025501
0.251744 0.362932 0.025623
0.282324 0.363054 0.025745
0.312764 0.363175 0.025867
0.343080 0.363296 0.025987
0.373283 0.363416 0.026107
0.403384 0.363535 0.026227
0.433391 0.363654 0.026346
0.463310 0.363773 0.026464
0.493149 0.363891 0.026583
0.522913 0.364009 0.026701
0.552606 0.364127 0.026818
0.582232 0.364244 0.026935
0.611796 0.364361 0.027052
0.641299 0.364477 0.027169
0.670747 0.364594 0.027285
0.700140 0.364710 0.027401
0.729482 0.364825 0.027517
0.758775 0.364941 0.027632
0.788021 0.365056 0.027748
0.817221 0.365171 0.027863
0.846378 0.365286 0.027977
0.875493 0.365401 0.028092
0.904568 0.365515 0.028207
0.933604 0.365630 0.028321
0.962602 0.365744 0.028435
0.989482 0.365849 0.028540
0.031146 0.392518 0.025146
0.064188 0.392650 0.025278
0.096420 0.392779 0.025407
0.128172 0.392906 0.025534
0.159580 0.393031 0.025659
0.190722 0.393155 0.025783
0.221646 0.393278 0.025906
0.252387 0.393400 0.026029
0.282969 0.393522 0.026150
0.313411 0.393643 0.026271
0.343729 0.393763 0.026391
0.373934 0.393883 0.026511
0.404036 0.394002 0.026630
0.434045 0.394121 0.026749
0.463966 0.394239 0.026867
0.493807 0.394357 0.026985
0.523572 0.394475 0.027103
0.553266 0.394592 0.027220
0.582894 0.394709 0.027337
0.612458 0.394826 0.027454
0.641963 0.394942 0.027570
0.671411 0.395058 0.027687
0.700806 0.395174 0.027802
0.730149 0.395290 0.027918
0.759442 0.395405 0.028033
0.788689 0.395520 0.028149
0.817890 0.395635 0.028264
0.847048 0.395750 0.028378
0.876163 0.395864 0.028493
0.905239 0.395979 0.028607
0.934275 0.396093 0.028722
0.963273 0.396207 0.028836
0.989920 0.396311 0.028940
0.031779 0.422939 0.025552
0.064823 0.423071 0.025684
0.097058 0.423199 0.025812
0.128812 0.423325 0.025939
0.160222 0.423450 0.026064
0.191366 0.423574 0.026187
0.222293 0.423697 0.026310
0.253035 0.423819 0.026432
0.283619 0.423940 0.026553
0.314063 0.424061 0.026674
0.344383 0.424181 0.026794
0.374589 0.424300 0.026913
0.404693 0.424419 0.027032
0.434703 0.424538 0.027151
0.464626 0.424656 0.027269
0.494467 0.424774 0.027387
0.524234 0.424891 0.027504
0.553929 0.425008 0.027621
0.583558 0.425125 0.027738
0.613123 0.425241 0.027855
0.642629 0.425358 0.027971
0.672078 0.425474 0.028087
0.701473 0.425589 0.028203
0.730817 0.425705 0.028318
0.760111 0.425820 0.028434
0.789358 0.425935 0.028549
0.818559 0.426050 0.028664
0.847717 0.426165 0.028778
0.876833 0.426279 0.028893
0.905909 0.426394 0.029007
0.934945 0.426508 0.029121
0.963943 0.426622 0.029235
0.990357 0.426725 0.029338
0.032418 0.453314 0.025956
0.065465 0.453445 0.026088
0.097702 0.453573 0.026216
0.129458 0.453699 0.026342
0.160870 0.453824 0.026466
0.192016 0.453947 0.026590
0.222944 0.454070 0.026712
0.253689 0.454192 0.026834
0.284274 0.454312 0.026955
0.314720 0.454433 0.027075
0.345040 0.454553 0.027195
0.375248 0.454672 0.027314
0.405354 0.454791 0.027433
0.435364 0.454909 0.027551
0.465288 0.455027 0.027669
0.495131 0.455145 0.027787
0.524898 0.455262 0.027904
0.554594 0.455379 0.028021
0.584224 0.455496 0.028138
0.613790 0.455612 0.028254
0.643296 0.455728 0.028371
0.672746 0.455844 0.028486
0.702141 0.455960 0.028602
0.731485 0.456075 0.028718
0.760780 0.456190 0.028833
0.790027 0.456305 0.028948
0.819229 0.456420 0.029063
0.848387 0.456535 0.029177
0.877503 0.456650 0.029292
0.906578 0.456764 0.029406
0.935614 0.456878 0.029521
0.964612 0.456992 0.029635
0.990794 0.457094 0.029737
0.033064 0.483646 0.026359
0.066113 0.483777 0.026490
0.098352 0.483905 0.026618
0.130109 0.484031 0.026743
0.161523 0.484155 0.026868
0.192671 0.484278 0.026991
0.223600 0.484400 0.027113
0.254346 0.484522 0.027234
0.284933 0.484643 0.027355
0.315380 0.484763 0.027475
0.345701 0.484882 0.027595
0.375910 0.485001 0.027714
0.406017 0.485120 0.027833
0.436028 0.485238 0.027951
0.465953 0.485356 0.028069
0.495796 0.485474 0.028186
0.525564 0.485591 0.028303
0.555261 0.485708 0.028420
0.584891 0.485824 0.028537
0.614457 0.485941 0.028653
0.643964 0.486057 0.028769
0.673414 0.486173 0.028885
0.702810 0.486288 0.029001
0.732154 0.486404 0.029116
0.761448 0.486519 0.029232
0.790695 0.486634 0.029347
0.819897 0.486749 0.029462
0.849055 0.486864 0.029576
0.878170 0.486978 0.029691
0.907245 0.487093 0.029805
0.936281 0.487207 0.029920
0.965279 0.487321 0.030034
0.991230 0.487422 0.030135
0.033715 0.513939 0.026760
0.066765 0.514069 0.026891
0.099006 0.514197 0.027018
0.130765 0.514322 0.027144
0.162180 0.514446 0.027268
0.193329 0.514569 0.027391
0.224260 0.514691 0.027513
0.255007 0.514813 0.027634
0.285594 0.514933 0.027754
0.316042 0.515053 0.027874
0.346365 0.515173 0.027994
0.376574 0.515292 0.028113
0.406681 0.515410 0.028231
0.436694 0.515528 0.028349
0.466619 0.515646 0.028467
0.496463 0.515764 0.028585
0.526231 0.515881 0.028702
0.555928 0.515997 0.028819
0.585558 0.516114 0.028935
0.615125 0.516230 0.029052
0.644632 0.516346 0.029168
0.674081 0.516462 0.029283
0.703477 0.516578 0.029399
0.732821 0.516693 0.029515
0.762115 0.516809 0.029630
0.791362 0.516924 0.029745
0.820563 0.517039 0.029860
0.849721 0.517154 0.029975
0.878836 0.517268 0.030089
0.907910 0.517383 0.030204
0.936945 0.517497 0.030318
0.965942 0.517611 0.030433
0.991666 0.517712 0.030533
0.034370 0.544194 0.027159
0.067421 0.544324 0.027290
0.099663 0.544451 0.027417
0.131424 0.544577 0.027543
0.162840 0.544701 0.027666
0.193990 0.544823 0.027789
0.224922 0.544945 0.027911
0.255669 0.545066 0.028032
0.286258 0.545187 0.028153
0.316706 0.545307 0.028273
0.347029 0.545426 0.028392
0.377240 0.545545 0.028511
0.407347 0.545663 0.028629
0.437360 0.545782 0.028747
0.467285 0.545899 0.028865
0.497129 0.546017 0.028982
0.526898 0.546134 0.029100
0.556595 0.546251 0.029216
0.586225 0.546367 0.029333
0.615791 0.546483 0.029449
0.645298 0.546600 0.029565
0.674748 0.546715 0.029681
0.704143 0.546831 0.029797
0.733486 0.546947 0.029913
0.762780 0.547062 0.030028
0.792026 0.547177 0.030143
0.821227 0.547292 0.030258
0.850384 0.547407 0.030373
0.879498 0.547522 0.030488
0.908572 0.547637 0.030603
0.937606 0.547751 0.030717
0.966602 0.547866 0.030832
0.992101 0.547965 0.030931
0.035028 0.574414 0.027558
0.068081 0.574544 0.027688
0.100324 0.574671 0.027815
0.132085 0.574796 0.027941
0.163502 0.574920 0.028064
0.194653 0.575043 0.028187
0.225585 0.575164 0.028309
0.256333 0.575285 0.028430
0.286922 0.575406 0.028550
0.317371 0.575526 0.028670
0.347695 0.575645 0.028789
0.377905 0.575764 0.028908
0.408013 0.575882 0.029027
0.438026 0.576000 0.029145
0.467951 0.576118 0.029262
0.497795 0.576235 0.029380
0.527563 0.576353 0.029497
0.557260 0.576469 0.029614
0.586890 0.576586 0.029730
0.616456 0.576702 0.029847
0.645962 0.576819 0.029963
0.675412 0.576935 0.030079
0.704806 0.577050 0.030195
0.734149 0.577166 0.030310
0.763442 0.577281 0.030426
0.792688 0.577397 0.030541
0.821887 0.577512 0.030656
0.851043 0.577627 0.030771
0.880157 0.577742 0.030886
0.909229 0.577857 0.031001
0.938262 0.577972 0.031116
0.967257 0.578086 0.031231
0.992536 0.578185 0.031329
0.035689 0.604601 0.027956
0.068743 0.604731 0.028086
0.100986 0.604858 0.028213
0.132748 0.604983 0.028338
0.164166 0.605106 0.028461
0.195317 0.605229 0.028584
0.226250 0.605351 0.028706
0.256998 0.605472 0.028827
0.287587 0.605592 0.028947
0.318036 0.605712 0.029067
0.348360 0.605831 0.029186
0.378571 0.605950 0.029305
0.408678 0.606068 0.029423
0.438691 0.606186 0.029541
0.468616 0.606304 0.029659
0.498460 0.606422 0.029777
0.528227 0.606539 0.029894
0.557924 0.606656 0.030011
0.587553 0.606773 0.030128
0.617119 0.606889 0.030244
0.646624 0.607005 0.030360
0.676073 0.607121 0.030476
0.705466 0.607237 0.030592
0.734808 0.607353 0.030708
0.764100 0.607469 0.030824
0.793345 0.607584 0.030939
0.822543 0.607700 0.031055
0.851698 0.607815 0.031170
0.880810 0.607930 0.031285
0.909881 0.608045 0.031400
0.938913 0.608160 0.031515
0.967906 0.608275 0.031630
0.992970 0.608373 0.031728
0.036351 0.634756 0.028352
0.069406 0.634886 0.028482
0.101650 0.635013 0.028609
0.133412 0.635138 0.028734
0.164830 0.635262 0.028858
0.195981 0.635384 0.028980
0.226914 0.635506 0.029102
0.257663 0.635627 0.029223
0.288252 0.635747 0.029343
0.318701 0.635867 0.029463
0.349024 0.635986 0.029583
0.379235 0.636105 0.029701
0.409342 0.636224 0.029820
0.439354 0.636342 0.029938
0.469279 0.636460 0.030056
0.499122 0.636577 0.030174
0.528889 0.636695 0.030291
0.558584 0.636812 0.030408
0.588213 0.636929 0.030525
0.617778 0.637045 0.030641
0.647282 0.637162 0.030758
0.676730 0.637278 0.030874
0.706122 0.637394 0.030990
0.735463 0.637510 0.031106
0.764754 0.637626 0.031222
0.793997 0.637742 0.031338
0.823194 0.637857 0.031453
0.852348 0.637973 0.031569
0.881458 0.638088 0.031684
0.910528 0.638204 0.031800
0.939558 0.638319 0.031915
0.968549 0.638434 0.032030
0.993404 0.638531 0.032128
0.037014 0.664882 0.028749
0.070069 0.665013 0.028879
0.102314 0.665139 0.029005
0.134076 0.665264 0.029130
0.165494 0.665388 0.029254
0.196645 0.665510 0.029377
0.227578 0.665632 0.029498
0.258326 0.665753 0.029619
0.288915 0.665874 0.029740
0.319364 0.665993 0.029859
0.349687 0.666113 0.029979
0.379896 0.666232 0.030098
0.410003 0.666350 0.030216
0.440014 0.666469 0.030335
0.469938 0.666587 0.030453
0.499781 0.666704 0.030570
0.529547 0.666822 0.030688
0.559241 0.666939 0.030805
0.588869 0.667056 0.030922
0.618433 0.667173 0.031039
0.647936 0.667289 0.031156
0.677382 0.667406 0.031272
0.706774 0.667522 0.031388
0.736113 0.667639 0.031505
0.765402 0.667755 0.031621
0.794644 0.667871 0.031737
0.823839 0.667986 0.031853
0.852991 0.668102 0.031968
0.882100 0.668218 0.032084
0.911167 0.668334 0.032200
0.940196 0.668449 0.032315
0.969185 0.668565 0.032431
0.993837 0.668662 0.032528
0.037678 0.694981 0.029144
0.070732 0.695111 0.029274
0.102977 0.695238 0.029401
0.134739 0.695363 0.029526
0.166157 0.695486 0.029650
0.197308 0.695609 0.029772
0.228240 0.695731 0.029894
0.258988 0.695852 0.030015
0.289576 0.695972 0.030136
0.320024 0.696092 0.030256
0.350346 0.696212 0.030375
0.380555 0.696331 0.030494
0.410661 0.696449 0.030613
0.440672 0.696568 0.030731
0.470594 0.696686 0.030850
0.500436 0.696804 0.030967
0.530201 0.696922 0.031085
0.559894 0.697039 0.031203
0.589520 0.697156 0.031320
0.619082 0.697273 0.031437
0.648584 0.697390 0.031554
0.678029 0.697507 0.031670
0.707419 0.697623 0.031787
0.736757 0.697740 0.031903
0.766044 0.697856 0.032020
0.795284 0.697973 0.032136
0.824478 0.698089 0.032252
0.853627 0.698205 0.032368
0.882734 0.698321 0.032484
0.911800 0.698437 0.032600
0.940826 0.698553 0.032716
0.969813 0.698669 0.032832
0.994270 0.698765 0.032929
0.038340 0.725052 0.029540
0.071395 0.725182 0.029670
0.103639 0.725309 0.029797
0.135400 0.725434 0.029922
0.166818 0.725558 0.030045
0.197968 0.725681 0.030168
0.228900 0.725803 0.030290
0.259647 0.725924 0.030411
0.290234 0.726044 0.030532
0.320681 0.726164 0.030652
0.351003 0.726284 0.030772
0.381210 0.726403 0.030891
0.411315 0.726522 0.031010
0.441324 0.726641 0.031128
0.471246 0.726759 0.031247
0.501086 0.726877 0.031365
0.530849 0.726995 0.031483
0.560541 0.727113 0.031600
0.590166 0.727230 0.031718
0.619727 0.727348 0.031835
0.649227 0.727465 0.031952
0.678670 0.727582 0.032069
0.708058 0.727699 0.032186
0.737393 0.727816 0.032303
0.766679 0.727932 0.032420
0.795917 0.728049 0.032536
0.825108 0.728165 0.032653
0.854256 0.728282 0.032769
0.883360 0.728398 0.032886
0.912424 0.728515 0.033002
0.941447 0.728631 0.033118
0.970432 0.728747 0.033235
0.994703 0.728843 0.033331
0.039001 0.755098 0.029935
0.072055 0.755229 0.030065
0.104298 0.755356 0.030192
0.136059 0.755481 0.030317
0.167476 0.755605 0.030441
0.198625 0.755727 0.030564
0.229556 0.755850 0.030686
0.260302 0.755971 0.030807
0.290889 0.756092 0.030928
0.321334 0.756212 0.031048
0.351654 0.756332 0.031168
0.381861 0.756451 0.031288
0.411964 0.756571 0.031407
0.441972 0.756689 0.031526
0.471892 0.756808 0.031644
0.501730 0.756926 0.031763
0.531492 0.757045 0.031881
0.561183 0.757162 0.031999
0.590805 0.757280 0.032117
0.620364 0.757398 0.032234
0.649862 0.757515 0.032352
0.679303 0.757633 0.032469
0.708689 0.757750 0.032586
0.738023 0.757867 0.032704
0.767306 0.757984 0.032821
0.796542 0.758101 0.032938
0.825731 0.758218 0.033054
0.854876 0.758335 0.033171
0.883978 0.758452 0.033288
0.913038 0.758569 0.033405
0.942059 0.758685 0.033522
0.971042 0.758802 0.033638
0.995135 0.758898 0.033734
0.039659 0.785121 0.030330
0.072712 0.785251 0.030460
0.104955 0.785378 0.030588
0.136715 0.785503 0.030713
0.168130 0.785627 0.030837
0.199279 0.785750 0.030960
0.230208 0.785873 0.031082
0.260953 0.785994 0.031204
0.291538 0.786115 0.031325
0.321982 0.786236 0.031445
0.352301 0.786356 0.031565
0.382506 0.786476 0.031685
0.412607 0.786595 0.031805
0.442614 0.786714 0.031924
0.472532 0.786833 0.032043
0.502369 0.786952 0.032161
0.532129 0.787070 0.032280
0.561817 0.787189 0.032398
0.591437 0.787307 0.032516
0.620994 0.787425 0.032634
0.650490 0.787542 0.032752
0.679929 0.787660 0.032870
0.709312 0.787778 0.032987
0.738643 0.787895 0.033105
0.767924 0.788013 0.033222
0.797157 0.788130 0.033340
0.826344 0.788248 0.033457
0.855486 0.788365 0.033574
0.884585 0.788482 0.033692
0.913643 0.788599 0.033809
0.942661 0.788717 0.033926
0.971641 0.788834 0.034043
0.995567 0.788930 0.034139
0.040314 0.815120 0.030725
0.073366 0.815250 0.030856
0.105607 0.815378 0.030983
0.137366 0.815503 0.031109
0.168781 0.815627 0.031233
0.199927 0.815751 0.031356
0.230855 0.815873 0.031479
0.261599 0.815995 0.031601
0.292182 0.816116 0.031722
0.322625 0.816237 0.031843
0.352942 0.816357 0.031963
0.383145 0.816477 0.032083
0.413244 0.816597 0.032203
0.443249 0.816717 0.032322
0.473165 0.816836 0.032442
0.502999 0.816955 0.032561
0.532757 0.817074 0.032679
0.562443 0.817192 0.032798
0.592061 0.817311 0.032917
0.621616 0.817429 0.033035
0.651109 0.817547 0.033153
0.680545 0.817666 0.033271
0.709926 0.817784 0.033389
0.739255 0.817902 0.033507
0.768533 0.818020 0.033625
0.797763 0.818137 0.033743
0.826947 0.818255 0.033861
