colorkit/colorkit/luts/portra_style.cube
TITLE "portra_style"
LUT_3D_SIZE 5
DOMAIN_MIN 0.0 0.0 0.0
DOMAIN_MAX 1.0 1.0 1.0
0.024378 0.020719 0.020027
0.275809 0.021788 0.021096
0.516100 0.022792 0.022100
0.751724 0.023763 0.023071
0.984331 0.024710 0.024018
0.028699 0.270286 0.023499
0.280429 0.271305 0.024518
0.520964 0.272269 0.025483
0.756788 0.273207 0.026421
0.988162 0.274122 0.027335
0.033715 0.513939 0.026760
0.285594 0.514933 0.027754
0.526231 0.515881 0.028702
0.762115 0.516809 0.029630
0.991666 0.517712 0.030533
0.039001 0.755098 0.029935
0.290889 0.756092 0.030928
0.531492 0.757045 0.031881
0.767306 0.757984 0.032821
0.995135 0.758898 0.033734
0.044124 0.994460 0.033106
0.295884 0.995548 0.034122
0.536324 0.996586 0.035102
0.771940 0.997604 0.036076
0.998583 0.998583 0.037024
0.024750 0.021066 0.258024
0.276216 0.022129 0.259087
0.516537 0.023128 0.260086
0.752187 0.024095 0.261053
0.984815 0.025038 0.261996
0.029172 0.270616 0.261479
0.280924 0.271632 0.262495
0.521475 0.272593 0.263456
0.757311 0.273529 0.264392
0.988512 0.274442 0.265305
0.034241 0.514260 0.264731
0.286127 0.515253 0.265724
0.526767 0.516200 0.266671
0.762650 0.517128 0.267600
0.992016 0.518032 0.268503
0.039534 0.755418 0.267905
0.291415 0.756413 0.268899
0.532008 0.757367 0.269854
0.767807 0.758309 0.270796
0.995485 0.759225 0.271712
0.044621 0.994811 0.271083
0.296359 0.995898 0.272102
0.536776 0.996937 0.273086
0.772364 0.997955 0.274064
0.998933 0.998933 0.275017
0.025133 0.021411 0.496019
0.276634 0.022468 0.497076
0.516983 0.023462 0.498070
0.752657 0.024425 0.499033
0.985274 0.025365 0.499973
0.029652 0.270945 0.499458
0.281424 0.271957 0.500470
0.521990 0.272916 0.501429
0.757836 0.273850 0.502364
0.988862 0.274761 0.503274
0.034769 0.514581 0.502702
0.286662 0.515573 0.503694
0.527302 0.516520 0.504641
0.763183 0.517449 0.505570
0.992365 0.518352 0.506473
0.040066 0.755739 0.505875
0.291938 0.756735 0.506871
0.532519 0.757691 0.507827
0.768303 0.758636 0.508772
0.995835 0.759554 0.509691
0.045111 0.995162 0.509060
0.296827 0.996249 0.510083
0.537219 0.997287 0.511071
0.772778 0.998305 0.512054
0.999283 0.999283 0.513012
0.025528 0.021753 0.734012
0.277062 0.022805 0.735063
0.517439 0.023795 0.736053
0.753136 0.024754 0.737012
0.985624 0.025690 0.737948
0.030140 0.271272 0.737436
0.281929 0.272282 0.738445
0.522509 0.273238 0.739402
0.758365 0.274171 0.740334
0.989211 0.275080 0.741243
0.035300 0.514901 0.740672
0.287197 0.515893 0.741664
0.527838 0.516840 0.742611
0.763714 0.517769 0.743540
0.992715 0.518673 0.744444
0.040595 0.756059 0.743846
0.292458 0.757057 0.744843
0.533025 0.758016 0.745802
0.768792 0.758963 0.746749
0.996185 0.759884 0.747671
0.045595 0.995512 0.747039
0.297287 0.996600 0.748065
0.537652 0.997638 0.749058
0.773181 0.998655 0.750045
0.999634 0.999634 0.751009
0.025934 0.022094 0.972003
0.277499 0.023141 0.973049
0.517902 0.024127 0.974035
0.753621 0.025082 0.974990
0.985974 0.026014 0.975923
0.030633 0.271599 0.975412
0.282440 0.272605 0.976419
0.523032 0.273560 0.977373
0.758896 0.274492 0.978305
0.989561 0.275399 0.979212
0.035833 0.515221 0.978642
0.287733 0.516212 0.979634
0.528372 0.517159 0.980581
0.764244 0.518090 0.981511
0.993065 0.518994 0.982415
0.041122 0.756381 0.981817
0.292973 0.757380 0.982816
0.533526 0.758341 0.983777
0.769275 0.759291 0.984728
0.996535 0.760216 0.985652
0.046071 0.995863 0.985018
0.297739 0.996950 0.986049
0.538075 0.997988 0.987046
0.773573 0.999006 0.988039
0.999984 0.999984 0.989008
