colorkit/colorkit/luts/portra_style.cube
TITLE "portra_style"
LUT_3D_SIZE 9
DOMAIN_MIN 0.0 0.0 0.0
DOMAIN_MAX 1.0 1.0 1.0
0.024378 0.020719 0.020027
0.152604 0.021267 0.020575
0.275809 0.021788 0.021096
0.396712 0.022295 0.021603
0.516100 0.022792 0.022100
0.634360 0.023281 0.022589
0.751724 0.023763 0.023071
0.868344 0.024239 0.023547
0.984331 0.024710 0.024018
0.026428 0.146831 0.021803
0.154743 0.147364 0.022336
0.278029 0.147872 0.022844
0.399005 0.148367 0.023339
0.518461 0.148853 0.023825
0.636783 0.149331 0.024304
0.754203 0.149804 0.024777
0.870875 0.150272 0.025244
0.986387 0.150733 0.025705
0.028699 0.270286 0.023499
0.157083 0.270807 0.024021
0.280429 0.271305 0.024518
0.401460 0.271791 0.025005
0.520964 0.272269 0.025483
0.639330 0.272741 0.025954
0.756788 0.273207 0.026421
0.873493 0.273670 0.026883
0.988162 0.274122 0.027335
0.031146 0.392518 0.025146
0.159580 0.393031 0.025659
0.282969 0.393522 0.026150
0.404036 0.394002 0.026630
0.523572 0.394475 0.027103
0.641963 0.394942 0.027570
0.759442 0.395405 0.028033
0.876163 0.395864 0.028493
0.989920 0.396311 0.028940
0.033715 0.513939 0.026760
0.162180 0.514446 0.027268
0.285594 0.514933 0.027754
0.406681 0.515410 0.028231
0.526231 0.515881 0.028702
0.644632 0.516346 0.029168
0.762115 0.516809 0.029630
0.878836 0.517268 0.030089
0.991666 0.517712 0.030533
0.036351 0.634756 0.028352
0.164830 0.635262 0.028858
0.288252 0.635747 0.029343
0.409342 0.636224 0.029820
0.528889 0.636695 0.030291
0.647282 0.637162 0.030758
0.764754 0.637626 0.031222
0.881458 0.638088 0.031684
0.993404 0.638531 0.032128
0.039001 0.755098 0.029935
0.167476 0.755605 0.030441
0.290889 0.756092 0.030928
0.411964 0.756571 0.031407
0.531492 0.757045 0.031881
0.649862 0.757515 0.032352
0.767306 0.757984 0.032821
0.883978 0.758452 0.033288
0.995135 0.758898 0.033734
0.041611 0.875053 0.031517
0.170064 0.875563 0.032027
0.293451 0.876054 0.032518
0.414495 0.876538 0.033002
0.533989 0.877018 0.033482
0.652319 0.877495 0.033959
0.769719 0.877971 0.034435
0.886342 0.878447 0.034911
0.996861 0.878899 0.035363
0.044124 0.994460 0.033106
0.172539 0.995015 0.033623
0.295884 0.995548 0.034122
0.416882 0.996070 0.034614
0.536324 0.996586 0.035102
0.654599 0.997097 0.035589
0.771940 0.997604 0.036076
0.888499 0.998108 0.036562
0.998583 0.998583 0.037024
0.024562 0.020893 0.139026
0.152797 0.021439 0.139572
0.276011 0.021958 0.140092
0.396922 0.022464 0.140598
0.516317 0.022960 0.141093
0.634584 0.023448 0.141581
0.751954 0.023929 0.142062
0.868580 0.024404 0.142537
0.984572 0.024874 0.143007
0.026641 0.147000 0.140797
0.154964 0.147531 0.141329
0.278256 0.148038 0.141835
0.399239 0.148532 0.142330
0.518700 0.149017 0.142815
0.637027 0.149495 0.143293
0.754452 0.149967 0.143764
0.871128 0.150434 0.144231
0.986562 0.150894 0.144691
0.028935 0.270451 0.142489
0.157324 0.270971 0.143010
0.280676 0.271469 0.143507
0.401711 0.271954 0.143992
0.521219 0.272431 0.144470
0.639588 0.272902 0.144941
0.757049 0.273368 0.145407
0.873756 0.273830 0.145868
0.988337 0.274282 0.146320
0.031398 0.392680 0.144134
0.159836 0.393193 0.144646
0.283228 0.393683 0.145136
0.404298 0.394163 0.145616
0.523836 0.394635 0.146089
0.642229 0.395102 0.146556
0.759709 0.395565 0.147018
0.876431 0.396024 0.147478
0.990095 0.396470 0.147924
0.033977 0.514099 0.145745
0.162445 0.514607 0.146253
0.285861 0.515093 0.146739
0.406949 0.515570 0.147216
0.526499 0.516040 0.147687
0.644899 0.516506 0.148152
0.762383 0.516969 0.148615
0.879102 0.517428 0.149074
0.991841 0.517872 0.149518
0.036619 0.634916 0.147337
0.165098 0.635422 0.147843
0.288520 0.635907 0.148328
0.409609 0.636384 0.148805
0.529155 0.636855 0.149276
0.647547 0.637322 0.149743
0.765016 0.637787 0.150208
0.881718 0.638249 0.150670
0.993579 0.638693 0.151114
0.039268 0.755258 0.148920
0.167741 0.755765 0.149426
0.291152 0.756252 0.149914
0.412225 0.756731 0.150393
0.531751 0.757206 0.150867
0.650117 0.757677 0.151339
0.767557 0.758147 0.151808
0.884225 0.758615 0.152276
0.995310 0.759062 0.152723
0.041871 0.875214 0.150503
0.170322 0.875724 0.151014
0.293704 0.876216 0.151506
0.414745 0.876701 0.151990
0.534234 0.877181 0.152471
0.652560 0.877659 0.152949
0.769954 0.878136 0.153426
0.886571 0.878613 0.153902
0.997036 0.879066 0.154355
0.044373 0.994636 0.152094
0.172783 0.995190 0.152612
0.296122 0.995723 0.153112
0.417115 0.996246 0.153605
0.536551 0.996762 0.154094
0.654820 0.997272 0.154582
0.772153 0.997779 0.155069
0.888705 0.998283 0.155557
0.998758 0.998758 0.156020
0.024750 0.021066 0.258024
0.152994 0.021610 0.258568
0.276216 0.022129 0.259087
0.397135 0.022633 0.259591
0.516537 0.023128 0.260086
0.634811 0.023615 0.260573
0.752187 0.024095 0.261053
0.868818 0.024569 0.261527
0.984815 0.025038 0.261996
0.026857 0.147168 0.259791
0.155187 0.147698 0.260321
0.278486 0.148204 0.260827
0.399475 0.148697 0.261320
0.518941 0.149181 0.261804
0.637273 0.149659 0.262281
0.754702 0.150130 0.262752
0.871382 0.150596 0.263219
0.986737 0.151055 0.263678
0.029172 0.270616 0.261479
0.157567 0.271135 0.261999
0.280924 0.271632 0.262495
0.401963 0.272116 0.262980
0.521475 0.272593 0.263456
0.639847 0.273064 0.263927
0.757311 0.273529 0.264392
0.874020 0.273991 0.264854
0.988512 0.274442 0.265305
0.031651 0.392842 0.263121
0.160093 0.393354 0.263633
0.283488 0.393844 0.264122
0.404561 0.394323 0.264602
0.524101 0.394795 0.265074
0.642495 0.395262 0.265541
0.759977 0.395725 0.266003
0.876699 0.396184 0.266463
0.990269 0.396630 0.266908
0.034241 0.514260 0.264731
0.162710 0.514767 0.265238
0.286127 0.515253 0.265724
0.407216 0.515730 0.266201
0.526767 0.516200 0.266671
0.645167 0.516666 0.267137
0.762650 0.517128 0.267600
0.879368 0.517588 0.268060
0.992016 0.518032 0.268503
0.036886 0.635076 0.266322
0.165366 0.635581 0.266828
0.288787 0.636067 0.267313
0.409875 0.636544 0.267790
0.529420 0.637015 0.268261
0.647810 0.637483 0.268729
0.765278 0.637948 0.269194
0.881976 0.638411 0.269657
0.993754 0.638854 0.270100
0.039534 0.755418 0.267905
0.168006 0.755925 0.268412
0.291415 0.756413 0.268899
0.412485 0.756892 0.269379
0.532008 0.757367 0.269854
0.650371 0.757839 0.270326
0.767807 0.758309 0.270796
0.884470 0.758778 0.271265
0.995485 0.759225 0.271712
0.042131 0.875375 0.269489
0.170578 0.875886 0.270000
0.293957 0.876379 0.270493
0.414994 0.876864 0.270978
0.534478 0.877345 0.271459
0.652798 0.877824 0.271938
0.770187 0.878302 0.272416
0.886799 0.878779 0.272894
0.997211 0.879233 0.273348
0.044621 0.994811 0.271083
0.173026 0.995366 0.271601
0.296359 0.995898 0.272102
0.417346 0.996421 0.272596
0.536776 0.996937 0.273086
0.655038 0.997448 0.273575
0.772364 0.997955 0.274064
0.888908 0.998458 0.274553
0.998933 0.998933 0.275017
0.024940 0.021239 0.377022
0.153193 0.021781 0.377564
0.276424 0.022298 0.378081
0.397350 0.022802 0.378585
0.516759 0.023295 0.379078
0.635039 0.023781 0.379564
0.752421 0.024260 0.380043
0.869058 0.024733 0.380516
0.985060 0.025202 0.380985
0.027075 0.147336 0.378784
0.155412 0.147865 0.379313
0.278718 0.148370 0.379817
0.399712 0.148862 0.380309
0.519184 0.149345 0.380793
0.637520 0.149822 0.381269
0.754954 0.150292 0.381740
0.871637 0.150758 0.382205
0.986912 0.151216 0.382664
0.029411 0.270781 0.380469
0.157812 0.271299 0.380987
0.281173 0.271795 0.381483
0.402217 0.272279 0.381967
0.521732 0.272755 0.382443
0.640107 0.273225 0.382913
0.757573 0.273690 0.383378
0.874284 0.274151 0.383839
0.988687 0.274601 0.384290
0.031906 0.393004 0.382108
0.160351 0.393516 0.382619
0.283749 0.394005 0.383108
0.404824 0.394484 0.383587
0.524366 0.394956 0.384059
0.642762 0.395422 0.384526
0.760244 0.395885 0.384988
0.876967 0.396344 0.385447
0.990444 0.396789 0.385893
0.034505 0.514420 0.383716
0.162976 0.514927 0.384223
0.286394 0.515413 0.384709
0.407484 0.515890 0.385186
0.527034 0.516360 0.385656
0.645435 0.516826 0.386122
0.762917 0.517288 0.386585
0.879634 0.517749 0.387045
0.992191 0.518192 0.387488
0.037154 0.635236 0.385307
0.165634 0.635741 0.385812
0.289055 0.636227 0.386298
0.410142 0.636704 0.386775
0.529685 0.637175 0.387246
0.648073 0.637643 0.387714
0.765538 0.638109 0.388180
0.882234 0.638572 0.388643
0.993929 0.639016 0.389087
0.039800 0.755579 0.386890
0.168270 0.756086 0.387397
0.291677 0.756574 0.387885
0.412745 0.757054 0.388365
0.532264 0.757529 0.388841
0.650624 0.758002 0.389313
0.768056 0.758472 0.389784
0.884715 0.758942 0.390254
0.995660 0.759390 0.390701
0.042390 0.875537 0.388476
0.170833 0.876048 0.388987
0.294208 0.876541 0.389480
0.415240 0.877027 0.389966
0.534720 0.877509 0.390448
0.653035 0.877989 0.390928
0.770418 0.878468 0.391407
0.887024 0.878946 0.391886
0.997386 0.879401 0.392340
0.044867 0.994986 0.390071
0.173266 0.995541 0.390590
0.296594 0.996074 0.391092
0.417575 0.996596 0.391587
0.536998 0.997112 0.392079
0.655253 0.997623 0.392569
0.772572 0.998130 0.393058
0.889109 0.998633 0.393548
0.999108 0.999108 0.394014
0.025133 0.021411 0.496019
0.153395 0.021952 0.496560
0.276634 0.022468 0.497076
0.397567 0.022970 0.497578
0.516983 0.023462 0.498070
0.635270 0.023947 0.498555
0.752657 0.024425 0.499033
0.869300 0.024897 0.499506
0.985274 0.025365 0.499973
0.027295 0.147504 0.497776
0.155640 0.148032 0.498304
0.278951 0.148535 0.498808
0.399951 0.149027 0.499299
0.519428 0.149509 0.499781
0.637769 0.149985 0.500257
0.755207 0.150455 0.500727
0.871893 0.150920 0.501192
0.987087 0.151377 0.501649
0.029652 0.270945 0.499458
0.158058 0.271462 0.499976
0.281424 0.271957 0.500470
0.402471 0.272441 0.500954
0.521990 0.272916 0.501429
0.640368 0.273386 0.501899
0.757836 0.273850 0.502364
0.874549 0.274311 0.502824
0.988862 0.274761 0.503274
0.032161 0.393166 0.501095
0.160610 0.393677 0.501605
0.284011 0.394166 0.502094
0.405089 0.394644 0.502573
0.524632 0.395116 0.503044
0.643029 0.395582 0.503511
0.760512 0.396044 0.503973
0.877235 0.396504 0.504432
0.990619 0.396949 0.504877
0.034769 0.514581 0.502702
0.163242 0.515087 0.503208
0.286662 0.515573 0.503694
0.407752 0.516050 0.504171
0.527302 0.516520 0.504641
0.645702 0.516986 0.505107
0.763183 0.517449 0.505570
0.879899 0.517909 0.506030
0.992365 0.518352 0.506473
0.037422 0.635396 0.504292
0.165902 0.635901 0.504797
0.289322 0.636387 0.505283
0.410408 0.636864 0.505760
0.529949 0.637336 0.506232
0.648335 0.637804 0.506700
0.765797 0.638270 0.507166
0.882490 0.638734 0.507630
0.994103 0.639178 0.508074
0.040066 0.755739 0.505875
0.168534 0.756246 0.506382
0.291938 0.756735 0.506871
0.413003 0.757215 0.507351
0.532519 0.757691 0.507827
0.650875 0.758164 0.508301
0.768303 0.758636 0.508772
0.884957 0.759106 0.509243
0.995835 0.759554 0.509691
0.042647 0.875698 0.507462
0.171087 0.876210 0.507974
0.294458 0.876704 0.508468
0.415486 0.877191 0.508955
0.534960 0.877673 0.509438
0.653270 0.878154 0.509918
0.770647 0.878634 0.510398
0.887246 0.879114 0.510878
0.997561 0.879569 0.511334
0.045111 0.995162 0.509060
0.173505 0.995716 0.509580
0.296827 0.996249 0.510083
0.417802 0.996772 0.510579
0.537219 0.997287 0.511071
0.655467 0.997798 0.511563
0.772778 0.998305 0.512054
0.889307 0.998808 0.512545
0.999283 0.999283 0.513012
0.025329 0.021582 0.615015
0.153600 0.022122 0.615555
0.276847 0.022636 0.616070
0.397787 0.023138 0.616571
0.517210 0.023629 0.617062
0.635502 0.024112 0.617546
0.752896 0.024590 0.618023
0.869543 0.025061 0.618494
0.985449 0.025528 0.618961
0.027518 0.147671 0.616769
0.155869 0.148198 0.617295
0.279187 0.148700 0.617798
0.400193 0.149191 0.618288
0.519674 0.149673 0.618770
0.638020 0.150147 0.619245
0.755461 0.150617 0.619714
0.872151 0.151081 0.620179
0.987262 0.151538 0.620635
0.029895 0.271109 0.618447
0.158306 0.271625 0.618964
0.281676 0.272120 0.619458
0.402727 0.272602 0.619941
0.522249 0.273077 0.620416
0.640629 0.273547 0.620885
0.758100 0.274011 0.621349
0.874815 0.274471 0.621810
0.989036 0.274921 0.622259
0.032418 0.393328 0.620081
0.160870 0.393838 0.620591
0.284274 0.394326 0.621080
0.405353 0.394805 0.621558
0.524898 0.395276 0.622029
0.643296 0.395742 0.622495
0.760780 0.396204 0.622958
0.877502 0.396663 0.623417
0.990794 0.397108 0.623862
0.035035 0.514741 0.621687
0.163509 0.515247 0.622193
0.286929 0.515733 0.622679
0.408020 0.516209 0.623156
0.527570 0.516680 0.623626
0.645969 0.517146 0.624092
0.763449 0.517609 0.624555
0.880163 0.518069 0.625015
0.992540 0.518512 0.625458
0.037690 0.635555 0.623277
0.166169 0.636061 0.623782
0.289588 0.636547 0.624268
0.410673 0.637024 0.624745
0.530213 0.637496 0.625217
0.648596 0.637965 0.625686
0.766056 0.638431 0.626152
0.882746 0.638896 0.626617
0.994278 0.639340 0.627061
0.040331 0.755899 0.624860
0.168797 0.756407 0.625368
0.292198 0.756896 0.625857
0.413260 0.757377 0.626338
0.532773 0.757853 0.626815
0.651125 0.758327 0.627288
0.768548 0.758799 0.627761
0.885197 0.759270 0.628232
0.996010 0.759719 0.628681
0.042904 0.875860 0.626449
0.171339 0.876372 0.626962
0.294706 0.876867 0.627456
0.415729 0.877354 0.627944
0.535199 0.877838 0.628427
0.653503 0.878320 0.628909
0.770874 0.878801 0.629390
0.887467 0.879281 0.629870
0.997736 0.879738 0.630327
0.045354 0.995337 0.628049
0.173742 0.995892 0.628570
0.297058 0.996424 0.629074
0.418026 0.996947 0.629571
0.537436 0.997463 0.630065
0.655677 0.997973 0.630557
0.772981 0.998480 0.631049
0.889502 0.998984 0.631542
0.999459 0.999459 0.632010
0.025528 0.021753 0.734012
0.153808 0.022292 0.734550
0.277062 0.022805 0.735063
0.398010 0.023305 0.735563
0.517439 0.023795 0.736053
0.635737 0.024278 0.736536
0.753136 0.024754 0.737012
0.869788 0.025225 0.737483
0.985624 0.025690 0.737948
0.027743 0.147838 0.735760
0.156101 0.148364 0.736286
0.279425 0.148865 0.736788
0.400435 0.149355 0.737277
0.519922 0.149836 0.737758
0.638271 0.150310 0.738232
0.755716 0.150778 0.738701
0.872409 0.151243 0.739165
0.987436 0.151698 0.739621
0.030140 0.271272 0.737436
0.158555 0.271788 0.737952
0.281929 0.272282 0.738445
0.402984 0.272764 0.738927
0.522509 0.273238 0.739402
0.640892 0.273707 0.739870
0.758365 0.274171 0.740334
0.875081 0.274631 0.740795
0.989211 0.275080 0.741243
0.032676 0.393489 0.739068
0.161131 0.393999 0.739577
0.284537 0.394487 0.740065
0.405619 0.394965 0.740543
0.525165 0.395436 0.741014
0.643564 0.395902 0.741480
0.761047 0.396364 0.741943
0.877770 0.396823 0.742402
0.990969 0.397268 0.742846
0.035300 0.514901 0.740672
0.163776 0.515407 0.741178
0.287197 0.515893 0.741664
0.408287 0.516369 0.742140
0.527838 0.516840 0.742611
0.646236 0.517306 0.743077
0.763714 0.517769 0.743540
0.880427 0.518230 0.744001
0.992715 0.518673 0.744444
0.037958 0.635715 0.742261
0.166436 0.636221 0.742767
0.289855 0.636707 0.743253
0.410938 0.637185 0.743731
0.530475 0.637657 0.744203
0.648857 0.638126 0.744672
0.766313 0.638593 0.745139
0.883000 0.639058 0.745604
0.994453 0.639502 0.746048
0.040595 0.756059 0.743846
0.169059 0.756567 0.744354
0.292458 0.757057 0.744843
0.413516 0.757538 0.745325
0.533025 0.758016 0.745802
0.651373 0.758490 0.746276
0.768792 0.758963 0.746749
0.885436 0.759435 0.747221
0.996185 0.759884 0.747671
0.043159 0.876022 0.745436
0.171591 0.876535 0.745949
0.294953 0.877030 0.746444
0.415971 0.877518 0.746933
0.535435 0.878003 0.747417
0.653734 0.878486 0.747900
0.771099 0.878967 0.748382
0.887685 0.879449 0.748863
0.997911 0.879907 0.749321
0.045595 0.995512 0.747039
0.173977 0.996067 0.747561
0.297287 0.996600 0.748065
0.418249 0.997122 0.748563
0.537652 0.997638 0.749058
0.655885 0.998149 0.749552
0.773181 0.998655 0.750045
0.889694 0.999159 0.750539
0.999634 0.999634 0.751009
0.025730 0.021924 0.853007
0.154018 0.022461 0.853544
0.277279 0.022973 0.854056
0.398234 0.023472 0.854555
0.517670 0.023961 0.855044
0.635974 0.024443 0.855526
0.753377 0.024918 0.856001
0.870034 0.025388 0.856471
0.985799 0.025852 0.856936
0.027970 0.148005 0.854752
0.156334 0.148529 0.855276
0.279664 0.149030 0.855777
0.400680 0.149518 0.856266
0.520171 0.149999 0.856746
0.638525 0.150472 0.857219
0.755973 0.150940 0.857688
0.872669 0.151404 0.858151
0.987611 0.151859 0.858606
0.030386 0.271436 0.856424
0.158806 0.271951 0.856939
0.282184 0.272444 0.857432
0.403242 0.272925 0.857914
0.522770 0.273399 0.858388
0.641155 0.273868 0.858856
0.758630 0.274331 0.859320
0.875348 0.274791 0.859780
0.989386 0.275240 0.860228
0.032935 0.393650 0.858054
0.161393 0.394160 0.858563
0.284802 0.394647 0.859051
0.405885 0.395125 0.859528
0.525432 0.395596 0.859999
0.643831 0.396062 0.860465
0.761315 0.396524 0.860927
0.878038 0.396983 0.861387
0.991144 0.397427 0.861831
0.035566 0.515061 0.859657
0.164043 0.515567 0.860163
0.287465 0.516053 0.860649
0.408555 0.516529 0.861125
0.528105 0.516999 0.861596
0.646502 0.517466 0.862062
0.763979 0.517929 0.862525
0.880690 0.518390 0.862986
0.992890 0.518833 0.863429
0.038225 0.635875 0.861246
0.166703 0.636381 0.861752
0.290121 0.636867 0.862238
0.411202 0.637345 0.862716
0.530737 0.637818 0.863189
0.649116 0.638287 0.863658
0.766570 0.638754 0.864125
0.883252 0.639220 0.864591
0.994628 0.639665 0.865036
0.040859 0.756220 0.862831
0.169320 0.756728 0.863340
0.292716 0.757218 0.863830
0.413771 0.757700 0.864312
0.533277 0.758178 0.864789
0.651620 0.758653 0.865265
0.769034 0.759127 0.865738
0.885673 0.759600 0.866211
0.996360 0.760050 0.866661
0.043413 0.876184 0.864423
0.171840 0.876698 0.864937
0.295198 0.877194 0.865433
0.416211 0.877683 0.865922
0.535670 0.878168 0.866408
0.653962 0.878652 0.866891
0.771321 0.879135 0.867374
0.887901 0.879618 0.867857
0.998086 0.880076 0.868316
0.045834 0.995688 0.866028
0.174210 0.996242 0.866551
0.297514 0.996775 0.867057
0.418469 0.997297 0.867556
0.537865 0.997813 0.868052
0.656091 0.998324 0.868547
0.773378 0.998831 0.869042
0.889883 0.999334 0.869537
0.999809 0.999809 0.870008
0.025934 0.022094 0.972003
0.154230 0.022630 0.972538
0.277499 0.023141 0.973049
0.398461 0.023638 0.973547
0.517902 0.024127 0.974035
0.636212 0.024607 0.974516
0.753621 0.025082 0.974990
0.870282 0.025551 0.975459
0.985974 0.026014 0.975923
0.028199 0.148171 0.973743
0.156570 0.148694 0.974267
0.279905 0.149194 0.974766
0.400926 0.149682 0.975254
0.520421 0.150161 0.975734
0.638779 0.150634 0.976206
0.756230 0.151102 0.976674
0.872930 0.151565 0.977137
0.987786 0.152019 0.977591
0.030633 0.271599 0.975412
0.159058 0.272113 0.975927
0.282440 0.272605 0.976419
0.403501 0.273087 0.976900
0.523032 0.273560 0.977373
0.641419 0.274028 0.977841
0.758896 0.274492 0.978305
0.875615 0.274951 0.978765
0.989561 0.275399 0.979212
0.033195 0.393812 0.977040
0.161656 0.394320 0.977549
0.285066 0.394808 0.978036
0.406151 0.395285 0.978513
0.525699 0.395756 0.978984
0.644099 0.396222 0.979450
0.761583 0.396684 0.979912
0.878305 0.397143 0.980371
0.991318 0.397587 0.980815
0.035833 0.515221 0.978642
0.164311 0.515727 0.979148
0.287733 0.516212 0.979634
0.408823 0.516689 0.980110
0.528372 0.517159 0.980581
0.646768 0.517626 0.981047
0.764244 0.518090 0.981511
0.880952 0.518551 0.981972
0.993065 0.518994 0.982415
0.038493 0.636035 0.980231
0.166970 0.636541 0.980737
0.290386 0.637027 0.981223
0.411465 0.637505 0.981702
0.530999 0.637979 0.982175
0.649374 0.638449 0.982645
0.766825 0.638916 0.983112
0.883504 0.639383 0.983579
0.994803 0.639828 0.984024
0.041122 0.756381 0.981817
0.169580 0.756889 0.982326
0.292973 0.757380 0.982816
0.414025 0.757862 0.983299
0.533526 0.758341 0.983777
0.651865 0.758817 0.984253
0.769275 0.759291 0.984728
0.885908 0.759765 0.985202
0.996535 0.760216 0.985652
0.043666 0.876346 0.983410
0.172089 0.876861 0.983925
0.295442 0.877358 0.984422
0.416450 0.877848 0.984912
0.535903 0.878334 0.985398
0.654189 0.878819 0.985883
0.771541 0.879302 0.986367
0.888114 0.879786 0.986851
0.998261 0.880246 0.987310
0.046071 0.995863 0.985018
0.174442 0.996418 0.985542
0.297739 0.996950 0.986049
0.418686 0.997473 0.986549
0.538075 0.997988 0.987046
0.656293 0.998499 0.987543
0.773573 0.999006 0.988039
0.890068 0.999509 0.988535
0.999984 0.999984 0.989008
