colorkit/colorkit/luts/teal_orange.cube
TITLE "teal_orange"
LUT_3D_SIZE 33
DOMAIN_MIN 0.0 0.0 0.0
DOMAIN_MAX 1.0 1.0 1.0
0.000000 0.004893 0.018305
0.004453 0.004890 0.018555
0.032675 0.004152 0.017304
0.061762 0.003465 0.016489
0.091783 0.002689 0.015702
0.122164 0.001747 0.014740
0.152774 0.000522 0.013474
0.183619 0.000000 0.011898
0.214687 0.000000 0.010000
0.245958 0.000000 0.007763
0.277412 0.000000 0.005174
0.309024 0.000000 0.002216
0.340772 0.000000 0.000000
0.372629 0.000000 0.000000
0.404573 0.000000 0.000000
0.436576 0.000000 0.000000
0.468615 0.000000 0.000000
0.500664 0.000000 0.000000
0.532698 0.000000 0.000000
0.564691 0.000000 0.000000
0.596617 0.000000 0.000000
0.628451 0.000000 0.000000
0.660167 0.000000 0.000000
0.691740 0.000000 0.000000
0.723144 0.000000 0.000000
0.754352 0.000000 0.000000
0.785340 0.000000 0.000000
0.816081 0.000000 0.000000
0.846550 0.000000 0.000000
0.876721 0.000000 0.000000
0.906568 0.000000 0.000000
0.936064 0.000000 0.000000
0.965185 0.000000 0.000000
0.000000 0.032411 0.016530
0.002641 0.032778 0.016630
0.033553 0.033440 0.016616
0.063786 0.033037 0.017003
0.093588 0.032516 0.016679
0.123687 0.031324 0.015461
0.154197 0.030070 0.014147
0.185010 0.028630 0.012625
0.216075 0.026941 0.010839
0.247359 0.024968 0.008755
0.278833 0.022684 0.006346
0.310470 0.020065 0.003592
0.342245 0.017094 0.000475
0.374131 0.013755 0.000000
0.406104 0.010035 0.000000
0.438138 0.005920 0.000000
0.470207 0.001402 0.000000
0.502286 0.000000 0.000000
0.534350 0.000000 0.000000
0.566372 0.000000 0.000000
0.598327 0.000000 0.000000
0.630189 0.000000 0.000000
0.661934 0.000000 0.000000
0.693534 0.000000 0.000000
0.724964 0.000000 0.000000
0.756199 0.000000 0.000000
0.787212 0.000000 0.000000
0.817978 0.000000 0.000000
0.848471 0.000000 0.000000
0.878665 0.000000 0.000000
0.908534 0.000000 0.000000
0.938052 0.000000 0.000000
0.967194 0.000000 0.000000
0.000000 0.059454 0.013637
0.000563 0.059789 0.013587
0.030107 0.061008 0.013399
0.061737 0.060857 0.012715
0.091650 0.059090 0.011709
0.122795 0.059579 0.012850
0.154766 0.060423 0.013550
0.186643 0.060922 0.013899
0.217991 0.060190 0.012802
0.249196 0.058636 0.010703
0.280627 0.056881 0.008355
0.312245 0.054870 0.005714
0.344013 0.052554 0.002749
0.375903 0.049883 0.000000
0.407885 0.046798 0.000000
0.439933 0.043228 0.000000
0.472018 0.039074 0.000000
0.504116 0.034421 0.000000
0.536200 0.029365 0.000000
0.568243 0.023900 0.000000
0.600219 0.018022 0.000000
0.632104 0.011729 0.000000
0.663870 0.005020 0.000000
0.695492 0.000000 0.000000
0.726944 0.000000 0.000000
0.758200 0.000000 0.000000
0.789235 0.000000 0.000000
0.820022 0.000000 0.000000
0.850535 0.000000 0.000000
0.880749 0.000000 0.000000
0.910637 0.000000 0.000000
0.940174 0.000000 0.000000
0.969334 0.000000 0.000000
0.000000 0.088174 0.010241
0.000000 0.088115 0.010039
0.026321 0.088421 0.009473
0.058577 0.089122 0.008843
0.090642 0.088826 0.007767
0.120737 0.086931 0.006184
0.151932 0.086629 0.006284
0.184481 0.087603 0.007254
0.216869 0.088238 0.007797
0.249242 0.088657 0.008059
0.281666 0.088937 0.008139
0.314165 0.089126 0.008099
0.346063 0.087862 0.005698
0.377928 0.086101 0.002475
0.409898 0.084138 0.000000
0.441942 0.081944 0.000000
0.474030 0.079490 0.000000
0.506135 0.076744 0.000000
0.538229 0.073673 0.000000
0.570284 0.070235 0.000000
0.602275 0.066384 0.000000
0.634176 0.062059 0.000000
0.665958 0.057183 0.000000
0.697597 0.051654 0.000000
0.729067 0.045326 0.000000
0.760341 0.037986 0.000000
0.791393 0.029995 0.000000
0.822197 0.021626 0.000000
0.852727 0.012889 0.000000
0.882958 0.003797 0.000000
0.912863 0.000000 0.000000
0.942416 0.000000 0.000000
0.971592 0.000000 0.000000
0.000000 0.117295 0.005705
0.000000 0.117246 0.005465
0.022366 0.117006 0.004773
0.054709 0.117043 0.003979
0.088046 0.117628 0.002902
0.120159 0.117234 0.001429
0.150642 0.115474 0.000000
0.181620 0.114253 0.000000
0.214608 0.115256 0.000000
0.247415 0.115967 0.000000
0.280162 0.116464 0.000000
0.312907 0.116807 0.000000
0.345679 0.117038 0.000000
0.378486 0.117189 0.000000
0.411322 0.117283 0.000000
0.444178 0.117336 0.000000
0.476258 0.115596 0.000000
0.508355 0.113680 0.000000
0.540447 0.111583 0.000000
0.572505 0.109287 0.000000
0.604502 0.106773 0.000000
0.636410 0.104024 0.000000
0.668202 0.101019 0.000000
0.699852 0.097736 0.000000
0.731334 0.094150 0.000000
0.762620 0.090232 0.000000
0.793685 0.085945 0.000000
0.824503 0.081248 0.000000
0.855046 0.076087 0.000000
0.885290 0.070390 0.000000
0.915209 0.064066 0.000000
0.944775 0.056981 0.000000
0.973963 0.048945 0.000000
0.000000 0.146705 0.000000
0.000000 0.146662 0.000000
0.017621 0.146470 0.000000
0.050804 0.146238 0.000000
0.084725 0.146045 0.000000
0.117999 0.146506 0.000000
0.150230 0.146029 0.000000
0.181057 0.144355 0.000000
0.212560 0.143289 0.000000
0.245118 0.143308 0.000000
0.278275 0.144058 0.000000
0.311339 0.144611 0.000000
0.344362 0.145010 0.000000
0.377371 0.145290 0.000000
0.410374 0.145478 0.000000
0.443369 0.145596 0.000000
0.476346 0.145659 0.000000
0.509291 0.145681 0.000000
0.542187 0.145672 0.000000
0.574913 0.145411 0.000000
0.606905 0.143548 0.000000
0.638812 0.141541 0.000000
0.670606 0.139378 0.000000
0.702260 0.137050 0.000000
0.733747 0.134547 0.000000
0.765040 0.131858 0.000000
0.796113 0.128975 0.000000
0.826939 0.125884 0.000000
0.857492 0.122576 0.000000
0.887745 0.119036 0.000000
0.917673 0.115251 0.000000
0.947248 0.111203 0.000000
0.976446 0.106875 0.000000
0.000000 0.176383 0.000000
0.000000 0.176344 0.000000
0.011710 0.176186 0.000000
0.045908 0.175992 0.000000
0.081621 0.175714 0.000000
0.115111 0.175372 0.000000
0.148419 0.175709 0.000000
0.180792 0.175160 0.000000
0.211936 0.173552 0.000000
0.243950 0.172699 0.000000
0.275976 0.171703 0.000000
0.309423 0.172466 0.000000
0.342755 0.173058 0.000000
0.376015 0.173504 0.000000
0.409224 0.173829 0.000000
0.442390 0.174058 0.000000
0.475511 0.174210 0.000000
0.508580 0.174299 0.000000
0.541582 0.174338 0.000000
0.574502 0.174337 0.000000
0.607320 0.174305 0.000000
0.640016 0.174248 0.000000
0.672568 0.174172 0.000000
0.704823 0.173767 0.000000
0.736309 0.171851 0.000000
0.767602 0.169814 0.000000
0.798677 0.167651 0.000000
0.829506 0.165358 0.000000
0.860063 0.162930 0.000000
0.890321 0.160363 0.000000
0.920254 0.157653 0.000000
0.949835 0.154796 0.000000
0.979038 0.151790 0.000000
0.000000 0.206306 0.000000
0.000000 0.206269 0.000000
0.004531 0.206135 0.000000
0.039446 0.205970 0.000000
0.077804 0.205734 0.000000
0.112555 0.205417 0.000000
0.145919 0.205012 0.000000
0.179272 0.205195 0.000000
0.211792 0.204580 0.000000
0.243402 0.203182 0.000000
0.275660 0.202343 0.000000
0.307912 0.201375 0.000000
0.340828 0.201154 0.000000
0.374385 0.201773 0.000000
0.407839 0.202255 0.000000
0.441210 0.202620 0.000000
0.474505 0.202889 0.000000
0.507721 0.203077 0.000000
0.540851 0.203197 0.000000
0.573881 0.203262 0.000000
0.606796 0.203281 0.000000
0.639578 0.203263 0.000000
0.672205 0.203214 0.000000
0.704659 0.203140 0.000000
0.736914 0.203047 0.000000
0.768950 0.202937 0.000000
0.800741 0.202815 0.000000
0.832203 0.202532 0.000000
0.862758 0.200621 0.000000
0.893016 0.198616 0.000000
0.922949 0.196515 0.000000
0.952531 0.194318 0.000000
0.981736 0.192023 0.000000
0.000000 0.236448 0.000000
0.000000 0.236413 0.000000
0.000000 0.236298 0.000000
0.031359 0.236154 0.000000
0.073012 0.235949 0.000000
0.109416 0.235675 0.000000
0.143739 0.235325 0.000000
0.177111 0.234892 0.000000
0.210519 0.234927 0.000000
0.243178 0.234253 0.000000
0.275187 0.233027 0.000000
0.307657 0.232197 0.000000
0.340101 0.231253 0.000000
0.372533 0.230189 0.000000
0.406196 0.230724 0.000000
0.439806 0.231234 0.000000
0.473303 0.231634 0.000000
0.506692 0.231938 0.000000
0.539970 0.232161 0.000000
0.573129 0.232315 0.000000
0.606156 0.232410 0.000000
0.639036 0.232456 0.000000
0.671751 0.232459 0.000000
0.704282 0.232428 0.000000
0.736608 0.232367 0.000000
0.768706 0.232282 0.000000
0.800553 0.232177 0.000000
0.832127 0.232056 0.000000
0.863404 0.231922 0.000000
0.894358 0.231778 0.000000
0.924966 0.231626 0.000000
0.955202 0.231468 0.000000
0.984538 0.229964 0.000000
0.000000 0.266786 0.000000
0.000000 0.266752 0.000000
0.000000 0.266652 0.000000
0.021878 0.266525 0.000000
0.067020 0.266345 0.000000
0.105577 0.266104 0.000000
0.141080 0.265797 0.000000
0.175213 0.265417 0.000000
0.208645 0.264959 0.000000
0.242119 0.264872 0.000000
0.274904 0.264143 0.000000
0.307255 0.263064 0.000000
0.339904 0.262242 0.000000
0.372507 0.261316 0.000000
0.405075 0.260283 0.000000
0.438153 0.259882 0.000000
0.471882 0.260415 0.000000
0.505469 0.260843 0.000000
0.538917 0.261179 0.000000
0.572224 0.261435 0.000000
0.605380 0.261622 0.000000
0.638373 0.261748 0.000000
0.671188 0.261822 0.000000
0.703807 0.261851 0.000000
0.736211 0.261843 0.000000
0.768380 0.261802 0.000000
0.800291 0.261733 0.000000
0.831922 0.261642 0.000000
0.863250 0.261531 0.000000
0.894251 0.261404 0.000000
0.924902 0.261264 0.000000
0.955176 0.261113 0.000000
0.985051 0.260954 0.000000
0.000000 0.297295 0.000000
0.000000 0.297262 0.000000
0.000000 0.297174 0.000000
0.010919 0.297060 0.000000
0.059502 0.296900 0.000000
0.100922 0.296685 0.000000
0.137881 0.296412 0.000000
0.172920 0.296076 0.000000
0.206979 0.295670 0.000000
0.240492 0.295191 0.000000
0.274031 0.295000 0.000000
0.306924 0.294221 0.000000
0.339568 0.293268 0.000000
0.372363 0.292452 0.000000
0.405093 0.291543 0.000000
0.437765 0.290535 0.000000
0.470375 0.289428 0.000000
0.504032 0.289771 0.000000
0.537673 0.290223 0.000000
0.571147 0.290587 0.000000
0.604448 0.290873 0.000000
0.637569 0.291089 0.000000
0.670497 0.291246 0.000000
0.703216 0.291349 0.000000
0.735708 0.291406 0.000000
0.767956 0.291423 0.000000
0.799938 0.291406 0.000000
0.831632 0.291358 0.000000
0.863018 0.291286 0.000000
0.894071 0.291191 0.000000
0.924768 0.291078 0.000000
0.955085 0.290949 0.000000
0.984998 0.290808 0.000000
0.000000 0.327952 0.000000
0.000000 0.327919 0.000000
0.000000 0.327840 0.000000
0.000000 0.327738 0.000000
0.049928 0.327593 0.000000
0.095304 0.327400 0.000000
0.134070 0.327155 0.000000
0.170189 0.326853 0.000000
0.204977 0.326490 0.000000
0.239020 0.326061 0.000000
0.272619 0.325563 0.000000
0.306215 0.325281 0.000000
0.339196 0.324458 0.000000
0.372087 0.323617 0.000000
0.404997 0.322806 0.000000
0.437822 0.321910 0.000000
0.470565 0.320925 0.000000
0.503222 0.319850 0.000000
0.536218 0.319275 0.000000
0.569879 0.319747 0.000000
0.603344 0.320136 0.000000
0.636608 0.320448 0.000000
0.669661 0.320693 0.000000
0.702491 0.320878 0.000000
0.735083 0.321010 0.000000
0.767418 0.321095 0.000000
0.799478 0.321139 0.000000
0.831244 0.321147 0.000000
0.862692 0.321123 0.000000
0.893802 0.321073 0.000000
0.924550 0.320998 0.000000
0.954914 0.320903 0.000000
0.984869 0.320791 0.000000
0.000000 0.358731 0.000000
0.000000 0.358698 0.000000
0.000000 0.358627 0.000000
0.000000 0.358534 0.000000
0.037347 0.358402 0.000000
0.088519 0.358227 0.000000
0.129562 0.358005 0.000000
0.166970 0.357732 0.000000
0.202606 0.357404 0.000000
0.237255 0.357017 0.000000
0.271312 0.356567 0.000000
0.304990 0.356052 0.000000
0.338628 0.355690 0.000000
0.371675 0.354826 0.000000
0.404772 0.354085 0.000000
0.437766 0.353280 0.000000
0.470654 0.352396 0.000000
0.503437 0.351431 0.000000
0.536108 0.350383 0.000000
0.568659 0.349251 0.000000
0.602048 0.349393 0.000000
0.635471 0.349802 0.000000
0.668664 0.350138 0.000000
0.701618 0.350409 0.000000
0.734318 0.350621 0.000000
0.766751 0.350781 0.000000
0.798898 0.350893 0.000000
0.830741 0.350963 0.000000
0.862259 0.350997 0.000000
0.893433 0.351001 0.000000
0.924250 0.350997 0.000000
0.954677 0.350968 0.000000
0.984690 0.350920 0.000000
0.000000 0.389608 0.000000
0.000000 0.389576 0.000000
0.000000 0.389511 0.000000
0.000000 0.389425 0.000000
0.022269 0.389305 0.000000
0.080281 0.389145 0.000000
0.124252 0.388942 0.000000
0.163208 0.388693 0.000000
0.199829 0.388394 0.000000
0.235171 0.388041 0.000000
0.269742 0.387633 0.000000
0.303822 0.387165 0.000000
0.337568 0.386635 0.000000
0.371230 0.386200 0.000000
0.404404 0.385380 0.000000
0.437582 0.384650 0.000000
0.470628 0.383850 0.000000
0.503548 0.382977 0.000000
0.536339 0.382030 0.000000
0.568995 0.381007 0.000000
0.601503 0.379909 0.000000
0.634143 0.379134 0.000000
0.667490 0.379561 0.000000
0.700579 0.379919 0.000000
0.733400 0.380213 0.000000
0.765940 0.380450 0.000000
0.798189 0.380647 0.000000
0.830129 0.380805 0.000000
0.861736 0.380923 0.000000
0.892989 0.381005 0.000000
0.923868 0.381055 0.000000
0.954351 0.381077 0.000000
0.984349 0.381074 0.000000
0.000000 0.420558 0.000000
0.000000 0.420526 0.000000
0.000000 0.420468 0.000000
0.000000 0.420388 0.000000
0.005471 0.420276 0.000000
0.070145 0.420129 0.000000
0.118008 0.419943 0.000000
0.158838 0.419714 0.000000
0.196608 0.419439 0.000000
0.232738 0.419117 0.000000
0.267890 0.418742 0.000000
0.302415 0.418314 0.000000
0.336515 0.417830 0.000000
0.370312 0.417287 0.000000
0.403977 0.416785 0.000000
0.437259 0.416018 0.000000
0.470477 0.415288 0.000000
0.503544 0.414492 0.000000
0.536464 0.413630 0.000000
0.569232 0.412699 0.000000
0.601840 0.411700 0.000000
0.634276 0.410631 0.000000
0.666524 0.409492 0.000000
0.699371 0.409405 0.000000
0.732334 0.409797 0.000000
0.765003 0.410130 0.000000
0.797361 0.410409 0.000000
0.829395 0.410639 0.000000
0.861085 0.410825 0.000000
0.892413 0.410970 0.000000
0.923359 0.411079 0.000000
0.953902 0.411156 0.000000
0.982251 0.411202 0.000000
0.000000 0.451558 0.000000
0.000000 0.451526 0.000000
0.000000 0.451472 0.000000
0.000000 0.451398 0.000000
0.000000 0.451294 0.000000
0.057348 0.451157 0.000000
0.110652 0.450985 0.000000
0.153785 0.450774 0.000000
0.192898 0.450520 0.000000
0.229928 0.450223 0.000000
0.265731 0.449878 0.000000
0.300752 0.449484 0.000000
0.335243 0.449039 0.000000
0.369356 0.448540 0.000000
0.403183 0.447985 0.000000
0.436829 0.447421 0.000000
0.470186 0.446704 0.000000
0.503414 0.445974 0.000000
0.536472 0.445183 0.000000
0.569361 0.444331 0.000000
0.602075 0.443415 0.000000
0.634604 0.442437 0.000000
0.666935 0.441396 0.000000
0.699053 0.440291 0.000000
0.731094 0.439335 0.000000
0.763891 0.439748 0.000000
0.796364 0.440103 0.000000
0.828499 0.440406 0.000000
0.860280 0.440661 0.000000
0.891690 0.440872 0.000000
0.922709 0.441043 0.000000
0.953317 0.441179 0.000000
0.980021 0.441271 0.000000
0.000000 0.482582 0.000000
0.000000 0.482550 0.000000
0.000000 0.482500 0.000000
0.000000 0.482430 0.000000
0.000000 0.482333 0.000000
0.040338 0.482206 0.000000
0.101938 0.482046 0.000000
0.147954 0.481850 0.000000
0.188649 0.481615 0.000000
0.226707 0.481339 0.000000
0.263241 0.481020 0.000000
0.298812 0.480655 0.000000
0.333734 0.480243 0.000000
0.368193 0.479782 0.000000
0.402304 0.479270 0.000000
0.436141 0.478705 0.000000
0.469746 0.478087 0.000000
0.503145 0.477413 0.000000
0.536352 0.476684 0.000000
0.569370 0.475898 0.000000
0.602197 0.475055 0.000000
0.634826 0.474155 0.000000
0.667245 0.473197 0.000000
0.699441 0.472181 0.000000
0.731398 0.471109 0.000000
0.763098 0.469979 0.000000
0.795183 0.469712 0.000000
0.827429 0.470088 0.000000
0.859309 0.470412 0.000000
0.890807 0.470690 0.000000
0.921905 0.470924 0.000000
0.952584 0.471120 0.000000
0.977652 0.471254 0.000000
0.000000 0.513606 0.000000
0.000000 0.513574 0.000000
0.000000 0.513527 0.000000
0.000000 0.513462 0.000000
0.000000 0.513371 0.000000
0.019008 0.513252 0.000000
0.091503 0.513102 0.000000
0.141229 0.512919 0.000000
0.183804 0.512700 0.000000
0.223040 0.512443 0.000000
0.260396 0.512146 0.000000
0.296577 0.511807 0.000000
0.331971 0.511424 0.000000
0.366807 0.510995 0.000000
0.401227 0.510519 0.000000
0.435320 0.509995 0.000000
0.469142 0.509422 0.000000
0.502726 0.508798 0.000000
0.536092 0.508122 0.000000
0.569248 0.507394 0.000000
0.602196 0.506614 0.000000
0.634930 0.505781 0.000000
0.667443 0.504895 0.000000
0.699722 0.503957 0.000000
0.731752 0.502965 0.000000
0.763518 0.501923 0.000000
0.795001 0.500828 0.000000
0.826183 0.499684 0.000000
0.858156 0.500059 0.000000
0.889750 0.500403 0.000000
0.920933 0.500701 0.000000
0.951689 0.500957 0.000000
0.975139 0.501129 0.000000
0.000000 0.544605 0.000000
0.000000 0.544573 0.000000
0.000000 0.544529 0.000000
0.000000 0.544467 0.000000
0.000000 0.544382 0.000000
0.000000 0.544270 0.000000
0.078760 0.544129 0.000000
0.133456 0.543957 0.000000
0.178293 0.543752 0.000000
0.218887 0.543512 0.000000
0.257167 0.543234 0.000000
0.294024 0.542917 0.000000
0.329937 0.542560 0.000000
0.365185 0.542160 0.000000
0.399940 0.541716 0.000000
0.434310 0.541228 0.000000
0.468364 0.540694 0.000000
0.502146 0.540113 0.000000
0.535682 0.539484 0.000000
0.568985 0.538807 0.000000
0.602061 0.538082 0.000000
0.634908 0.537307 0.000000
0.667520 0.536484 0.000000
0.699886 0.535613 0.000000
0.731994 0.534693 0.000000
0.763828 0.533725 0.000000
0.795373 0.532711 0.000000
0.826608 0.531650 0.000000
0.857516 0.530545 0.000000
0.888507 0.529995 0.000000
0.919782 0.530356 0.000000
0.950620 0.530673 0.000000
0.972479 0.530875 0.000000
0.000000 0.575555 0.000000
0.000000 0.575523 0.000000
0.000000 0.575482 0.000000
0.000000 0.575423 0.000000
0.000000 0.575342 0.000000
0.000000 0.575236 0.000000
0.062637 0.575103 0.000000
0.124427 0.574942 0.000000
0.172032 0.574749 0.000000
0.214201 0.574523 0.000000
0.253524 0.574263 0.000000
0.291133 0.573965 0.000000
0.327616 0.573630 0.000000
0.363312 0.573256 0.000000
0.398429 0.572841 0.000000
0.433097 0.572384 0.000000
0.467401 0.571884 0.000000
0.501395 0.571341 0.000000
0.535112 0.570754 0.000000
0.568572 0.570122 0.000000
0.601784 0.569444 0.000000
0.634750 0.568722 0.000000
0.667466 0.567954 0.000000
0.699924 0.567141 0.000000
0.732113 0.566284 0.000000
0.764020 0.565382 0.000000
0.795628 0.564437 0.000000
0.826920 0.563450 0.000000
0.857879 0.562421 0.000000
0.888483 0.561352 0.000000
0.918714 0.560245 0.000000
0.949367 0.560247 0.000000
0.969668 0.560473 0.000000
0.000000 0.606431 0.000000
0.000000 0.606399 0.000000
0.000000 0.606360 0.000000
0.000000 0.606303 0.000000
0.000000 0.606226 0.000000
0.000000 0.606126 0.000000
0.040713 0.606001 0.000000
0.113847 0.605848 0.000000
0.164921 0.605666 0.000000
0.208933 0.605454 0.000000
0.249437 0.605208 0.000000
0.287880 0.604929 0.000000
0.324989 0.604614 0.000000
0.361173 0.604262 0.000000
0.396682 0.603872 0.000000
0.431671 0.603443 0.000000
0.466243 0.602974 0.000000
0.500463 0.602465 0.000000
0.534373 0.601914 0.000000
0.567999 0.601321 0.000000
0.601355 0.600687 0.000000
0.634446 0.600010 0.000000
0.667272 0.599291 0.000000
0.699827 0.598530 0.000000
0.732101 0.597728 0.000000
0.764083 0.596884 0.000000
0.795758 0.596001 0.000000
0.827110 0.595078 0.000000
0.858121 0.594117 0.000000
0.888772 0.593119 0.000000
0.919044 0.592085 0.000000
0.948915 0.591018 0.000000
0.967022 0.590347 0.000000
0.000000 0.637208 0.000000
0.000000 0.637176 0.000000
0.000000 0.637139 0.000000
0.000000 0.637085 0.000000
0.000000 0.637011 0.000000
0.000000 0.636916 0.000000
0.012655 0.636797 0.000000
0.101271 0.636653 0.000000
0.156831 0.636481 0.000000
0.203023 0.636280 0.000000
0.244871 0.636048 0.000000
0.284243 0.635784 0.000000
0.322039 0.635487 0.000000
0.358754 0.635156 0.000000
0.394685 0.634788 0.000000
0.430020 0.634384 0.000000
0.464878 0.633943 0.000000
0.499339 0.633463 0.000000
0.533454 0.632945 0.000000
0.567256 0.632388 0.000000
0.600764 0.631791 0.000000
0.633988 0.631155 0.000000
0.666930 0.630479 0.000000
0.699586 0.629765 0.000000
0.731950 0.629011 0.000000
0.764011 0.628220 0.000000
0.795756 0.627391 0.000000
0.827169 0.626525 0.000000
0.858235 0.625624 0.000000
0.888934 0.624688 0.000000
0.919249 0.623720 0.000000
0.949158 0.622720 0.000000
0.965819 0.622144 0.000000
0.000000 0.667862 0.000000
0.000000 0.667830 0.000000
0.000000 0.667794 0.000000
0.000000 0.667743 0.000000
0.000000 0.667673 0.000000
0.000000 0.667582 0.000000
0.000000 0.667469 0.000000
0.085948 0.667332 0.000000
0.147589 0.667169 0.000000
0.196398 0.666978 0.000000
0.239786 0.666759 0.000000
0.280196 0.666509 0.000000
0.318746 0.666228 0.000000
0.356039 0.665914 0.000000
0.392427 0.665567 0.000000
0.428132 0.665186 0.000000
0.463296 0.664769 0.000000
0.498014 0.664316 0.000000
0.532347 0.663827 0.000000
0.566335 0.663301 0.000000
0.600004 0.662739 0.000000
0.633368 0.662139 0.000000
0.666431 0.661502 0.000000
0.699195 0.660829 0.000000
0.731652 0.660120 0.000000
0.763796 0.659374 0.000000
0.795613 0.658594 0.000000
0.827091 0.657779 0.000000
0.858213 0.656932 0.000000
0.888963 0.656052 0.000000
0.919321 0.655141 0.000000
0.949269 0.654201 0.000000
0.964542 0.653706 0.000000
0.000000 0.698367 0.000000
0.000000 0.698337 0.000000
0.000000 0.698303 0.000000
0.000000 0.698253 0.000000
0.000000 0.698186 0.000000
0.000000 0.698099 0.000000
0.000000 0.697991 0.000000
0.066431 0.697861 0.000000
0.136960 0.697706 0.000000
0.188972 0.697525 0.000000
0.234136 0.697316 0.000000
0.275709 0.697079 0.000000
0.315092 0.696813 0.000000
0.353013 0.696515 0.000000
0.389895 0.696186 0.000000
0.425997 0.695825 0.000000
0.461488 0.695430 0.000000
0.496479 0.695002 0.000000
0.531042 0.694539 0.000000
0.565228 0.694042 0.000000
0.599067 0.693510 0.000000
0.632577 0.692943 0.000000
0.665769 0.692341 0.000000
0.698644 0.691705 0.000000
0.731200 0.691035 0.000000
0.763429 0.690331 0.000000
0.795323 0.689595 0.000000
0.826867 0.688826 0.000000
0.858048 0.688026 0.000000
0.888850 0.687196 0.000000
0.919254 0.686338 0.000000
0.949243 0.685452 0.000000
0.963191 0.685026 0.000000
0.000000 0.728700 0.000000
0.000000 0.728671 0.000000
0.000000 0.728638 0.000000
0.000000 0.728591 0.000000
0.000000 0.728526 0.000000
0.000000 0.728443 0.000000
0.000000 0.728340 0.000000
0.039050 0.728216 0.000000
0.124601 0.728068 0.000000
0.180635 0.727895 0.000000
0.227871 0.727697 0.000000
0.270754 0.727471 0.000000
0.311055 0.727218 0.000000
0.349661 0.726936 0.000000
0.387075 0.726623 0.000000
0.423604 0.726280 0.000000
0.459444 0.725905 0.000000
0.494725 0.725499 0.000000
0.529533 0.725060 0.000000
0.563927 0.724588 0.000000
0.597945 0.724084 0.000000
0.631610 0.723547 0.000000
0.664936 0.722977 0.000000
0.697928 0.722374 0.000000
0.730586 0.721739 0.000000
0.762905 0.721073 0.000000
0.794878 0.720376 0.000000
0.826492 0.719648 0.000000
0.857735 0.718892 0.000000
0.888590 0.718107 0.000000
0.919042 0.717295 0.000000
0.949072 0.716458 0.000000
0.961767 0.716092 0.000000
0.000000 0.758836 0.000000
0.000000 0.758809 0.000000
0.000000 0.758777 0.000000
0.000000 0.758731 0.000000
0.000000 0.758669 0.000000
0.000000 0.758590 0.000000
0.000000 0.758491 0.000000
0.003982 0.758372 0.000000
0.109979 0.758231 0.000000
0.171247 0.758066 0.000000
0.220929 0.757877 0.000000
0.265296 0.757662 0.000000
0.306613 0.757420 0.000000
0.345967 0.757151 0.000000
0.383957 0.756854 0.000000
0.420943 0.756527 0.000000
0.457156 0.756171 0.000000
0.492745 0.755784 0.000000
0.527812 0.755367 0.000000
0.562426 0.754918 0.000000
0.596631 0.754439 0.000000
0.630459 0.753929 0.000000
0.663925 0.753388 0.000000
0.697040 0.752816 0.000000
0.729805 0.752213 0.000000
0.762218 0.751581 0.000000
0.794273 0.750919 0.000000
0.825960 0.750229 0.000000
0.857266 0.749511 0.000000
0.888177 0.748767 0.000000
0.918678 0.747998 0.000000
0.948751 0.747204 0.000000
0.960270 0.746891 0.000000
0.000000 0.788752 0.000000
0.000000 0.788726 0.000000
0.000000 0.788695 0.000000
0.000000 0.788650 0.000000
0.000000 0.788591 0.000000
0.000000 0.788514 0.000000
0.000000 0.788420 0.000000
0.000000 0.788305 0.000000
0.092174 0.788170 0.000000
0.160620 0.788012 0.000000
0.213237 0.787832 0.000000
0.259296 0.787626 0.000000
0.301744 0.787396 0.000000
0.341915 0.787139 0.000000
0.380527 0.786855 0.000000
0.418004 0.786544 0.000000
0.454614 0.786204 0.000000
0.490530 0.785835 0.000000
0.525871 0.785438 0.000000
0.560717 0.785011 0.000000
0.595121 0.784554 0.000000
0.629118 0.784068 0.000000
0.662732 0.783553 0.000000
0.695975 0.783009 0.000000
0.728852 0.782436 0.000000
0.761363 0.781834 0.000000
0.793503 0.781205 0.000000
