colorkit/colorkit/luts/teal_orange.cube
TITLE "teal_orange"
LUT_3D_SIZE 5
DOMAIN_MIN 0.0 0.0 0.0
DOMAIN_MAX 1.0 1.0 1.0
0.000000 0.004893 0.018305
0.214687 0.000000 0.010000
0.468615 0.000000 0.000000
0.723144 0.000000 0.000000
0.965185 0.000000 0.000000
0.000000 0.236448 0.000000
0.210519 0.234927 0.000000
0.473303 0.231634 0.000000
0.736608 0.232367 0.000000
0.984538 0.229964 0.000000
0.000000 0.482582 0.000000
0.188649 0.481615 0.000000
0.469746 0.478087 0.000000
0.731398 0.471109 0.000000
0.977652 0.471254 0.000000
0.000000 0.728700 0.000000
0.124601 0.728068 0.000000
0.459444 0.725905 0.000000
0.730586 0.721739 0.000000
0.961767 0.716092 0.000000
0.000000 0.957040 0.000000
0.000000 0.956567 0.000000
0.434649 0.955014 0.000000
0.719838 0.952077 0.000000
0.948280 0.948280 0.000000
0.000000 0.000295 0.257106
0.212775 0.000000 0.254756
0.465880 0.000000 0.246317
0.719125 0.000000 0.229173
0.959821 0.000000 0.201221
0.000000 0.235549 0.245166
0.222082 0.246671 0.254352
0.474484 0.231565 0.236093
0.732122 0.220235 0.221557
0.976005 0.201674 0.199227
0.000000 0.482224 0.204805
0.189116 0.481253 0.198158
0.477571 0.484682 0.186313
0.738182 0.478260 0.176023
0.985988 0.484165 0.184337
0.000000 0.728505 0.099685
0.125568 0.727872 0.084986
0.460366 0.725707 0.044374
0.734949 0.724962 0.000000
0.961645 0.715913 0.000000
0.000000 0.956915 0.000000
0.000000 0.956441 0.000000
0.435178 0.954888 0.000000
0.720216 0.951951 0.000000
0.950307 0.950307 0.000000
0.000000 0.000000 0.509434
0.209798 0.000000 0.507883
0.465182 0.000000 0.503375
0.719185 0.000000 0.495143
0.960277 0.000000 0.483225
0.000000 0.232589 0.501378
0.207670 0.230472 0.498122
0.470281 0.222142 0.491946
0.727117 0.204532 0.482119
0.969829 0.174769 0.468701
0.000000 0.481019 0.479663
0.190057 0.486477 0.481688
0.498739 0.504671 0.495770
0.744218 0.483260 0.471153
0.980226 0.474898 0.459112
0.000000 0.727820 0.442969
0.122804 0.727189 0.438218
0.467153 0.735161 0.436792
0.748536 0.737238 0.428966
0.970657 0.725262 0.419173
0.000000 0.956452 0.392306
0.000000 0.955979 0.387900
0.434748 0.954425 0.380379
0.726296 0.959591 0.372218
0.959027 0.959027 0.359411
0.000000 0.000000 0.761656
0.203799 0.000000 0.760212
0.463392 0.000000 0.756763
0.718644 0.000000 0.750941
0.960331 0.000000 0.742931
0.000000 0.226883 0.754368
0.202366 0.224717 0.751347
0.469066 0.216138 0.746434
0.727010 0.197922 0.739333
0.970205 0.166859 0.730270
0.000000 0.478708 0.737349
0.181783 0.477736 0.733467
0.469912 0.474163 0.727840
0.733135 0.467095 0.720212
0.969596 0.456890 0.711078
0.000000 0.726494 0.711826
0.115318 0.729043 0.711027
0.472455 0.743522 0.721748
0.771522 0.758753 0.733202
0.989512 0.743954 0.717299
0.000000 0.955544 0.681314
0.000000 0.955072 0.678236
0.437471 0.962749 0.680511
0.737719 0.974679 0.685178
0.975347 0.975347 0.681629
0.000000 0.000000 0.982936
0.195378 0.000000 0.982599
0.460761 0.000000 0.981287
0.717600 0.000000 0.978671
0.960012 0.000000 0.974756
0.000000 0.218814 0.981520
0.194272 0.216459 0.981157
0.466830 0.207365 0.979794
0.726267 0.188041 0.977103
0.970099 0.154650 0.973056
0.000000 0.475339 0.976721
0.172696 0.474334 0.974821
0.467795 0.470732 0.969873
0.732449 0.463599 0.963600
0.968263 0.453357 0.956461
0.000000 0.724540 0.957493
0.099803 0.723912 0.953928
0.457031 0.721733 0.949359
0.745407 0.732004 0.962421
0.977189 0.725737 0.955473
0.000000 0.954199 0.934328
0.000000 0.954766 0.932758
0.436567 0.965990 0.941938
0.743863 0.983457 0.957716
0.997481 0.997481 0.970782
