colorkit/colorkit/luts/teal_orange.cube
TITLE "teal_orange"
LUT_3D_SIZE 9
DOMAIN_MIN 0.0 0.0 0.0
DOMAIN_MAX 1.0 1.0 1.0
0.000000 0.004893 0.018305
0.091783 0.002689 0.015702
0.214687 0.000000 0.010000
0.340772 0.000000 0.000000
0.468615 0.000000 0.000000
0.596617 0.000000 0.000000
0.723144 0.000000 0.000000
0.846550 0.000000 0.000000
0.965185 0.000000 0.000000
0.000000 0.117295 0.005705
0.088046 0.117628 0.002902
0.214608 0.115256 0.000000
0.345679 0.117038 0.000000
0.476258 0.115596 0.000000
0.604502 0.106773 0.000000
0.731334 0.094150 0.000000
0.855046 0.076087 0.000000
0.973963 0.048945 0.000000
0.000000 0.236448 0.000000
0.073012 0.235949 0.000000
0.210519 0.234927 0.000000
0.340101 0.231253 0.000000
0.473303 0.231634 0.000000
0.606156 0.232410 0.000000
0.736608 0.232367 0.000000
0.863404 0.231922 0.000000
0.984538 0.229964 0.000000
0.000000 0.358731 0.000000
0.037347 0.358402 0.000000
0.202606 0.357404 0.000000
0.338628 0.355690 0.000000
0.470654 0.352396 0.000000
0.602048 0.349393 0.000000
0.734318 0.350621 0.000000
0.862259 0.350997 0.000000
0.984690 0.350920 0.000000
0.000000 0.482582 0.000000
0.000000 0.482333 0.000000
0.188649 0.481615 0.000000
0.333734 0.480243 0.000000
0.469746 0.478087 0.000000
0.602197 0.475055 0.000000
0.731398 0.471109 0.000000
0.859309 0.470412 0.000000
0.977652 0.471254 0.000000
0.000000 0.606431 0.000000
0.000000 0.606226 0.000000
0.164921 0.605666 0.000000
0.324989 0.604614 0.000000
0.466243 0.602974 0.000000
0.601355 0.600687 0.000000
0.732101 0.597728 0.000000
0.858121 0.594117 0.000000
0.967022 0.590347 0.000000
0.000000 0.728700 0.000000
0.000000 0.728526 0.000000
0.124601 0.728068 0.000000
0.311055 0.727218 0.000000
0.459444 0.725905 0.000000
0.597945 0.724084 0.000000
0.730586 0.721739 0.000000
0.857735 0.718892 0.000000
0.961767 0.716092 0.000000
0.000000 0.847820 0.000000
0.000000 0.847670 0.000000
0.036134 0.847281 0.000000
0.290617 0.846570 0.000000
0.448740 0.845480 0.000000
0.591487 0.843974 0.000000
0.726410 0.842044 0.000000
0.854883 0.839707 0.000000
0.955361 0.837517 0.000000
0.000000 0.957040 0.000000
0.000000 0.956906 0.000000
0.000000 0.956567 0.000000
0.263747 0.955952 0.000000
0.434649 0.955014 0.000000
0.582365 0.953725 0.000000
0.719838 0.952077 0.000000
0.849743 0.950088 0.000000
0.948280 0.948280 0.000000
0.000000 0.003492 0.134899
0.090966 0.001251 0.133919
0.213357 0.000000 0.130812
0.338780 0.000000 0.124616
0.465900 0.000000 0.114229
0.593152 0.000000 0.098008
0.719148 0.000000 0.073709
0.842699 0.000000 0.037443
0.961444 0.000000 0.000000
0.000000 0.116750 0.129519
0.091572 0.121869 0.134526
0.214041 0.113916 0.125527
0.342314 0.110127 0.121105
0.471253 0.102469 0.112914
0.600035 0.090479 0.100537
0.727183 0.072437 0.082439
0.851103 0.043883 0.054909
0.970166 0.001310 0.010629
0.000000 0.236194 0.114439
0.072956 0.236228 0.112497
0.215279 0.239668 0.110444
0.343120 0.234379 0.105130
0.478634 0.238770 0.110933
0.611052 0.239924 0.110850
0.737875 0.233738 0.095007
0.861720 0.226485 0.073483
0.980798 0.217950 0.040718
0.000000 0.358581 0.081772
0.037212 0.358251 0.078178
0.202923 0.357250 0.070796
0.341930 0.358526 0.057908
0.471141 0.352233 0.031466
0.606247 0.354334 0.034465
0.738909 0.356753 0.041075
0.866968 0.357995 0.041529
0.989382 0.358596 0.038866
0.000000 0.482482 0.000198
0.000000 0.482233 0.000000
0.189101 0.481513 0.000000
0.334241 0.480138 0.000000
0.472210 0.479932 0.000000
0.602757 0.474945 0.000000
0.733023 0.472389 0.000000
0.863142 0.475035 0.000000
0.981050 0.476555 0.000000
0.000000 0.606360 0.000000
0.000000 0.606155 0.000000
0.165518 0.605594 0.000000
0.325546 0.604541 0.000000
0.466800 0.602900 0.000000
0.603099 0.601797 0.000000
0.732650 0.597650 0.000000
0.858658 0.594037 0.000000
0.969227 0.593352 0.000000
0.000000 0.728648 0.000000
0.000000 0.728474 0.000000
0.125416 0.728015 0.000000
0.311626 0.727165 0.000000
0.459977 0.725851 0.000000
0.598454 0.724029 0.000000
0.731764 0.722368 0.000000
0.858194 0.718835 0.000000
0.961737 0.716048 0.000000
0.000000 0.847780 0.000000
0.000000 0.847631 0.000000
0.037982 0.847241 0.000000
0.291161 0.846530 0.000000
0.449205 0.845439 0.000000
0.591907 0.843933 0.000000
0.726791 0.842002 0.000000
0.855580 0.840015 0.000000
0.955332 0.837483 0.000000
0.000000 0.957008 0.000000
0.000000 0.956875 0.000000
0.000000 0.956535 0.000000
0.264211 0.955920 0.000000
0.434999 0.954982 0.000000
0.582655 0.953692 0.000000
0.720076 0.952045 0.000000
0.849929 0.950056 0.000000
0.948545 0.948545 0.000000
0.000000 0.000295 0.257106
0.089317 0.000000 0.256495
0.212775 0.000000 0.254756
0.338564 0.000000 0.251477
0.465880 0.000000 0.246317
0.593261 0.000000 0.238972
0.719125 0.000000 0.229173
0.841856 0.000000 0.216671
0.959821 0.000000 0.201221
0.000000 0.115372 0.253755
0.085001 0.114366 0.252646
0.212612 0.111044 0.250383
0.339968 0.104241 0.246544
0.468234 0.092509 0.240772
0.596309 0.073335 0.232744
0.722722 0.039896 0.222155
0.846287 0.000000 0.209638
0.965621 0.000000 0.196233
0.000000 0.235549 0.245166
0.072564 0.238116 0.246746
0.222082 0.246671 0.254352
0.348789 0.237942 0.243994
0.474484 0.231565 0.236093
0.604282 0.226792 0.229776
0.732122 0.220235 0.221557
0.856554 0.211869 0.211391
0.976005 0.201674 0.199227
0.000000 0.358196 0.229617
0.035297 0.357866 0.227572
0.206572 0.362847 0.228278
0.349201 0.365473 0.226126
0.479073 0.359350 0.220685
0.613256 0.363025 0.226304
0.745588 0.365937 0.228549
0.869541 0.361202 0.218742
0.988459 0.355532 0.206830
0.000000 0.482224 0.204805
0.000000 0.481974 0.202226
0.189116 0.481253 0.198158
0.337771 0.484321 0.194057
0.477571 0.484682 0.186313
0.605281 0.476329 0.171805
0.738182 0.478260 0.176023
0.868679 0.482016 0.181981
0.985988 0.484165 0.184337
0.000000 0.606173 0.166213
0.000000 0.605968 0.162828
0.165617 0.605407 0.157551
0.325881 0.604352 0.149530
0.469801 0.605958 0.138784
0.607187 0.605218 0.122429
0.733589 0.597836 0.097167
0.860200 0.595189 0.070763
0.973160 0.598677 0.086365
0.000000 0.728505 0.099685
0.000000 0.728332 0.094091
0.125568 0.727872 0.084986
0.311959 0.727021 0.070042
0.460366 0.725707 0.044374
0.600961 0.726384 0.002421
0.734949 0.724962 0.000000
0.858590 0.718687 0.000000
0.961645 0.715913 0.000000
0.000000 0.847667 0.000000
0.000000 0.847517 0.000000
0.038172 0.847128 0.000000
0.291440 0.846416 0.000000
0.449514 0.845325 0.000000
0.592217 0.843818 0.000000
0.728856 0.843917 0.000000
0.858069 0.842081 0.000000
0.955389 0.837505 0.000000
0.000000 0.956915 0.000000
0.000000 0.956782 0.000000
0.000000 0.956441 0.000000
0.264367 0.955826 0.000000
0.435178 0.954888 0.000000
0.582823 0.953598 0.000000
0.720216 0.951951 0.000000
0.851669 0.951779 0.000000
0.950307 0.950307 0.000000
0.000000 0.000000 0.382480
0.086238 0.000000 0.381972
0.211627 0.000000 0.380701
0.338032 0.000000 0.378421
0.465655 0.000000 0.374948
0.593226 0.000000 0.370151
0.719222 0.000000 0.363958
0.842051 0.000000 0.356363
0.960092 0.000000 0.347436
0.000000 0.112858 0.379763
0.082021 0.111832 0.378780
0.211654 0.108438 0.377027
0.339611 0.101472 0.374260
0.468168 0.089413 0.370295
0.596417 0.069537 0.364999
0.722949 0.034145 0.358298
0.846215 0.000000 0.350182
0.964614 0.000000 0.340717
0.000000 0.234381 0.373264
0.068038 0.233879 0.371863
0.209148 0.232279 0.369680
0.340543 0.229294 0.366721
0.470465 0.224027 0.362043
0.599709 0.216632 0.356264
0.726929 0.206604 0.349052
0.850698 0.193600 0.340392
0.970169 0.179685 0.331660
0.000000 0.357496 0.362231
0.031207 0.358570 0.361887
0.207884 0.365330 0.367120
0.359108 0.375139 0.375227
0.487085 0.365794 0.364104
0.608892 0.355967 0.352486
0.737401 0.352069 0.346704
0.862300 0.347257 0.339959
0.981742 0.341607 0.332345
0.000000 0.481749 0.346016
0.000000 0.481500 0.343956
0.190638 0.485460 0.344526
0.343434 0.491637 0.346050
0.486511 0.493029 0.343246
0.616954 0.486817 0.337997
0.746767 0.488536 0.342450
0.876742 0.492499 0.345856
0.989856 0.490043 0.340454
0.000000 0.605826 0.323874
0.000000 0.605621 0.321558
0.165002 0.605060 0.318365
0.328148 0.607910 0.316182
0.475332 0.612292 0.313707
0.614146 0.611478 0.307054
0.740493 0.602887 0.294841
0.866231 0.602001 0.298263
0.978951 0.606468 0.304454
0.000000 0.728237 0.294731
0.000000 0.728064 0.292196
0.124771 0.727605 0.288699
0.311945 0.726753 0.283905
0.462529 0.728445 0.278831
0.605735 0.731490 0.272686
0.740463 0.729842 0.262751
0.863685 0.722472 0.248613
0.961468 0.715652 0.234678
0.000000 0.847452 0.256771
0.000000 0.847303 0.254010
0.035999 0.846913 0.250138
0.291337 0.846201 0.244766
0.449597 0.845109 0.237555
0.594146 0.846074 0.228968
0.732853 0.848089 0.218299
0.862490 0.846044 0.203668
0.959540 0.841118 0.188360
0.000000 0.956735 0.208525
0.000000 0.956602 0.205455
0.000000 0.956261 0.201009
0.264086 0.955646 0.194674
0.435112 0.954708 0.185952
0.582817 0.953418 0.174295
0.722100 0.954213 0.159545
0.855000 0.955310 0.140235
0.953720 0.953720 0.119792
0.000000 0.000000 0.509434
0.081332 0.000000 0.508950
0.209798 0.000000 0.507883
0.337118 0.000000 0.506064
0.465182 0.000000 0.503375
0.593014 0.000000 0.499743
0.719185 0.000000 0.495143
0.842141 0.000000 0.489607
0.960277 0.000000 0.483225
0.000000 0.108932 0.506944
0.077148 0.107876 0.505999
0.210020 0.104365 0.504472
0.338876 0.097134 0.502199
0.467855 0.084533 0.499066
0.596349 0.063458 0.495000
0.723042 0.025458 0.489981
0.846420 0.000000 0.484040
0.964902 0.000000 0.477270
0.000000 0.232589 0.501378
0.062627 0.232085 0.500041
0.207670 0.230472 0.498122
0.339722 0.227289 0.495461
0.470281 0.222142 0.491946
0.599752 0.214672 0.487505
0.727117 0.204532 0.482119
0.850984 0.191367 0.475820
0.969829 0.174769 0.468701
0.000000 0.356422 0.492351
0.023728 0.356093 0.490698
0.200771 0.355085 0.488466
0.343129 0.357943 0.491865
0.480377 0.356805 0.490650
0.602448 0.345614 0.476914
0.730707 0.339807 0.471219
0.855171 0.332576 0.464612
0.973421 0.324050 0.457239
0.000000 0.481019 0.479663
0.000000 0.481170 0.478177
0.190057 0.486477 0.481688
0.346009 0.494986 0.488227
0.498739 0.504671 0.495770
0.626139 0.495425 0.485059
0.744218 0.483260 0.471153
0.867842 0.478629 0.464667
0.980226 0.474898 0.459112
0.000000 0.605289 0.463217
0.000000 0.605085 0.461185
0.164694 0.608087 0.461350
0.331721 0.614229 0.463555
0.482330 0.620593 0.465453
0.624117 0.620716 0.462042
0.753131 0.614613 0.457289
0.877457 0.614654 0.460726
0.987818 0.618328 0.464266
0.000000 0.727820 0.442969
0.000000 0.727649 0.440886
0.122804 0.727189 0.438218
0.313026 0.729575 0.436819
0.467153 0.735161 0.436792
0.612458 0.738987 0.434957
0.748536 0.737238 0.428966
0.871668 0.728649 0.418159
0.970657 0.725262 0.419173
0.000000 0.847115 0.418939
0.000000 0.846967 0.416897
0.030964 0.846578 0.414259
0.290766 0.845865 0.410846
0.450863 0.847382 0.407869
0.598706 0.852137 0.405732
0.738700 0.854437 0.401471
0.869092 0.852151 0.394066
0.965904 0.846652 0.385548
0.000000 0.956452 0.392306
0.000000 0.956319 0.390405
0.000000 0.955979 0.387900
0.263271 0.955363 0.384604
0.434748 0.954425 0.380379
0.584246 0.955739 0.376239
0.726296 0.959591 0.372218
0.860027 0.960775 0.366097
0.959027 0.959027 0.359411
0.000000 0.000000 0.636363
0.074137 0.000000 0.635870
0.207205 0.000000 0.634899
0.335783 0.000000 0.633323
0.464431 0.000000 0.631061
0.592602 0.000000 0.628065
0.718996 0.000000 0.624331
0.842108 0.000000 0.619898
0.960359 0.000000 0.614852
0.000000 0.103325 0.633933
0.069891 0.102221 0.632992
0.207627 0.098531 0.631577
0.337720 0.090888 0.629569
0.467264 0.077431 0.626890
0.596080 0.054350 0.623496
0.722979 0.013575 0.619387
0.846500 0.000000 0.614604
0.965085 0.000000 0.609234
0.000000 0.230103 0.628841
0.054309 0.229595 0.627525
0.205427 0.227965 0.625742
0.338716 0.224741 0.623377
0.469820 0.219527 0.620356
0.599593 0.211951 0.616639
0.727148 0.201655 0.612226
0.851142 0.188265 0.607162
0.970076 0.171337 0.601533
0.000000 0.354937 0.620887
0.013344 0.354608 0.619282
0.198598 0.353597 0.617218
0.337592 0.351632 0.614584
0.471189 0.348509 0.611308
0.602360 0.344074 0.607353
0.730791 0.338234 0.602721
0.855366 0.330960 0.597455
0.973022 0.322434 0.591708
0.000000 0.480008 0.610067
0.000000 0.479759 0.608265
0.184926 0.479035 0.606016
0.336810 0.482505 0.609207
0.484093 0.489158 0.616665
0.620611 0.486005 0.612443
0.738784 0.472128 0.595479
0.858509 0.463538 0.585540
0.970105 0.458233 0.579950
0.000000 0.604545 0.596506
0.000000 0.604340 0.594603
0.162521 0.608339 0.596751
0.332059 0.615535 0.601948
0.486050 0.624924 0.609204
0.636758 0.632589 0.614703
0.763135 0.625121 0.606425
0.879442 0.613406 0.593170
0.978534 0.605685 0.584016
0.000000 0.727241 0.580427
0.000000 0.727070 0.578532
0.120081 0.729317 0.578404
0.314852 0.734861 0.580703
0.471596 0.741893 0.583930
0.620387 0.748008 0.586139
0.759070 0.747052 0.582445
0.884766 0.741213 0.578461
0.985373 0.741268 0.581613
0.000000 0.846646 0.562163
0.000000 0.846498 0.560377
0.022749 0.846109 0.558189
0.290727 0.848158 0.557363
0.454257 0.853884 0.558680
0.604144 0.859598 0.559603
0.746249 0.862801 0.558450
0.877880 0.860411 0.553218
0.974387 0.854022 0.545695
0.000000 0.956056 0.542889
0.000000 0.955924 0.541316
0.000000 0.955583 0.539363
0.261856 0.954968 0.536922
0.435390 0.956794 0.535534
0.588138 0.962219 0.535820
0.731686 0.966648 0.535082
0.866745 0.968175 0.532249
0.966283 0.966283 0.527923
0.000000 0.000000 0.761656
0.064024 0.000000 0.761140
0.203799 0.000000 0.760212
0.334006 0.000000 0.758773
0.463392 0.000000 0.756763
0.591981 0.000000 0.754151
0.718644 0.000000 0.750941
0.841943 0.000000 0.747174
0.960331 0.000000 0.742931
0.000000 0.095741 0.759209
0.059558 0.094566 0.758256
0.204426 0.090606 0.756898
0.336125 0.082336 0.755043
0.466383 0.067523 0.752636
0.595599 0.040927 0.749650
0.722751 0.000000 0.746093
0.846445 0.000000 0.742009
0.965153 0.000000 0.737479
0.000000 0.226883 0.754368
0.041945 0.226371 0.753055
0.202366 0.224717 0.751347
0.337269 0.221442 0.749157
0.469066 0.216138 0.746434
0.599219 0.208423 0.743156
0.727010 0.197922 0.739333
0.851162 0.184231 0.735011
0.970205 0.166859 0.730270
0.000000 0.353028 0.747049
0.000000 0.352699 0.745464
0.195578 0.351682 0.743497
0.336250 0.349705 0.741066
0.470523 0.346561 0.738123
0.602054 0.342096 0.734648
0.730703 0.336213 0.730654
0.855419 0.328883 0.726185
0.972509 0.320342 0.721392
0.000000 0.478708 0.737349
0.000000 0.478461 0.735591
0.181783 0.477736 0.733467
0.331978 0.476347 0.730899
0.469912 0.474163 0.727840
0.603357 0.471092 0.724274
0.733135 0.467095 0.720212
0.858550 0.462183 0.715699
0.969596 0.456890 0.711078
0.000000 0.603587 0.725500
0.000000 0.603383 0.723670
0.157455 0.602821 0.721497
0.325578 0.605631 0.723461
0.477448 0.613947 0.732122
0.624941 0.620160 0.738571
0.758429 0.615242 0.732260
0.873901 0.601057 0.715421
0.965537 0.587514 0.699474
0.000000 0.726494 0.711826
0.000000 0.726325 0.710035
0.115318 0.729043 0.711027
0.313910 0.735170 0.715313
0.472455 0.743522 0.721748
0.625044 0.753243 0.729507
0.771522 0.758753 0.733202
0.895192 0.753207 0.727719
0.989512 0.743954 0.717299
0.000000 0.846040 0.696749
0.000000 0.845893 0.695101
0.011301 0.847531 0.694839
0.290943 0.852463 0.697200
0.456700 0.859154 0.700894
0.609111 0.866604 0.705091
0.754713 0.872289 0.707718
0.888608 0.870583 0.704192
0.985952 0.865060 0.699729
0.000000 0.955544 0.681314
0.000000 0.955412 0.679908
0.000000 0.955072 0.678236
0.260662 0.957197 0.678214
0.437471 0.962749 0.680511
0.592077 0.969056 0.683178
0.737719 0.974679 0.685178
0.874890 0.977221 0.684812
0.975347 0.975347 0.681629
0.000000 0.000000 0.883705
0.049927 0.000000 0.883158
0.199570 0.000000 0.882244
0.331799 0.000000 0.880885
0.462071 0.000000 0.879031
0.591154 0.000000 0.876664
0.718131 0.000000 0.873793
0.841647 0.000000 0.870460
0.960190 0.000000 0.866737
0.000000 0.085828 0.881199
0.044930 0.084544 0.880227
0.200407 0.080173 0.878896
0.334098 0.070924 0.877134
0.465217 0.053853 0.874900
0.594908 0.022729 0.872178
0.722358 0.000000 0.868981
0.846253 0.000000 0.865354
0.965103 0.000000 0.861370
0.000000 0.222931 0.876492
0.024881 0.222413 0.875172
0.198480 0.220729 0.873505
0.335389 0.217389 0.871425
0.468024 0.211972 0.868895
0.598632 0.204081 0.865904
0.726702 0.193318 0.862467
0.851039 0.179242 0.858630
0.970211 0.161295 0.854467
0.000000 0.350706 0.869568
0.000000 0.350377 0.867992
0.191696 0.349355 0.866085
0.334468 0.347363 0.863784
0.469565 0.344193 0.861058
0.601531 0.339690 0.857898
0.730441 0.333756 0.854320
0.855327 0.326358 0.850371
0.971888 0.317787 0.846195
0.000000 0.477132 0.860594
0.000000 0.476885 0.858862
0.177697 0.476158 0.856819
0.330234 0.474765 0.854405
0.468990 0.472572 0.851593
0.602853 0.469488 0.848373
0.732875 0.465473 0.844764
0.858444 0.460539 0.840811
0.968977 0.455255 0.836812
0.000000 0.602423 0.849856
0.000000 0.602222 0.848074
0.152759 0.601659 0.846004
0.321565 0.600597 0.843591
0.465493 0.598940 0.840807
0.606512 0.601213 0.843924
0.743657 0.602128 0.845756
0.867328 0.595334 0.837608
0.964920 0.586335 0.826555
0.000000 0.725588 0.837730
0.000000 0.725419 0.836008
0.108112 0.724959 0.834024
0.308566 0.726949 0.834963
0.466346 0.734917 0.842879
0.617081 0.743594 0.851812
0.762435 0.749265 0.857583
0.891010 0.742981 0.850073
0.984144 0.731526 0.836809
0.000000 0.845304 0.824666
0.000000 0.845157 0.823107
0.000000 0.846839 0.823334
0.288873 0.852121 0.827090
0.456126 0.859502 0.832928
0.610233 0.868476 0.840375
0.759954 0.878166 0.848597
0.900645 0.882070 0.851353
0.997494 0.880079 0.850439
0.000000 0.954921 0.811595
0.000000 0.954789 0.810297
0.000000 0.956019 0.810147
0.259175 0.960455 0.812725
0.438262 0.966661 0.816804
0.594723 0.974132 0.821959
0.742922 0.981772 0.827264
0.883649 0.987012 0.830550
0.985897 0.985897 0.828693
0.000000 0.000000 0.982936
0.033492 0.000000 0.982857
0.195378 0.000000 0.982599
0.329627 0.000000 0.982092
0.460761 0.000000 0.981287
0.590322 0.000000 0.980150
0.717600 0.000000 0.978671
0.841321 0.000000 0.976861
0.960012 0.000000 0.974756
0.000000 0.075028 0.982543
0.027779 0.073488 0.982460
0.196280 0.068427 0.982196
0.332010 0.057615 0.981680
0.463989 0.036703 0.980861
0.594151 0.003715 0.979709
0.721894 0.000000 0.978212
0.845987 0.000000 0.976381
0.964977 0.000000 0.974255
0.000000 0.218814 0.981520
0.007144 0.218236 0.981430
0.194272 0.216459 0.981157
0.333322 0.212981 0.980628
0.466830 0.207365 0.979794
0.597908 0.199195 0.978622
0.726267 0.188041 0.977103
0.850795 0.173411 0.975250
0.970099 0.154650 0.973056
0.000000 0.348196 0.979633
0.000000 0.347830 0.979535
0.187205 0.346762 0.979250
0.332351 0.344711 0.978706
0.468354 0.341469 0.977853
0.600805 0.336899 0.975830
0.730017 0.330904 0.972542
0.855096 0.323428 0.968952
0.971171 0.314810 0.965200
0.000000 0.475339 0.976721
0.000000 0.475066 0.976613
0.172696 0.474334 0.974821
0.328074 0.472935 0.972515
0.467795 0.470732 0.969873
0.602144 0.467634 0.966895
0.732449 0.463599 0.963600
0.858197 0.458639 0.960034
0.968263 0.453357 0.956461
0.000000 0.601080 0.968553
0.000000 0.600879 0.966804
0.146942 0.600316 0.964808
0.319347 0.599251 0.962523
0.464274 0.597591 0.959932
0.601148 0.595273 0.957036
0.732866 0.592275 0.953854
0.859443 0.588617 0.950426
0.964207 0.584968 0.947136
0.000000 0.724540 0.957493
0.000000 0.724372 0.955820
0.099803 0.723912 0.953928
0.304857 0.723057 0.951780
0.457031 0.721733 0.949359
0.602864 0.726632 0.955371
0.745407 0.732004 0.962421
0.878358 0.731583 0.962427
0.977189 0.725737 0.955473
0.000000 0.844452 0.945802
0.000000 0.844306 0.944308
0.000000 0.843917 0.942629
0.283825 0.845127 0.942864
0.451126 0.852344 0.949931
0.604449 0.860947 0.958740
0.752587 0.869688 0.967939
0.893569 0.874799 0.973377
0.993145 0.869994 0.967968
0.000000 0.954199 0.934328
0.000000 0.954068 0.933108
0.000000 0.954766 0.932758
0.255785 0.959409 0.936349
0.436567 0.965990 0.941938
0.594041 0.974195 0.949240
0.743863 0.983457 0.957716
0.888917 0.992988 0.966608
0.997481 0.997481 0.970782
