colorkit/colorkit/luts/warm_interview.cube
TITLE "warm_interview"
LUT_3D_SIZE 9
DOMAIN_MIN 0.0 0.0 0.0
DOMAIN_MAX 1.0 1.0 1.0
0.000000 0.000000 0.006432
0.121378 0.000000 0.004662
0.249060 0.000000 0.001091
0.378640 0.000000 0.000000
0.509100 0.000000 0.000000
0.639389 0.000000 0.000000
0.768448 0.000000 0.000000
0.895216 0.000000 0.000000
0.972078 0.000000 0.000000
0.000000 0.113560 0.000145
0.118828 0.113687 0.000000
0.249445 0.114215 0.000000
0.384626 0.116128 0.000000
0.517643 0.114654 0.000000
0.647716 0.109356 0.000000
0.776664 0.102326 0.000000
0.903374 0.093074 0.000000
0.979571 0.086041 0.000000
0.000000 0.232410 0.000000
0.112195 0.232064 0.000000
0.243579 0.231329 0.000000
0.373364 0.229393 0.000000
0.510158 0.232647 0.000000
0.645902 0.234343 0.000000
0.779897 0.235215 0.000000
0.911245 0.235652 0.000000
0.987871 0.234624 0.000000
0.000000 0.353085 0.000000
0.100705 0.352892 0.000000
0.238964 0.352317 0.000000
0.371036 0.351222 0.000000
0.502013 0.349514 0.000000
0.635517 0.350279 0.000000
0.770349 0.352809 0.000000
0.902323 0.354395 0.000000
0.979185 0.355034 0.000000
0.000000 0.474682 0.000000
0.079999 0.474566 0.000000
0.231745 0.474182 0.000000
0.367266 0.473440 0.000000
0.499810 0.472274 0.000000
0.630716 0.470641 0.000000
0.759686 0.468516 0.000000
0.892290 0.471580 0.000000
0.968238 0.472959 0.000000
0.000000 0.596296 0.000000
0.039828 0.596223 0.000000
0.220953 0.595949 0.000000
0.361584 0.595404 0.000000
0.496326 0.594543 0.000000
0.628427 0.593334 0.000000
0.758126 0.591759 0.000000
0.884896 0.589818 0.000000
0.956399 0.588590 0.000000
0.000000 0.717021 0.000000
0.000000 0.716973 0.000000
0.205675 0.716765 0.000000
0.353691 0.716343 0.000000
0.491373 0.715670 0.000000
0.625027 0.714723 0.000000
0.755660 0.713488 0.000000
0.883031 0.711966 0.000000
0.953735 0.710979 0.000000
0.000000 0.835951 0.000000
0.000000 0.835917 0.000000
0.184564 0.835749 0.000000
0.343300 0.835406 0.000000
0.484801 0.834857 0.000000
0.620406 0.834082 0.000000
0.752189 0.833071 0.000000
0.880294 0.831825 0.000000
0.950526 0.831027 0.000000
0.000000 0.951185 0.000000
0.000000 0.951116 0.000000
0.155550 0.950936 0.000000
0.330283 0.950608 0.000000
0.476605 0.950108 0.000000
0.614568 0.949421 0.000000
0.747716 0.948538 0.000000
0.876682 0.947462 0.000000
0.946780 0.946780 0.000000
0.000000 0.000000 0.116074
0.119754 0.000000 0.115257
0.246107 0.000000 0.113060
0.374306 0.000000 0.108936
0.503365 0.000000 0.102346
0.632302 0.000000 0.092660
0.761539 0.000000 0.081228
0.888436 0.000000 0.065345
0.965361 0.000000 0.052226
0.000000 0.113517 0.113492
0.126758 0.121411 0.121151
0.249159 0.113813 0.113275
0.379154 0.111032 0.110136
0.509868 0.106638 0.105299
0.640341 0.100274 0.098378
0.769544 0.091498 0.088878
0.896428 0.079664 0.076036
0.972614 0.070444 0.065949
0.000000 0.232306 0.105798
0.112809 0.233298 0.105331
0.248029 0.235517 0.104345
0.378974 0.234484 0.104271
0.516870 0.238459 0.107924
0.651118 0.238831 0.106844
0.779664 0.234886 0.098246
0.906154 0.230537 0.087469
0.981095 0.227629 0.079507
0.000000 0.353028 0.091000
0.100549 0.352837 0.089485
0.239445 0.352939 0.086451
0.373753 0.353721 0.081258
0.502317 0.349689 0.071678
0.640692 0.354846 0.078335
0.776222 0.357881 0.081208
0.908523 0.359744 0.082166
0.985375 0.360517 0.082213
0.000000 0.474649 0.063709
0.079831 0.474533 0.061564
0.231749 0.474150 0.056985
0.367667 0.473850 0.048734
0.501435 0.473721 0.034748
0.630794 0.470609 0.014593
0.763737 0.472146 0.008171
0.897207 0.475883 0.014777
0.973349 0.477490 0.016741
0.000000 0.596277 0.008602
0.039570 0.596204 0.005606
0.220963 0.595929 0.000000
0.361635 0.595385 0.000000
0.496708 0.594894 0.000000
0.629350 0.594117 0.000000
0.758206 0.591739 0.000000
0.884977 0.589797 0.000000
0.960104 0.592002 0.000000
0.000000 0.717010 0.000000
0.000000 0.716962 0.000000
0.205684 0.716753 0.000000
0.353737 0.716330 0.000000
0.491433 0.715657 0.000000
0.625399 0.715056 0.000000
0.756084 0.713812 0.000000
0.883097 0.711951 0.000000
0.953717 0.710965 0.000000
0.000000 0.835944 0.000000
0.000000 0.835909 0.000000
0.184562 0.835741 0.000000
0.343335 0.835397 0.000000
0.484847 0.834847 0.000000
0.620455 0.834071 0.000000
0.752536 0.833389 0.000000
0.880342 0.831816 0.000000
0.950509 0.831015 0.000000
0.000000 0.951168 0.000000
0.000000 0.951099 0.000000
0.155524 0.950918 0.000000
0.330299 0.950590 0.000000
0.476630 0.950090 0.000000
0.614593 0.949403 0.000000
0.747738 0.948521 0.000000
0.876993 0.947762 0.000000
0.947190 0.947190 0.000000
0.000000 0.000000 0.230213
0.119195 0.000000 0.229776
0.245867 0.000000 0.228646
0.374182 0.000000 0.226594
0.503301 0.000000 0.223445
0.632221 0.000000 0.219054
0.759908 0.000000 0.213293
0.885318 0.000000 0.206054
0.961353 0.000000 0.200792
0.000000 0.112723 0.228653
0.117182 0.111948 0.228057
0.245233 0.109813 0.226767
0.374075 0.105760 0.224550
0.503489 0.099236 0.221230
0.632607 0.089523 0.216655
0.761073 0.076625 0.211269
0.888362 0.060903 0.205652
0.964634 0.047862 0.201578
0.000000 0.232031 0.224660
0.114653 0.237110 0.229199
0.258175 0.245395 0.236925
0.380275 0.235527 0.226772
0.510918 0.233005 0.223654
0.641514 0.230088 0.220061
0.770837 0.226421 0.215631
0.897821 0.221903 0.210257
0.972871 0.218751 0.206528
0.000000 0.352868 0.217487
0.100060 0.352847 0.216734
0.243728 0.358948 0.219571
0.380403 0.359952 0.218359
0.509509 0.356352 0.216892
0.648920 0.362117 0.222201
0.783802 0.364398 0.223758
0.909665 0.360612 0.217603
0.983077 0.358448 0.213808
0.000000 0.474545 0.206404
0.079179 0.474430 0.205419
0.231589 0.474047 0.203670
0.371425 0.478507 0.203413
0.506193 0.478135 0.199745
0.631175 0.470840 0.191942
0.769864 0.477652 0.199186
0.904017 0.481838 0.203155
0.980233 0.483547 0.204565
0.000000 0.596204 0.190453
0.038524 0.596132 0.189345
0.220799 0.595857 0.187408
0.361589 0.595312 0.184350
0.499793 0.598451 0.181382
0.632944 0.597426 0.175413
0.758248 0.591665 0.166120
0.889388 0.593805 0.165496
0.965306 0.596764 0.169173
0.000000 0.716957 0.168109
0.000000 0.716908 0.166852
0.205504 0.716699 0.164653
0.353684 0.716276 0.161171
0.491428 0.715603 0.156113
0.627936 0.717852 0.150027
0.758912 0.716409 0.140785
0.883131 0.711894 0.128220
0.953670 0.710909 0.120081
0.000000 0.835903 0.136367
0.000000 0.835868 0.134876
0.184346 0.835699 0.132218
0.343265 0.835354 0.127947
0.484825 0.834803 0.121638
0.620453 0.834026 0.112786
0.754647 0.835657 0.101160
0.882633 0.833931 0.084557
0.950516 0.831015 0.072216
0.000000 0.951121 0.087336
0.000000 0.951052 0.085272
0.155241 0.950872 0.081407
0.330204 0.950544 0.074912
0.476583 0.950044 0.064732
0.614566 0.949357 0.048969
0.747718 0.948474 0.024513
0.878775 0.949653 0.000000
0.949027 0.949027 0.000000
0.000000 0.000000 0.346064
0.118177 0.000000 0.345753
0.245417 0.000000 0.344994
0.373932 0.000000 0.343650
0.503151 0.000000 0.341625
0.632132 0.000000 0.338850
0.759859 0.000000 0.335282
0.885298 0.000000 0.330902
0.961346 0.000000 0.327789
0.000000 0.111635 0.344908
0.116183 0.110855 0.344445
0.244814 0.108702 0.343538
0.373854 0.104610 0.342048
0.503366 0.098018 0.339881
0.632542 0.088189 0.336967
0.760414 0.073936 0.333263
0.885965 0.052781 0.328750
0.961146 0.033870 0.325592
0.000000 0.231529 0.342088
0.110489 0.231185 0.341497
0.244120 0.231549 0.342321
0.373241 0.228553 0.339097
0.503084 0.225508 0.336556
0.632621 0.221466 0.333516
0.760733 0.216129 0.329684
0.887913 0.210982 0.326290
0.963263 0.207677 0.324158
0.000000 0.352570 0.337230
0.100033 0.355371 0.339412
0.247022 0.363756 0.346868
0.391610 0.370803 0.353210
0.517284 0.362656 0.344845
0.643185 0.356752 0.338372
0.772381 0.354113 0.334987
0.899361 0.351246 0.331329
0.973120 0.349375 0.328956
0.000000 0.474345 0.330063
0.077867 0.474231 0.329292
0.234108 0.479215 0.331960
0.377327 0.485914 0.335509
0.514288 0.485702 0.333655
0.643842 0.482036 0.332109
0.779527 0.486371 0.336839
0.913543 0.490176 0.340082
0.985960 0.488554 0.337625
0.000000 0.596061 0.320335
0.036416 0.595988 0.319512
0.220400 0.595714 0.318233
0.364406 0.599846 0.319022
0.505044 0.604593 0.319605
0.639204 0.603252 0.316118
0.762290 0.594817 0.308334
0.896421 0.600235 0.315190
0.972700 0.603507 0.318356
0.000000 0.716848 0.307791
0.000000 0.716799 0.306941
0.205068 0.716590 0.305622
0.353495 0.716167 0.303683
0.494085 0.719377 0.302808
0.632369 0.722814 0.301320
0.763906 0.721052 0.296690
0.885300 0.713561 0.288722
0.954032 0.711224 0.285206
0.000000 0.835816 0.292140
0.000000 0.835780 0.291289
0.183841 0.835611 0.289951
0.343054 0.835266 0.287965
0.484709 0.834714 0.285214
0.622926 0.837283 0.282876
0.758394 0.839737 0.279633
0.886726 0.837749 0.273839
0.954569 0.834567 0.269431
0.000000 0.951036 0.273189
0.000000 0.950967 0.272372
0.154609 0.950787 0.271040
0.329959 0.950459 0.269022
0.476441 0.949959 0.266190
0.614468 0.949272 0.262442
0.750100 0.951460 0.258661
0.881983 0.953088 0.253694
0.952371 0.952371 0.249972
0.000000 0.000000 0.462849
0.116611 0.000000 0.462592
0.244721 0.000000 0.462007
0.373535 0.000000 0.460999
0.502900 0.000000 0.459506
0.631967 0.000000 0.457486
0.759752 0.000000 0.454917
0.885231 0.000000 0.451799
0.961214 0.000000 0.449606
0.000000 0.109964 0.461867
0.114628 0.109174 0.461462
0.244148 0.106992 0.460734
0.373486 0.102840 0.459589
0.503141 0.096140 0.457965
0.632402 0.086126 0.455821
0.760328 0.071541 0.453135
0.885918 0.049682 0.449909
0.961015 0.030238 0.447677
0.000000 0.230760 0.459594
0.108891 0.230417 0.459068
0.242076 0.229439 0.458223
0.372624 0.227598 0.456966
0.502880 0.224721 0.455236
0.632498 0.220664 0.452992
0.760662 0.215306 0.450211
0.886419 0.208544 0.446896
0.960495 0.203766 0.444643
0.000000 0.352110 0.455813
0.097163 0.351921 0.455193
0.238951 0.352994 0.456324
0.380790 0.360049 0.465199
0.510118 0.354575 0.458678
0.631996 0.346141 0.448787
0.760532 0.343014 0.445934
0.886643 0.339234 0.442640
0.961149 0.338009 0.441665
0.000000 0.474034 0.450397
0.076129 0.475449 0.451174
0.235091 0.481932 0.456721
0.381940 0.491789 0.465400
0.526102 0.497136 0.470072
0.653798 0.490866 0.463742
0.774684 0.481742 0.454189
0.901215 0.478964 0.450691
0.973550 0.477451 0.448734
0.000000 0.595834 0.443269
0.033062 0.595762 0.442554
0.221347 0.599335 0.444468
0.368398 0.606377 0.448815
0.512157 0.612967 0.452565
0.648211 0.611670 0.450060
0.777208 0.608210 0.448712
0.907431 0.610351 0.452091
0.983518 0.613362 0.454805
0.000000 0.716673 0.434386
0.000000 0.716625 0.433669
0.204329 0.716415 0.432646
0.355047 0.719583 0.433487
0.498654 0.725932 0.436007
0.638780 0.730035 0.436750
0.771246 0.727909 0.433222
0.892722 0.719576 0.425767
0.963293 0.719627 0.428145
0.000000 0.835676 0.423740
0.000000 0.835639 0.423053
0.182993 0.835470 0.422061
0.342675 0.835123 0.420669
0.486359 0.837662 0.420456
0.627329 0.843132 0.421393
0.763936 0.845807 0.420407
0.892820 0.843459 0.416341
0.960603 0.839851 0.412672
0.000000 0.950906 0.411463
0.000000 0.950837 0.410843
0.153563 0.950656 0.409919
0.329538 0.950328 0.408594
0.476185 0.949829 0.406797
0.616203 0.952014 0.405797
0.754161 0.956583 0.405412
0.886790 0.958257 0.403222
0.957415 0.957415 0.400990
0.000000 0.000000 0.579792
0.114419 0.000000 0.579560
0.243751 0.000000 0.579068
0.372973 0.000000 0.578248
0.502537 0.000000 0.577052
0.631720 0.000000 0.575455
0.759580 0.000000 0.573442
0.885111 0.000000 0.571019
0.961032 0.000000 0.569327
0.000000 0.107625 0.578890
0.112438 0.106822 0.578514
0.243206 0.104596 0.577884
0.372952 0.100356 0.576931
0.502804 0.093499 0.575612
0.632178 0.083214 0.573898
0.760177 0.068136 0.571779
0.885816 0.045192 0.569259
0.960834 0.025226 0.567531
0.000000 0.229695 0.576915
0.106626 0.229351 0.576422
0.241151 0.228370 0.575681
0.372112 0.226520 0.574624
0.502562 0.223628 0.573208
0.632291 0.219550 0.571406
0.760526 0.214161 0.569206
0.886330 0.207358 0.566615
0.960314 0.202558 0.564869
0.000000 0.351471 0.573731
0.094676 0.351283 0.573151
0.236841 0.350708 0.572329
0.370002 0.349610 0.571198
0.501483 0.347895 0.569715
0.631798 0.345493 0.567853
0.760402 0.342358 0.565601
0.886454 0.338473 0.562965
0.959363 0.335827 0.561220
0.000000 0.473599 0.569284
0.072690 0.473486 0.568648
0.229955 0.473739 0.568526
0.374486 0.482654 0.578735
0.518262 0.489184 0.586286
0.646391 0.481725 0.577535
0.759623 0.467423 0.560918
0.886024 0.464792 0.558266
0.957908 0.463045 0.556543
0.000000 0.595515 0.563564
0.028387 0.595972 0.563408
0.221230 0.601104 0.567649
0.370049 0.609439 0.574876
0.518010 0.619905 0.584065
0.660395 0.623493 0.587144
0.788714 0.619106 0.582953
0.905850 0.608267 0.571825
0.974666 0.605171 0.568427
0.000000 0.716426 0.556599
0.000000 0.716377 0.555949
0.204142 0.718828 0.557180
0.357606 0.725176 0.561366
0.503501 0.732979 0.566548
0.646797 0.739102 0.570238
0.780836 0.736888 0.567206
0.908019 0.733650 0.566151
0.979309 0.734068 0.567713
0.000000 0.835476 0.548454
0.000000 0.835439 0.547846
0.181761 0.835268 0.547022
0.343285 0.837552 0.547692
0.490006 0.844049 0.551008
0.632788 0.850432 0.554026
0.771232 0.853825 0.554801
0.900938 0.851082 0.551244
0.968564 0.846815 0.547328
0.000000 0.950725 0.539305
0.000000 0.950657 0.538774
0.152050 0.950476 0.538035
0.328921 0.950148 0.537020
0.477077 0.952057 0.537100
0.620178 0.958208 0.539424
0.759464 0.963298 0.540854
0.893239 0.965206 0.540156
0.964229 0.964229 0.538464
0.000000 0.000000 0.696117
0.111534 0.000000 0.695895
0.242486 0.000000 0.695458
0.372237 0.000000 0.694751
0.502055 0.000000 0.693740
0.631384 0.000000 0.692404
0.759338 0.000000 0.690737
0.884935 0.000000 0.688745
0.960798 0.000000 0.687362
0.000000 0.104541 0.695250
0.109542 0.103718 0.694887
0.241970 0.101433 0.694315
0.372244 0.097070 0.693481
0.502348 0.089995 0.692351
0.631865 0.079330 0.690905
0.759956 0.063542 0.689138
0.885658 0.038943 0.687056
0.960600 0.018758 0.685638
0.000000 0.228312 0.693451
0.103615 0.227967 0.692975
0.239929 0.226981 0.692297
0.371423 0.225119 0.691364
0.502124 0.222208 0.690143
0.631995 0.218101 0.688617
0.760318 0.212672 0.686778
0.886182 0.205815 0.684633
0.960081 0.200982 0.683200
0.000000 0.350642 0.690635
0.091347 0.350454 0.690077
0.235613 0.349879 0.689323
0.369324 0.348779 0.688322
0.501056 0.347060 0.687043
0.631510 0.344651 0.685466
0.760201 0.341507 0.683586
0.886311 0.337610 0.681409
0.959130 0.334961 0.679980
0.000000 0.473034 0.686787
0.068531 0.472921 0.686179
0.228354 0.472539 0.685382
0.365586 0.471795 0.684346
0.499814 0.471508 0.684281
0.634739 0.472456 0.686325
0.759421 0.466850 0.679557
0.885877 0.464215 0.677380
0.957672 0.462464 0.675974
0.000000 0.595098 0.681935
0.022146 0.595026 0.681309
0.217406 0.594751 0.680503
0.365168 0.602480 0.688828
0.511390 0.612201 0.699496
0.655242 0.618055 0.705903
0.780990 0.608949 0.695529
0.892981 0.594243 0.678964
0.955653 0.587324 0.671215
0.000000 0.716102 0.676138
0.000000 0.716053 0.675528
0.203194 0.720005 0.678686
0.358026 0.727020 0.684717
0.505739 0.736453 0.693007
0.653758 0.747004 0.702324
0.793228 0.748972 0.704050
0.920810 0.746370 0.701984
0.986633 0.740459 0.695899
0.000000 0.835213 0.669487
0.000000 0.835175 0.668926
0.180575 0.836752 0.669622
0.344766 0.842329 0.673495
0.493170 0.849798 0.678816
0.638325 0.857901 0.684556
0.779906 0.863378 0.688070
0.910883 0.860430 0.684685
0.979760 0.857020 0.682172
0.000000 0.950492 0.662161
0.000000 0.950424 0.661683
0.150028 0.950243 0.661051
0.328844 0.951879 0.661615
0.479843 0.958040 0.665280
0.624499 0.965018 0.669391
0.765661 0.971176 0.672779
0.901221 0.973819 0.673537
0.972759 0.972759 0.672109
0.000000 0.000000 0.811048
0.107893 0.000000 0.810828
0.240919 0.000000 0.810423
0.371322 0.000000 0.809790
0.501451 0.000000 0.808900
0.630958 0.000000 0.807738
0.759025 0.000000 0.806301
0.884700 0.000000 0.804597
0.960511 0.000000 0.803420
0.000000 0.100640 0.810191
0.105876 0.099791 0.809834
0.240430 0.097426 0.809298
0.371357 0.092898 0.808540
0.501768 0.085527 0.807536
0.631461 0.074337 0.806269
0.759663 0.057539 0.804737
0.885440 0.030968 0.802948
0.960314 0.010814 0.801737
0.000000 0.226600 0.808500
0.099787 0.226254 0.808034
0.238399 0.225261 0.807396
0.370555 0.223384 0.806544
0.501562 0.220449 0.805454
0.631606 0.216306 0.804112
0.760038 0.210826 0.802515
0.885975 0.203901 0.800670
0.959796 0.199025 0.799444
0.000000 0.349618 0.805926
0.087081 0.349431 0.805381
0.234070 0.348855 0.804672
0.368464 0.347752 0.803758
0.500504 0.346027 0.802615
0.631130 0.343610 0.801229
0.759927 0.340455 0.799597
0.886107 0.336543 0.797729
0.958845 0.333889 0.796509
0.000000 0.472335 0.802478
0.063095 0.472222 0.801887
0.226768 0.471840 0.801140
0.364723 0.471095 0.800197
0.498332 0.469923 0.799035
0.629819 0.468280 0.797639
0.759144 0.466141 0.796007
0.885669 0.463501 0.794147
0.957387 0.461750 0.792952
0.000000 0.594582 0.798205
0.014484 0.594510 0.797602
0.215733 0.594235 0.796851
0.358999 0.593688 0.795914
0.497023 0.595419 0.798172
0.638251 0.601800 0.806769
0.771401 0.601035 0.806253
0.890652 0.592272 0.795498
0.955368 0.586799 0.788829
0.000000 0.715699 0.793185
0.000000 0.715650 0.792602
0.199985 0.715439 0.791882
0.354284 0.721272 0.797860
0.501231 0.730511 0.807651
0.648114 0.740674 0.818539
0.790379 0.745690 0.823873
0.912751 0.735290 0.812396
0.975896 0.727179 0.803486
0.000000 0.834886 0.787519
0.000000 0.834848 0.786991
0.178767 0.837487 0.788993
0.344441 0.843457 0.794140
0.493943 0.851762 0.801492
0.641094 0.861793 0.810474
0.787775 0.872066 0.819686
0.923350 0.872670 0.820388
0.995254 0.873419 0.821995
0.000000 0.950205 0.781382
0.000000 0.950137 0.780940
0.147682 0.951020 0.781266
0.329442 0.955903 0.784880
0.481810 0.962724 0.790061
0.628119 0.970878 0.796301
0.771760 0.978979 0.802447
0.910374 0.983708 0.805751
0.982838 0.982838 0.804670
0.000000 0.000000 0.923808
0.103441 0.000000 0.923586
0.239048 0.000000 0.923201
0.370232 0.000000 0.922616
0.500727 0.000000 0.921810
0.630442 0.000000 0.920770
0.758642 0.000000 0.919494
0.884408 0.000000 0.917990
0.960172 0.000000 0.916958
0.000000 0.095853 0.922947
0.101384 0.094969 0.922591
0.238585 0.092498 0.922078
0.370293 0.087751 0.921373
0.501068 0.079983 0.920456
0.630966 0.068073 0.919314
0.759299 0.049819 0.917948
0.885164 0.021554 0.916365
0.959976 0.001431 0.915299
0.000000 0.224559 0.921326
0.095073 0.224211 0.920864
0.236562 0.223209 0.920252
0.369509 0.221315 0.919457
0.500879 0.218350 0.918458
0.631127 0.214162 0.917246
0.759686 0.208621 0.915819
0.885709 0.201613 0.914185
0.959458 0.196683 0.913107
0.000000 0.348403 0.918916
0.081774 0.348217 0.918380
0.232213 0.347638 0.917701
0.367425 0.346532 0.916848
0.499830 0.344800 0.915801
0.630657 0.342374 0.914551
0.759580 0.339205 0.913095
0.885844 0.335276 0.911444
0.958508 0.332614 0.910372
0.000000 0.471505 0.915749
0.056148 0.471393 0.915171
0.224854 0.471010 0.914458
0.363676 0.470264 0.913581
0.497657 0.469090 0.912520
0.629346 0.467443 0.911265
0.758795 0.465299 0.909816
0.885401 0.462653 0.908179
0.957050 0.460900 0.907134
0.000000 0.593968 0.911885
0.005379 0.593896 0.911298
0.213712 0.593621 0.910587
0.357931 0.593074 0.909720
0.494134 0.592207 0.908680
0.627009 0.590989 0.907456
0.757170 0.589403 0.906047
0.884234 0.587448 0.904460
0.955031 0.586175 0.903462
0.000000 0.715220 0.907413
0.000000 0.715171 0.906851
0.197778 0.714960 0.906175
0.349877 0.714533 0.905354
0.490993 0.716571 0.907761
0.634355 0.725188 0.918548
0.774729 0.730738 0.925698
0.904842 0.728585 0.923432
0.971823 0.723852 0.917825
0.000000 0.834496 0.902441
0.000000 0.834458 0.901937
0.175505 0.834285 0.901330
0.341240 0.838504 0.905500
0.490406 0.846761 0.914077
0.637011 0.856725 0.924565
0.783199 0.867085 0.935564
0.922336 0.871110 0.939852
0.990236 0.865648 0.933995
0.000000 0.949866 0.897135
0.000000 0.949798 0.896721
0.144693 0.951343 0.897850
0.328528 0.956473 0.902387
0.481752 0.963778 0.909000
0.629128 0.972915 0.917366
0.774964 0.983206 0.926845
0.918937 0.992977 0.935860
0.994205 0.994205 0.936907
