colorkit/colorkit/luts/warm_interview.cube
TITLE "warm_interview"
LUT_3D_SIZE 33
DOMAIN_MIN 0.0 0.0 0.0
DOMAIN_MAX 1.0 1.0 1.0
0.000000 0.000000 0.006432
0.027718 0.000000 0.005700
0.058464 0.000000 0.005503
0.089849 0.000000 0.005157
0.121378 0.000000 0.004662
0.153070 0.000000 0.004016
0.184923 0.000000 0.003211
0.216925 0.000000 0.002239
0.249060 0.000000 0.001091
0.281316 0.000000 0.000000
0.313675 0.000000 0.000000
0.346121 0.000000 0.000000
0.378640 0.000000 0.000000
0.411213 0.000000 0.000000
0.443825 0.000000 0.000000
0.476460 0.000000 0.000000
0.509100 0.000000 0.000000
0.541729 0.000000 0.000000
0.574332 0.000000 0.000000
0.606891 0.000000 0.000000
0.639389 0.000000 0.000000
0.671811 0.000000 0.000000
0.704139 0.000000 0.000000
0.736357 0.000000 0.000000
0.768448 0.000000 0.000000
0.800396 0.000000 0.000000
0.832185 0.000000 0.000000
0.863797 0.000000 0.000000
0.895216 0.000000 0.000000
0.926425 0.000000 0.000000
0.957408 0.000000 0.000000
0.972078 0.000000 0.000000
0.972078 0.000000 0.000000
0.000000 0.027572 0.005155
0.028488 0.028262 0.005025
0.059626 0.027991 0.005206
0.092396 0.028681 0.005587
0.123876 0.028108 0.005117
0.155363 0.027340 0.004451
0.187094 0.026519 0.003681
0.219018 0.025592 0.002775
0.251100 0.024528 0.001714
0.283318 0.023309 0.000484
0.315650 0.021919 0.000000
0.348076 0.020347 0.000000
0.380579 0.018583 0.000000
0.413140 0.016618 0.000000
0.445743 0.014446 0.000000
0.478371 0.012060 0.000000
0.511006 0.009455 0.000000
0.543632 0.006626 0.000000
0.576232 0.003569 0.000000
0.608789 0.000281 0.000000
0.641286 0.000000 0.000000
0.673707 0.000000 0.000000
0.706036 0.000000 0.000000
0.738254 0.000000 0.000000
0.770346 0.000000 0.000000
0.802296 0.000000 0.000000
0.834085 0.000000 0.000000
0.865699 0.000000 0.000000
0.897119 0.000000 0.000000
0.928331 0.000000 0.000000
0.959315 0.000000 0.000000
0.973986 0.000000 0.000000
0.973986 0.000000 0.000000
0.000000 0.055098 0.003910
0.026467 0.056104 0.003702
0.058021 0.056189 0.003358
0.088317 0.054628 0.002833
0.121736 0.055966 0.003439
0.155134 0.056886 0.003763
0.188428 0.057455 0.003930
0.221538 0.057667 0.003878
0.253501 0.056684 0.002830
0.285632 0.055635 0.001648
0.317898 0.054483 0.000311
0.350275 0.053201 0.000000
0.382739 0.051764 0.000000
0.415270 0.050151 0.000000
0.447848 0.048338 0.000000
0.480456 0.046302 0.000000
0.513075 0.044016 0.000000
0.545687 0.041450 0.000000
0.578276 0.038559 0.000000
0.610824 0.035422 0.000000
0.643313 0.032061 0.000000
0.675728 0.028472 0.000000
0.708051 0.024653 0.000000
0.740265 0.020605 0.000000
0.772354 0.016327 0.000000
0.804300 0.011820 0.000000
0.836088 0.007085 0.000000
0.867699 0.002125 0.000000
0.899118 0.000000 0.000000
0.930328 0.000000 0.000000
0.961312 0.000000 0.000000
0.975805 0.000000 0.000000
0.975805 0.000000 0.000000
0.000000 0.084238 0.002310
0.024310 0.084076 0.001994
0.056029 0.084841 0.001650
0.088262 0.084798 0.001120
0.118669 0.083218 0.000391
0.151549 0.083865 0.000374
0.185248 0.084994 0.000803
0.218847 0.085769 0.001043
0.252422 0.086315 0.001158
0.286012 0.086709 0.001191
0.319636 0.087002 0.001171
0.352688 0.086672 0.000458
0.385095 0.085618 0.000000
0.417579 0.084485 0.000000
0.450119 0.083255 0.000000
0.482696 0.081915 0.000000
0.515288 0.080449 0.000000
0.547879 0.078847 0.000000
0.580449 0.077095 0.000000
0.612981 0.075179 0.000000
0.645457 0.073087 0.000000
0.677861 0.070802 0.000000
0.710174 0.068308 0.000000
0.742379 0.065585 0.000000
0.774461 0.062611 0.000000
0.806401 0.059359 0.000000
0.838182 0.055796 0.000000
0.869789 0.051880 0.000000
0.901204 0.047560 0.000000
0.932410 0.042767 0.000000
0.963391 0.037420 0.000000
0.977655 0.034839 0.000000
0.977655 0.034839 0.000000
0.000000 0.113560 0.000145
0.022339 0.113438 0.000000
0.053701 0.113292 0.000000
0.086610 0.113834 0.000000
0.118828 0.113687 0.000000
0.149738 0.112408 0.000000
0.181722 0.112055 0.000000
0.215622 0.113294 0.000000
0.249445 0.114215 0.000000
0.283236 0.114904 0.000000
0.317023 0.115424 0.000000
0.350818 0.115821 0.000000
0.384626 0.116128 0.000000
0.418444 0.116367 0.000000
0.452266 0.116557 0.000000
0.485085 0.115768 0.000000
0.517643 0.114654 0.000000
0.550204 0.113464 0.000000
0.582749 0.112190 0.000000
0.615259 0.110824 0.000000
0.647716 0.109356 0.000000
0.680103 0.107779 0.000000
0.712401 0.106087 0.000000
0.744594 0.104272 0.000000
0.776664 0.102326 0.000000
0.808594 0.100242 0.000000
0.840367 0.098011 0.000000
0.871966 0.095625 0.000000
0.903374 0.093074 0.000000
0.934574 0.090347 0.000000
0.965549 0.087433 0.000000
0.979571 0.086041 0.000000
0.979571 0.086041 0.000000
0.000000 0.143052 0.000000
0.019805 0.142956 0.000000
0.051633 0.142842 0.000000
0.084590 0.142674 0.000000
0.117430 0.143054 0.000000
0.149679 0.142818 0.000000
0.181003 0.141766 0.000000
0.213041 0.141309 0.000000
0.246223 0.141781 0.000000
0.280217 0.142805 0.000000
0.314177 0.143607 0.000000
0.348120 0.144239 0.000000
0.382055 0.144737 0.000000
0.415981 0.145132 0.000000
0.449896 0.145446 0.000000
0.483792 0.145698 0.000000
0.517662 0.145901 0.000000
0.551493 0.146065 0.000000
0.585170 0.146100 0.000000
0.617652 0.145006 0.000000
0.650086 0.143853 0.000000
0.682451 0.142633 0.000000
0.714731 0.141342 0.000000
0.746907 0.139974 0.000000
0.778963 0.138525 0.000000
0.810879 0.136990 0.000000
0.842640 0.135366 0.000000
0.874228 0.133648 0.000000
0.905626 0.131833 0.000000
0.936817 0.129917 0.000000
0.967785 0.127897 0.000000
0.981552 0.126960 0.000000
0.981552 0.126960 0.000000
0.000000 0.172701 0.000000
0.016659 0.172623 0.000000
0.048982 0.172531 0.000000
0.082835 0.172394 0.000000
0.115632 0.172206 0.000000
0.148475 0.172467 0.000000
0.180776 0.172154 0.000000
0.212447 0.171280 0.000000
0.244647 0.170836 0.000000
0.277014 0.170441 0.000000
0.311143 0.171537 0.000000
0.345235 0.172429 0.000000
0.379301 0.173154 0.000000
0.413343 0.173743 0.000000
0.447360 0.174223 0.000000
0.481346 0.174615 0.000000
0.515295 0.174935 0.000000
0.549197 0.175197 0.000000
0.583040 0.175411 0.000000
0.616812 0.175587 0.000000
0.650501 0.175732 0.000000
0.684092 0.175851 0.000000
0.717158 0.175549 0.000000
0.749315 0.174430 0.000000
0.781352 0.173260 0.000000
0.813252 0.172033 0.000000
0.844999 0.170748 0.000000
0.876573 0.169401 0.000000
0.907959 0.167990 0.000000
0.939139 0.166512 0.000000
0.970096 0.164967 0.000000
0.983597 0.164268 0.000000
0.983597 0.164268 0.000000
0.000000 0.202491 0.000000
0.012856 0.202427 0.000000
0.045642 0.202351 0.000000
0.080663 0.202238 0.000000
0.114074 0.202081 0.000000
0.146844 0.201876 0.000000
0.179724 0.202044 0.000000
0.212085 0.201665 0.000000
0.244053 0.200936 0.000000
0.276395 0.200501 0.000000
0.308757 0.200000 0.000000
0.342200 0.200403 0.000000
0.376395 0.201366 0.000000
0.410554 0.202169 0.000000
0.444675 0.202839 0.000000
0.478756 0.203397 0.000000
0.512790 0.203862 0.000000
0.546767 0.204250 0.000000
0.580679 0.204573 0.000000
0.614513 0.204843 0.000000
0.648257 0.205067 0.000000
0.681898 0.205254 0.000000
0.715422 0.205410 0.000000
0.748815 0.205539 0.000000
0.782061 0.205647 0.000000
0.815146 0.205736 0.000000
0.847438 0.205200 0.000000
0.878997 0.204076 0.000000
0.910368 0.202910 0.000000
0.941535 0.201698 0.000000
0.972479 0.200440 0.000000
0.985704 0.199886 0.000000
0.985704 0.199886 0.000000
0.000000 0.232410 0.000000
0.008356 0.232356 0.000000
0.041473 0.232293 0.000000
0.078021 0.232197 0.000000
0.112195 0.232064 0.000000
0.145426 0.231890 0.000000
0.178227 0.231672 0.000000
0.211156 0.231763 0.000000
0.243579 0.231329 0.000000
0.275801 0.230720 0.000000
0.308265 0.230293 0.000000
0.340737 0.229807 0.000000
0.373364 0.229393 0.000000
0.407637 0.230411 0.000000
0.441862 0.231280 0.000000
0.476038 0.232019 0.000000
0.510158 0.232647 0.000000
0.544215 0.233180 0.000000
0.578198 0.233633 0.000000
0.612098 0.234017 0.000000
0.645902 0.234343 0.000000
0.679597 0.234619 0.000000
0.713171 0.234852 0.000000
0.746609 0.235049 0.000000
0.779897 0.235215 0.000000
0.813020 0.235355 0.000000
0.845963 0.235472 0.000000
0.878710 0.235570 0.000000
0.911245 0.235652 0.000000
0.943554 0.235720 0.000000
0.974931 0.235085 0.000000
0.987871 0.234624 0.000000
0.987871 0.234624 0.000000
0.000000 0.262443 0.000000
0.003118 0.262397 0.000000
0.036332 0.262344 0.000000
0.074843 0.262262 0.000000
0.109960 0.262148 0.000000
0.143746 0.261998 0.000000
0.176914 0.261810 0.000000
0.209771 0.261580 0.000000
0.242752 0.261606 0.000000
0.275233 0.261123 0.000000
0.307673 0.260618 0.000000
0.340242 0.260197 0.000000
0.372804 0.259724 0.000000
0.405362 0.259195 0.000000
0.438940 0.259557 0.000000
0.473210 0.260479 0.000000
0.507416 0.261278 0.000000
0.541552 0.261968 0.000000
0.575609 0.262564 0.000000
0.609576 0.263077 0.000000
0.643442 0.263519 0.000000
0.677194 0.263899 0.000000
0.710820 0.264226 0.000000
0.744307 0.264507 0.000000
0.777639 0.264748 0.000000
0.810803 0.264954 0.000000
0.843784 0.265130 0.000000
0.876566 0.265280 0.000000
0.909134 0.265407 0.000000
0.941473 0.265515 0.000000
0.973566 0.265606 0.000000
0.986689 0.265639 0.000000
0.986689 0.265639 0.000000
0.000000 0.292576 0.000000
0.000000 0.292537 0.000000
0.030399 0.292491 0.000000
0.071047 0.292421 0.000000
0.107331 0.292322 0.000000
0.141781 0.292191 0.000000
0.175380 0.292027 0.000000
0.208540 0.291826 0.000000
0.241462 0.291587 0.000000
0.274491 0.291556 0.000000
0.307023 0.291031 0.000000
0.339652 0.290616 0.000000
0.372305 0.290201 0.000000
0.404939 0.289738 0.000000
0.437554 0.289224 0.000000
0.470286 0.288791 0.000000
0.504577 0.289759 0.000000
0.538792 0.290609 0.000000
0.572921 0.291353 0.000000
0.606956 0.292004 0.000000
0.640885 0.292573 0.000000
0.674696 0.293070 0.000000
0.708376 0.293502 0.000000
0.741913 0.293879 0.000000
0.775292 0.294207 0.000000
0.808499 0.294492 0.000000
0.841520 0.294739 0.000000
0.874339 0.294953 0.000000
0.906942 0.295138 0.000000
0.939312 0.295298 0.000000
0.971435 0.295435 0.000000
0.984267 0.295485 0.000000
0.984267 0.295485 0.000000
0.000000 0.322794 0.000000
0.000000 0.322761 0.000000
0.023663 0.322722 0.000000
0.066529 0.322661 0.000000
0.104263 0.322574 0.000000
0.139505 0.322459 0.000000
0.173608 0.322315 0.000000
0.207118 0.322138 0.000000
0.240297 0.321926 0.000000
0.273285 0.321678 0.000000
0.306354 0.321596 0.000000
0.338962 0.321067 0.000000
0.371718 0.320700 0.000000
0.404437 0.320290 0.000000
0.437124 0.319835 0.000000
0.469777 0.319335 0.000000
0.502389 0.318788 0.000000
0.535945 0.319107 0.000000
0.570147 0.320001 0.000000
0.604249 0.320793 0.000000
0.638241 0.321494 0.000000
0.672110 0.322113 0.000000
0.705845 0.322660 0.000000
0.739433 0.323142 0.000000
0.772860 0.323567 0.000000
0.806112 0.323940 0.000000
0.839174 0.324269 0.000000
0.872032 0.324557 0.000000
0.904670 0.324810 0.000000
0.937074 0.325031 0.000000
0.969229 0.325224 0.000000
0.981765 0.325293 0.000000
0.981765 0.325293 0.000000
0.000000 0.353085 0.000000
0.000000 0.353056 0.000000
0.016094 0.353023 0.000000
0.061147 0.352969 0.000000
0.100705 0.352892 0.000000
0.136891 0.352791 0.000000
0.171581 0.352662 0.000000
0.205492 0.352505 0.000000
0.238964 0.352317 0.000000
0.272174 0.352096 0.000000
0.305222 0.351840 0.000000
0.338321 0.351710 0.000000
0.371036 0.351222 0.000000
0.403852 0.350855 0.000000
0.436620 0.350449 0.000000
0.469341 0.350003 0.000000
0.502013 0.349514 0.000000
0.534628 0.348983 0.000000
0.567293 0.348514 0.000000
0.601462 0.349445 0.000000
0.635517 0.350279 0.000000
0.669445 0.351024 0.000000
0.703235 0.351689 0.000000
0.736874 0.352282 0.000000
0.770349 0.352809 0.000000
0.803645 0.353279 0.000000
0.836750 0.353696 0.000000
0.869647 0.354066 0.000000
0.902323 0.354395 0.000000
0.934762 0.354685 0.000000
0.966949 0.354943 0.000000
0.979185 0.355034 0.000000
0.979185 0.355034 0.000000
0.000000 0.383433 0.000000
0.000000 0.383409 0.000000
0.007663 0.383379 0.000000
0.054701 0.383332 0.000000
0.096593 0.383264 0.000000
0.133907 0.383174 0.000000
0.169278 0.383059 0.000000
0.203649 0.382918 0.000000
0.237453 0.382749 0.000000
0.270913 0.382550 0.000000
0.304157 0.382321 0.000000
0.337257 0.382059 0.000000
0.370372 0.381884 0.000000
0.403177 0.381434 0.000000
0.436035 0.381069 0.000000
0.468833 0.380666 0.000000
0.501571 0.380226 0.000000
0.534243 0.379748 0.000000
0.566844 0.379230 0.000000
0.599364 0.378673 0.000000
0.632720 0.378929 0.000000
0.666706 0.379799 0.000000
0.700551 0.380583 0.000000
0.734241 0.381289 0.000000
0.767764 0.381924 0.000000
0.801106 0.382494 0.000000
0.834253 0.383005 0.000000
0.867190 0.383463 0.000000
0.899904 0.383873 0.000000
0.932378 0.384240 0.000000
0.964598 0.384568 0.000000
0.976534 0.384684 0.000000
0.976534 0.384684 0.000000
0.000000 0.413824 0.000000
0.000000 0.413804 0.000000
0.000000 0.413778 0.000000
0.046885 0.413737 0.000000
0.091845 0.413676 0.000000
0.130517 0.413595 0.000000
0.166680 0.413491 0.000000
0.201576 0.413364 0.000000
0.235753 0.413211 0.000000
0.269494 0.413032 0.000000
0.302956 0.412824 0.000000
0.336230 0.412587 0.000000
0.369370 0.412320 0.000000
0.402489 0.412102 0.000000
0.435366 0.411690 0.000000
0.468248 0.411325 0.000000
0.501059 0.410926 0.000000
0.533794 0.410492 0.000000
0.566450 0.410023 0.000000
0.599018 0.409517 0.000000
0.631489 0.408975 0.000000
0.663900 0.408441 0.000000
0.697799 0.409343 0.000000
0.731540 0.410162 0.000000
0.765111 0.410904 0.000000
0.798498 0.411577 0.000000
0.831687 0.412185 0.000000
0.864666 0.412736 0.000000
0.897422 0.413237 0.000000
0.929938 0.413690 0.000000
0.962198 0.414099 0.000000
0.973833 0.414239 0.000000
0.973833 0.414239 0.000000
0.000000 0.444245 0.000000
0.000000 0.444228 0.000000
0.000000 0.444206 0.000000
0.037214 0.444169 0.000000
0.086360 0.444114 0.000000
0.126679 0.444041 0.000000
0.163763 0.443948 0.000000
0.199256 0.443832 0.000000
0.233854 0.443693 0.000000
0.267909 0.443530 0.000000
0.301612 0.443341 0.000000
0.335078 0.443126 0.000000
0.368375 0.442882 0.000000
0.401544 0.442609 0.000000
0.434651 0.442350 0.000000
0.467584 0.441975 0.000000
0.500473 0.441611 0.000000
0.533277 0.441215 0.000000
0.565993 0.440787 0.000000
0.598614 0.440325 0.000000
0.631131 0.439831 0.000000
0.663535 0.439303 0.000000
0.695814 0.438741 0.000000
0.728776 0.438899 0.000000
0.762396 0.439750 0.000000
0.795833 0.440529 0.000000
0.829070 0.441240 0.000000
0.862093 0.441889 0.000000
0.894888 0.442479 0.000000
0.927439 0.443016 0.000000
0.959732 0.443505 0.000000
0.971066 0.443668 0.000000
0.971066 0.443668 0.000000
0.000000 0.474682 0.000000
0.000000 0.474667 0.000000
0.000000 0.474648 0.000000
0.026189 0.474615 0.000000
0.079999 0.474566 0.000000
0.122342 0.474499 0.000000
0.160500 0.474414 0.000000
0.196673 0.474309 0.000000
0.231745 0.474182 0.000000
0.266148 0.474033 0.000000
0.300119 0.473860 0.000000
0.333797 0.473663 0.000000
0.367266 0.473440 0.000000
0.400576 0.473190 0.000000
0.433760 0.472913 0.000000
0.466841 0.472614 0.000000
0.499810 0.472274 0.000000
0.532689 0.471911 0.000000
0.565470 0.471518 0.000000
0.598148 0.471095 0.000000
0.630716 0.470641 0.000000
0.663164 0.470157 0.000000
0.695483 0.469641 0.000000
0.727661 0.469094 0.000000
0.759686 0.468516 0.000000
0.793114 0.469348 0.000000
0.826394 0.470157 0.000000
0.859457 0.470899 0.000000
0.892290 0.471580 0.000000
0.924877 0.472203 0.000000
0.957204 0.472773 0.000000
0.968238 0.472959 0.000000
0.968238 0.472959 0.000000
0.000000 0.505119 0.000000
0.000000 0.505106 0.000000
0.000000 0.505090 0.000000
0.014210 0.505060 0.000000
0.072567 0.505016 0.000000
0.117445 0.504956 0.000000
0.156863 0.504878 0.000000
0.193811 0.504782 0.000000
0.229413 0.504666 0.000000
0.264203 0.504529 0.000000
0.298470 0.504370 0.000000
0.332380 0.504188 0.000000
0.366037 0.503983 0.000000
0.399501 0.503753 0.000000
0.432814 0.503497 0.000000
0.465998 0.503216 0.000000
0.499068 0.502909 0.000000
0.532027 0.502574 0.000000
0.564878 0.502212 0.000000
0.597618 0.501822 0.000000
0.630240 0.501403 0.000000
0.662737 0.500957 0.000000
0.695099 0.500481 0.000000
0.727315 0.499977 0.000000
0.759374 0.499444 0.000000
0.791263 0.498883 0.000000
0.823658 0.498927 0.000000
0.856762 0.499763 0.000000
0.889632 0.500533 0.000000
0.922255 0.501242 0.000000
0.954616 0.501895 0.000000
0.965353 0.502103 0.000000
0.965353 0.502103 0.000000
0.000000 0.535543 0.000000
0.000000 0.535533 0.000000
0.000000 0.535518 0.000000
0.001259 0.535492 0.000000
0.063775 0.535452 0.000000
0.111910 0.535397 0.000000
0.152817 0.535325 0.000000
0.190650 0.535237 0.000000
0.226846 0.535130 0.000000
0.262066 0.535004 0.000000
0.296657 0.534857 0.000000
0.330822 0.534689 0.000000
0.364683 0.534499 0.000000
0.398316 0.534286 0.000000
0.431769 0.534050 0.000000
0.465071 0.533790 0.000000
0.498241 0.533505 0.000000
0.531288 0.533195 0.000000
0.564215 0.532860 0.000000
0.597021 0.532499 0.000000
0.629702 0.532111 0.000000
0.662250 0.531698 0.000000
0.694658 0.531257 0.000000
0.726916 0.530791 0.000000
0.759012 0.530297 0.000000
0.790934 0.529777 0.000000
0.822670 0.529231 0.000000
0.854206 0.528659 0.000000
0.886917 0.529335 0.000000
0.919576 0.530130 0.000000
0.951971 0.530865 0.000000
0.962416 0.531093 0.000000
0.962416 0.531093 0.000000
0.000000 0.565940 0.000000
0.000000 0.565932 0.000000
0.000000 0.565919 0.000000
0.000000 0.565895 0.000000
0.053151 0.565859 0.000000
0.105640 0.565808 0.000000
0.148323 0.565743 0.000000
0.187169 0.565661 0.000000
0.224031 0.565562 0.000000
0.259725 0.565445 0.000000
0.294674 0.565309 0.000000
0.329117 0.565153 0.000000
0.363200 0.564977 0.000000
0.397015 0.564780 0.000000
0.430619 0.564560 0.000000
0.464049 0.564318 0.000000
0.497328 0.564054 0.000000
0.530469 0.563766 0.000000
0.563478 0.563454 0.000000
0.596355 0.563118 0.000000
0.629098 0.562758 0.000000
0.661702 0.562373 0.000000
0.694160 0.561964 0.000000
0.726461 0.561530 0.000000
0.758597 0.561071 0.000000
0.790554 0.560587 0.000000
0.822322 0.560079 0.000000
0.853887 0.559547 0.000000
0.885236 0.558991 0.000000
0.916843 0.558860 0.000000
0.949271 0.559677 0.000000
0.959430 0.559924 0.000000
0.959430 0.559924 0.000000
0.000000 0.596296 0.000000
0.000000 0.596289 0.000000
0.000000 0.596278 0.000000
0.000000 0.596256 0.000000
0.039828 0.596223 0.000000
0.098504 0.596177 0.000000
0.143333 0.596116 0.000000
0.183343 0.596040 0.000000
0.220953 0.595949 0.000000
0.257173 0.595840 0.000000
0.292513 0.595713 0.000000
0.327259 0.595568 0.000000
0.361584 0.595404 0.000000
0.395596 0.595220 0.000000
0.429363 0.595016 0.000000
0.462930 0.594790 0.000000
0.496326 0.594543 0.000000
0.529568 0.594274 0.000000
0.562663 0.593983 0.000000
0.595617 0.593670 0.000000
0.628427 0.593334 0.000000
0.661090 0.592975 0.000000
0.693600 0.592592 0.000000
0.725949 0.592187 0.000000
0.758126 0.591759 0.000000
0.790122 0.591308 0.000000
0.821924 0.590834 0.000000
0.853519 0.590337 0.000000
0.884896 0.589818 0.000000
0.916040 0.589277 0.000000
0.946938 0.588714 0.000000
0.956399 0.588590 0.000000
0.956399 0.588590 0.000000
0.000000 0.626596 0.000000
0.000000 0.626590 0.000000
0.000000 0.626581 0.000000
0.000000 0.626561 0.000000
0.024053 0.626531 0.000000
0.090319 0.626488 0.000000
0.137789 0.626432 0.000000
0.179145 0.626361 0.000000
0.217596 0.626276 0.000000
0.254398 0.626174 0.000000
0.290167 0.626056 0.000000
0.325243 0.625921 0.000000
0.359829 0.625767 0.000000
0.394053 0.625595 0.000000
0.427996 0.625404 0.000000
0.461711 0.625193 0.000000
0.495232 0.624962 0.000000
0.528581 0.624710 0.000000
0.561770 0.624438 0.000000
0.594804 0.624144 0.000000
0.627686 0.623829 0.000000
0.660413 0.623493 0.000000
0.692979 0.623135 0.000000
0.725377 0.622755 0.000000
0.757599 0.622354 0.000000
0.789635 0.621931 0.000000
0.821472 0.621487 0.000000
0.853101 0.621022 0.000000
0.884507 0.620536 0.000000
0.915678 0.620030 0.000000
0.946600 0.619503 0.000000
0.955748 0.619344 0.000000
0.955748 0.619344 0.000000
0.000000 0.656827 0.000000
0.000000 0.656822 0.000000
0.000000 0.656813 0.000000
0.000000 0.656796 0.000000
0.007258 0.656768 0.000000
0.080822 0.656728 0.000000
0.131620 0.656676 0.000000
0.174545 0.656610 0.000000
0.213944 0.656530 0.000000
0.251390 0.656435 0.000000
0.287629 0.656325 0.000000
0.323063 0.656198 0.000000
0.357932 0.656054 0.000000
0.392384 0.655892 0.000000
0.426516 0.655713 0.000000
0.460389 0.655514 0.000000
0.494044 0.655297 0.000000
0.527507 0.655061 0.000000
0.560795 0.654805 0.000000
0.593916 0.654529 0.000000
0.626874 0.654233 0.000000
0.659667 0.653917 0.000000
0.692293 0.653581 0.000000
0.724744 0.653224 0.000000
0.757013 0.652847 0.000000
0.789091 0.652450 0.000000
0.820967 0.652033 0.000000
0.852630 0.651596 0.000000
0.884068 0.651139 0.000000
0.915267 0.650663 0.000000
0.946214 0.650168 0.000000
0.955115 0.650023 0.000000
0.955115 0.650023 0.000000
0.000000 0.686973 0.000000
0.000000 0.686969 0.000000
0.000000 0.686962 0.000000
0.000000 0.686946 0.000000
0.000000 0.686920 0.000000
0.069597 0.686883 0.000000
0.124735 0.686834 0.000000
0.169506 0.686773 0.000000
0.209977 0.686698 0.000000
0.248138 0.686609 0.000000
0.284890 0.686505 0.000000
0.320713 0.686385 0.000000
0.355887 0.686250 0.000000
0.390585 0.686098 0.000000
0.424919 0.685929 0.000000
0.458960 0.685742 0.000000
0.492758 0.685538 0.000000
0.526343 0.685315 0.000000
0.559737 0.685074 0.000000
0.592950 0.684814 0.000000
0.625988 0.684535 0.000000
0.658852 0.684237 0.000000
0.691541 0.683920 0.000000
0.724048 0.683584 0.000000
0.756367 0.683229 0.000000
0.788490 0.682854 0.000000
0.820406 0.682461 0.000000
0.852106 0.682049 0.000000
0.883576 0.681619 0.000000
0.914805 0.681170 0.000000
0.945779 0.680704 0.000000
0.954443 0.680571 0.000000
0.954443 0.680571 0.000000
0.000000 0.717021 0.000000
0.000000 0.717018 0.000000
0.000000 0.717012 0.000000
0.000000 0.716997 0.000000
0.000000 0.716973 0.000000
0.055926 0.716939 0.000000
0.117014 0.716893 0.000000
0.163985 0.716835 0.000000
0.205675 0.716765 0.000000
0.244627 0.716681 0.000000
0.281942 0.716583 0.000000
0.318187 0.716470 0.000000
0.353691 0.716343 0.000000
0.388653 0.716199 0.000000
0.423202 0.716039 0.000000
0.457423 0.715863 0.000000
0.491373 0.715670 0.000000
0.525088 0.715460 0.000000
0.558594 0.715232 0.000000
0.591904 0.714986 0.000000
0.625027 0.714723 0.000000
0.657967 0.714441 0.000000
0.690721 0.714142 0.000000
0.723287 0.713824 0.000000
0.755660 0.713488 0.000000
0.787830 0.713134 0.000000
0.819788 0.712762 0.000000
0.851526 0.712373 0.000000
0.883031 0.711966 0.000000
0.914291 0.711542 0.000000
0.945294 0.711101 0.000000
0.953735 0.710979 0.000000
0.953735 0.710979 0.000000
0.000000 0.746958 0.000000
0.000000 0.746955 0.000000
0.000000 0.746950 0.000000
0.000000 0.746936 0.000000
0.000000 0.746914 0.000000
0.038319 0.746881 0.000000
0.108297 0.746838 0.000000
0.157930 0.746784 0.000000
0.201012 0.746717 0.000000
0.240846 0.746638 0.000000
0.278777 0.746546 0.000000
0.315480 0.746439 0.000000
0.351338 0.746318 0.000000
0.386583 0.746182 0.000000
0.421362 0.746031 0.000000
0.455775 0.745864 0.000000
0.489886 0.745681 0.000000
0.523740 0.745482 0.000000
0.557363 0.745266 0.000000
0.590777 0.745033 0.000000
0.623990 0.744784 0.000000
0.657008 0.744517 0.000000
0.689833 0.744233 0.000000
0.722461 0.743932 0.000000
0.754889 0.743614 0.000000
0.787109 0.743278 0.000000
0.819112 0.742926 0.000000
0.850890 0.742557 0.000000
0.882431 0.742171 0.000000
0.913724 0.741769 0.000000
0.944756 0.741352 0.000000
0.952988 0.741239 0.000000
0.952988 0.741239 0.000000
0.000000 0.776767 0.000000
0.000000 0.776765 0.000000
0.000000 0.776761 0.000000
0.000000 0.776748 0.000000
0.000000 0.776727 0.000000
0.017596 0.776697 0.000000
0.098352 0.776656 0.000000
0.151276 0.776605 0.000000
0.195962 0.776542 0.000000
0.236780 0.776467 0.000000
0.275386 0.776379 0.000000
0.312586 0.776278 0.000000
0.348825 0.776163 0.000000
0.384372 0.776034 0.000000
0.419398 0.775891 0.000000
0.454015 0.775732 0.000000
0.488297 0.775558 0.000000
0.522296 0.775369 0.000000
0.556045 0.775164 0.000000
0.589566 0.774943 0.000000
0.622874 0.774706 0.000000
0.655976 0.774452 0.000000
0.688875 0.774182 0.000000
0.721569 0.773896 0.000000
0.754054 0.773594 0.000000
0.786326 0.773275 0.000000
0.818377 0.772941 0.000000
