colorkit/colorkit/luts/warm_interview.cube
TITLE "warm_interview"
LUT_3D_SIZE 5
DOMAIN_MIN 0.0 0.0 0.0
DOMAIN_MAX 1.0 1.0 1.0
0.000000 0.000000 0.006432
0.249060 0.000000 0.001091
0.509100 0.000000 0.000000
0.768448 0.000000 0.000000
0.972078 0.000000 0.000000
0.000000 0.232410 0.000000
0.243579 0.231329 0.000000
0.510158 0.232647 0.000000
0.779897 0.235215 0.000000
0.987871 0.234624 0.000000
0.000000 0.474682 0.000000
0.231745 0.474182 0.000000
0.499810 0.472274 0.000000
0.759686 0.468516 0.000000
0.968238 0.472959 0.000000
0.000000 0.717021 0.000000
0.205675 0.716765 0.000000
0.491373 0.715670 0.000000
0.755660 0.713488 0.000000
0.953735 0.710979 0.000000
0.000000 0.951185 0.000000
0.155550 0.950936 0.000000
0.476605 0.950108 0.000000
0.747716 0.948538 0.000000
0.946780 0.946780 0.000000
0.000000 0.000000 0.230213
0.245867 0.000000 0.228646
0.503301 0.000000 0.223445
0.759908 0.000000 0.213293
0.961353 0.000000 0.200792
0.000000 0.232031 0.224660
0.258175 0.245395 0.236925
0.510918 0.233005 0.223654
0.770837 0.226421 0.215631
0.972871 0.218751 0.206528
0.000000 0.474545 0.206404
0.231589 0.474047 0.203670
0.506193 0.478135 0.199745
0.769864 0.477652 0.199186
0.980233 0.483547 0.204565
0.000000 0.716957 0.168109
0.205504 0.716699 0.164653
0.491428 0.715603 0.156113
0.758912 0.716409 0.140785
0.953670 0.710909 0.120081
0.000000 0.951121 0.087336
0.155241 0.950872 0.081407
0.476583 0.950044 0.064732
0.747718 0.948474 0.024513
0.949027 0.949027 0.000000
0.000000 0.000000 0.462849
0.244721 0.000000 0.462007
0.502900 0.000000 0.459506
0.759752 0.000000 0.454917
0.961214 0.000000 0.449606
0.000000 0.230760 0.459594
0.242076 0.229439 0.458223
0.502880 0.224721 0.455236
0.760662 0.215306 0.450211
0.960495 0.203766 0.444643
0.000000 0.474034 0.450397
0.235091 0.481932 0.456721
0.526102 0.497136 0.470072
0.774684 0.481742 0.454189
0.973550 0.477451 0.448734
0.000000 0.716673 0.434386
0.204329 0.716415 0.432646
0.498654 0.725932 0.436007
0.771246 0.727909 0.433222
0.963293 0.719627 0.428145
0.000000 0.950906 0.411463
0.153563 0.950656 0.409919
0.476185 0.949829 0.406797
0.754161 0.956583 0.405412
0.957415 0.957415 0.400990
0.000000 0.000000 0.696117
0.242486 0.000000 0.695458
0.502055 0.000000 0.693740
0.759338 0.000000 0.690737
0.960798 0.000000 0.687362
0.000000 0.228312 0.693451
0.239929 0.226981 0.692297
0.502124 0.222208 0.690143
0.760318 0.212672 0.686778
0.960081 0.200982 0.683200
0.000000 0.473034 0.686787
0.228354 0.472539 0.685382
0.499814 0.471508 0.684281
0.759421 0.466850 0.679557
0.957672 0.462464 0.675974
0.000000 0.716102 0.676138
0.203194 0.720005 0.678686
0.505739 0.736453 0.693007
0.793228 0.748972 0.704050
0.986633 0.740459 0.695899
0.000000 0.950492 0.662161
0.150028 0.950243 0.661051
0.479843 0.958040 0.665280
0.765661 0.971176 0.672779
0.972759 0.972759 0.672109
0.000000 0.000000 0.923808
0.239048 0.000000 0.923201
0.500727 0.000000 0.921810
0.758642 0.000000 0.919494
0.960172 0.000000 0.916958
0.000000 0.224559 0.921326
0.236562 0.223209 0.920252
0.500879 0.218350 0.918458
0.759686 0.208621 0.915819
0.959458 0.196683 0.913107
0.000000 0.471505 0.915749
0.224854 0.471010 0.914458
0.497657 0.469090 0.912520
0.758795 0.465299 0.909816
0.957050 0.460900 0.907134
0.000000 0.715220 0.907413
0.197778 0.714960 0.906175
0.490993 0.716571 0.907761
0.774729 0.730738 0.925698
0.971823 0.723852 0.917825
0.000000 0.949866 0.897135
0.144693 0.951343 0.897850
0.481752 0.963778 0.909000
0.774964 0.983206 0.926845
0.994205 0.994205 0.936907
